(G-CODE GENERATED BY FLATCAM v8.991 - www.flatcam.org - Version Date: 2019/12/27)

(This GCode tool change is done by using a Probe.)
(Make sure that before you start the job you first do a rough zero for Z axis.)
(This means that you need to zero the CNC axis and then jog to the toolchange X, Y location,)
(mount the probe and adjust the Z so more or less the probe tip touch the plate. Then zero the Z axis.)

(Name: 2)
(Type: G-code from Geometry)
(Units: MM)

(Created on Monday, 06 April 2020 at 14:38)

(TOOL DIAMETER: 0.3 mm)
(Feedrate: 120.0 mm/min)
(Feedrate_Z: 60.0 mm/min)
(Feedrate rapids 1500.0 mm/min)

(Feedrate Probe 75.0 mm/min)

(Z_Cut: -0.15 mm)
(Z_Move: 2.0 mm)
(Z Toolchange: 15.0 mm)
(X,Y Toolchange: 0.0000, 0.0000 mm)
(Z Start: None mm)
(Z End: 4.0 mm)
(Z Probe Depth: -0.02 mm)
(Steps per circle: 64)
(Preprocessor Geometry: Toolchange_Probe_MACH3)

(X range:    1.4800 ...   17.9700  mm)
(Y range:    2.1900 ...   27.8200  mm)

(Spindle Speed: None RPM)
G21
G90
G17
G94




G01 F120.00
G00 Z2.0000
(MSG, WARNING: Make sure you do zero on all axis. For Z axis, since it will be probed, make a rough estimate and do a zero.)
M0
M03
G00 X4.5190 Y4.4804
G01 F60.00
G01 Z-0.1500
G01 F120.00
G01 X4.5187 Y4.4865
G01 X4.5148 Y4.5127
G01 X4.5084 Y4.5384
G01 X4.4994 Y4.5633
G01 X4.4881 Y4.5873
G01 X4.4745 Y4.6100
G01 X4.4587 Y4.6313
G01 X4.4409 Y4.6509
G01 X4.4213 Y4.6687
G01 X4.4000 Y4.6845
G01 X4.3773 Y4.6981
G01 X4.3533 Y4.7094
G01 X4.3284 Y4.7184
G01 X4.3027 Y4.7248
G01 X4.2765 Y4.7287
G01 X4.2500 Y4.7300
G01 X1.7500 Y4.7300
G01 X1.7235 Y4.7287
G01 X1.6973 Y4.7248
G01 X1.6716 Y4.7184
G01 X1.6467 Y4.7094
G01 X1.6227 Y4.6981
G01 X1.6000 Y4.6845
G01 X1.5787 Y4.6687
G01 X1.5591 Y4.6509
G01 X1.5413 Y4.6313
G01 X1.5255 Y4.6100
G01 X1.5119 Y4.5873
G01 X1.5006 Y4.5633
G01 X1.4916 Y4.5384
G01 X1.4852 Y4.5127
G01 X1.4813 Y4.4865
G01 X1.4800 Y4.4600
G01 X1.4800 Y2.4600
G01 X1.4813 Y2.4335
G01 X1.4852 Y2.4073
G01 X1.4916 Y2.3816
G01 X1.5006 Y2.3567
G01 X1.5119 Y2.3327
G01 X1.5255 Y2.3100
G01 X1.5413 Y2.2887
G01 X1.5591 Y2.2691
G01 X1.5787 Y2.2513
G01 X1.6000 Y2.2355
G01 X1.6227 Y2.2219
G01 X1.6467 Y2.2106
G01 X1.6716 Y2.2016
G01 X1.6973 Y2.1952
G01 X1.7235 Y2.1913
G01 X1.7500 Y2.1900
G01 X4.2500 Y2.1900
G01 X4.2765 Y2.1913
G01 X4.3027 Y2.1952
G01 X4.3284 Y2.2016
G01 X4.3533 Y2.2106
G01 X4.3773 Y2.2219
G01 X4.4000 Y2.2355
G01 X4.4213 Y2.2513
G01 X4.4409 Y2.2691
G01 X4.4587 Y2.2887
G01 X4.4745 Y2.3100
G01 X4.4881 Y2.3327
G01 X4.4994 Y2.3567
G01 X4.5084 Y2.3816
G01 X4.5148 Y2.4073
G01 X4.5187 Y2.4335
G01 X4.5190 Y2.4396
G01 X7.9600 Y2.4396
G01 X7.9732 Y2.4400
G01 X8.0468 Y2.4436
G01 X8.0732 Y2.4462
G01 X8.1460 Y2.4570
G01 X8.1720 Y2.4621
G01 X8.2434 Y2.4800
G01 X8.2688 Y2.4877
G01 X8.3381 Y2.5125
G01 X8.3626 Y2.5227
G01 X8.4292 Y2.5542
G01 X8.4525 Y2.5666
G01 X8.5157 Y2.6045
G01 X8.5377 Y2.6192
G01 X8.5969 Y2.6631
G01 X8.6174 Y2.6799
G01 X8.6719 Y2.7293
G01 X8.6815 Y2.7385
G01 X9.9230 Y3.9800
G01 X11.4500 Y3.9800
G01 X11.4765 Y3.9813
G01 X11.5027 Y3.9852
G01 X11.5284 Y3.9916
G01 X11.5533 Y4.0006
G01 X11.5773 Y4.0119
G01 X11.6000 Y4.0255
G01 X11.6213 Y4.0413
G01 X11.6409 Y4.0591
G01 X11.6587 Y4.0787
G01 X11.6745 Y4.1000
G01 X11.6881 Y4.1227
G01 X11.6994 Y4.1467
G01 X11.7084 Y4.1716
G01 X11.7148 Y4.1973
G01 X11.7187 Y4.2235
G01 X11.7200 Y4.2500
G01 X11.7200 Y6.7500
G01 X11.7187 Y6.7765
G01 X11.7148 Y6.8027
G01 X11.7084 Y6.8284
G01 X11.6994 Y6.8533
G01 X11.6881 Y6.8773
G01 X11.6745 Y6.9000
G01 X11.6587 Y6.9213
G01 X11.6409 Y6.9409
G01 X11.6213 Y6.9587
G01 X11.6000 Y6.9745
G01 X11.5773 Y6.9881
G01 X11.5533 Y6.9994
G01 X11.5284 Y7.0084
G01 X11.5027 Y7.0148
G01 X11.4765 Y7.0187
G01 X11.4500 Y7.0200
G01 X10.5204 Y7.0200
G01 X10.5204 Y7.8200
G01 X10.5200 Y7.8332
G01 X10.5164 Y7.9068
G01 X10.5138 Y7.9332
G01 X10.5030 Y8.0060
G01 X10.4979 Y8.0320
G01 X10.4800 Y8.1034
G01 X10.4723 Y8.1288
G01 X10.4475 Y8.1981
G01 X10.4373 Y8.2226
G01 X10.4058 Y8.2892
G01 X10.3934 Y8.3125
G01 X10.3555 Y8.3757
G01 X10.3408 Y8.3977
G01 X10.2969 Y8.4569
G01 X10.2801 Y8.4774
G01 X10.2307 Y8.5319
G01 X10.2215 Y8.5415
G01 X8.9703 Y9.7928
G01 X8.9703 Y10.3500
G01 X9.3000 Y10.3500
G01 X9.3265 Y10.3513
G01 X9.3527 Y10.3552
G01 X9.3784 Y10.3616
G01 X9.4033 Y10.3706
G01 X9.4273 Y10.3819
G01 X9.4500 Y10.3955
G01 X9.4713 Y10.4113
G01 X9.4909 Y10.4291
G01 X9.5087 Y10.4487
G01 X9.5245 Y10.4700
G01 X9.5381 Y10.4927
G01 X9.5494 Y10.5167
G01 X9.5584 Y10.5416
G01 X9.5648 Y10.5673
G01 X9.5687 Y10.5935
G01 X9.5700 Y10.6200
G01 X9.5700 Y11.8200
G01 X9.5687 Y11.8465
G01 X9.5648 Y11.8727
G01 X9.5584 Y11.8984
G01 X9.5494 Y11.9233
G01 X9.5381 Y11.9473
G01 X9.5245 Y11.9700
G01 X9.5087 Y11.9913
G01 X9.4909 Y12.0109
G01 X9.4713 Y12.0287
G01 X9.4500 Y12.0445
G01 X9.4273 Y12.0581
G01 X9.4033 Y12.0694
G01 X9.3784 Y12.0784
G01 X9.3527 Y12.0848
G01 X9.3265 Y12.0887
G01 X9.3000 Y12.0900
G01 X7.1000 Y12.0900
G01 X7.0735 Y12.0887
G01 X7.0473 Y12.0848
G01 X7.0216 Y12.0784
G01 X6.9967 Y12.0694
G01 X6.9727 Y12.0581
G01 X6.9500 Y12.0445
G01 X6.9287 Y12.0287
G01 X6.9091 Y12.0109
G01 X6.8913 Y11.9913
G01 X6.8755 Y11.9700
G01 X6.8619 Y11.9473
G01 X6.8506 Y11.9233
G01 X6.8416 Y11.8984
G01 X6.8352 Y11.8727
G01 X6.8313 Y11.8465
G01 X6.8300 Y11.8200
G01 X6.8300 Y10.6200
G01 X6.8313 Y10.5935
G01 X6.8352 Y10.5673
G01 X6.8416 Y10.5416
G01 X6.8506 Y10.5167
G01 X6.8619 Y10.4927
G01 X6.8755 Y10.4700
G01 X6.8913 Y10.4487
G01 X6.9091 Y10.4291
G01 X6.9287 Y10.4113
G01 X6.9500 Y10.3955
G01 X6.9727 Y10.3819
G01 X6.9967 Y10.3706
G01 X7.0216 Y10.3616
G01 X7.0473 Y10.3552
G01 X7.0735 Y10.3513
G01 X7.1000 Y10.3500
G01 X7.4297 Y10.3500
G01 X7.4297 Y9.7882
G01 X7.4199 Y9.7774
G01 X7.4031 Y9.7569
G01 X7.3592 Y9.6977
G01 X7.3445 Y9.6757
G01 X7.3066 Y9.6125
G01 X7.2942 Y9.5892
G01 X7.2627 Y9.5226
G01 X7.2525 Y9.4981
G01 X7.2277 Y9.4288
G01 X7.2200 Y9.4034
G01 X7.2021 Y9.3320
G01 X7.1970 Y9.3060
G01 X7.1862 Y9.2332
G01 X7.1836 Y9.2068
G01 X7.1800 Y9.1332
G01 X7.1800 Y9.1068
G01 X7.1836 Y9.0332
G01 X7.1862 Y9.0068
G01 X7.1970 Y8.9340
G01 X7.2021 Y8.9080
G01 X7.2200 Y8.8366
G01 X7.2277 Y8.8112
G01 X7.2525 Y8.7419
G01 X7.2627 Y8.7174
G01 X7.2942 Y8.6508
G01 X7.3066 Y8.6275
G01 X7.3445 Y8.5643
G01 X7.3592 Y8.5423
G01 X7.4031 Y8.4831
G01 X7.4199 Y8.4626
G01 X7.4693 Y8.4081
G01 X7.4785 Y8.3985
G01 X8.4796 Y7.3973
G01 X8.4796 Y7.0200
G01 X7.4500 Y7.0200
G01 X7.4235 Y7.0187
G01 X7.3973 Y7.0148
G01 X7.3716 Y7.0084
G01 X7.3467 Y6.9994
G01 X7.3227 Y6.9881
G01 X7.3000 Y6.9745
G01 X7.2787 Y6.9587
G01 X7.2591 Y6.9409
G01 X7.2413 Y6.9213
G01 X7.2255 Y6.9000
G01 X7.2119 Y6.8773
G01 X7.2006 Y6.8533
G01 X7.1916 Y6.8284
G01 X7.1852 Y6.8027
G01 X7.1813 Y6.7765
G01 X7.1800 Y6.7500
G01 X7.1800 Y4.4804
G01 X4.5190 Y4.4804
G00 Z2.0000
G00 X1.9796 Y6.9321
G01 F60.00
G01 Z-0.1500
G01 F120.00
G01 X1.9669 Y6.9236
G01 X1.8999 Y6.8739
G01 X1.8794 Y6.8571
G01 X1.8176 Y6.8011
G01 X1.7989 Y6.7824
G01 X1.7429 Y6.7206
G01 X1.7261 Y6.7001
G01 X1.6764 Y6.6331
G01 X1.6617 Y6.6110
G01 X1.6188 Y6.5395
G01 X1.6063 Y6.5161
G01 X1.5706 Y6.4407
G01 X1.5605 Y6.4162
G01 X1.5324 Y6.3377
G01 X1.5247 Y6.3123
G01 X1.5044 Y6.2314
G01 X1.4993 Y6.2054
G01 X1.4870 Y6.1229
G01 X1.4844 Y6.0966
G01 X1.4803 Y6.0132
G01 X1.4803 Y5.9868
G01 X1.4844 Y5.9034
G01 X1.4870 Y5.8771
G01 X1.4993 Y5.7946
G01 X1.5044 Y5.7686
G01 X1.5247 Y5.6877
G01 X1.5324 Y5.6623
G01 X1.5605 Y5.5838
G01 X1.5706 Y5.5593
G01 X1.6063 Y5.4839
G01 X1.6188 Y5.4605
G01 X1.6617 Y5.3890
G01 X1.6764 Y5.3669
G01 X1.7261 Y5.2999
G01 X1.7429 Y5.2794
G01 X1.7989 Y5.2176
G01 X1.8176 Y5.1989
G01 X1.8794 Y5.1429
G01 X1.8999 Y5.1261
G01 X1.9669 Y5.0764
G01 X1.9890 Y5.0617
G01 X2.0605 Y5.0188
G01 X2.0839 Y5.0063
G01 X2.1593 Y4.9706
G01 X2.1838 Y4.9605
G01 X2.2623 Y4.9324
G01 X2.2877 Y4.9247
G01 X2.3686 Y4.9044
G01 X2.3946 Y4.8993
G01 X2.4771 Y4.8870
G01 X2.5034 Y4.8844
G01 X2.5868 Y4.8803
G01 X2.6000 Y4.8800
G01 X3.4000 Y4.8800
G01 X3.4132 Y4.8803
G01 X3.4966 Y4.8844
G01 X3.5229 Y4.8870
G01 X3.6054 Y4.8993
G01 X3.6314 Y4.9044
G01 X3.7123 Y4.9247
G01 X3.7377 Y4.9324
G01 X3.8162 Y4.9605
G01 X3.8407 Y4.9706
G01 X3.9161 Y5.0063
G01 X3.9395 Y5.0188
G01 X4.0110 Y5.0617
G01 X4.0331 Y5.0764
G01 X4.1001 Y5.1261
G01 X4.1206 Y5.1429
G01 X4.1824 Y5.1989
G01 X4.2011 Y5.2176
G01 X4.2571 Y5.2794
G01 X4.2739 Y5.2999
G01 X4.3236 Y5.3669
G01 X4.3383 Y5.3890
G01 X4.3812 Y5.4605
G01 X4.3937 Y5.4839
G01 X4.4294 Y5.5593
G01 X4.4395 Y5.5838
G01 X4.4676 Y5.6623
G01 X4.4753 Y5.6877
G01 X4.4956 Y5.7686
G01 X4.5007 Y5.7946
G01 X4.5130 Y5.8771
G01 X4.5156 Y5.9034
G01 X4.5197 Y5.9868
G01 X4.5197 Y6.0132
G01 X4.5156 Y6.0966
G01 X4.5130 Y6.1229
G01 X4.5007 Y6.2054
G01 X4.4956 Y6.2314
G01 X4.4753 Y6.3123
G01 X4.4676 Y6.3377
G01 X4.4395 Y6.4162
G01 X4.4294 Y6.4407
G01 X4.3937 Y6.5161
G01 X4.3812 Y6.5395
G01 X4.3383 Y6.6110
G01 X4.3236 Y6.6331
G01 X4.2739 Y6.7001
G01 X4.2571 Y6.7206
G01 X4.2011 Y6.7824
G01 X4.1824 Y6.8011
G01 X4.1206 Y6.8571
G01 X4.1001 Y6.8739
G01 X4.0331 Y6.9236
G01 X4.0204 Y6.9321
G01 X4.0204 Y7.4796
G01 X5.0000 Y7.4796
G01 X5.0132 Y7.4800
G01 X5.0868 Y7.4836
G01 X5.1132 Y7.4862
G01 X5.1860 Y7.4970
G01 X5.2120 Y7.5021
G01 X5.2834 Y7.5200
G01 X5.3088 Y7.5277
G01 X5.3781 Y7.5525
G01 X5.4026 Y7.5627
G01 X5.4692 Y7.5942
G01 X5.4925 Y7.6066
G01 X5.5557 Y7.6445
G01 X5.5777 Y7.6592
G01 X5.6369 Y7.7031
G01 X5.6574 Y7.7199
G01 X5.7119 Y7.7693
G01 X5.7307 Y7.7881
G01 X5.7801 Y7.8426
G01 X5.7969 Y7.8631
G01 X5.8408 Y7.9223
G01 X5.8555 Y7.9443
G01 X5.8934 Y8.0075
G01 X5.9058 Y8.0308
G01 X5.9373 Y8.0974
G01 X5.9475 Y8.1219
G01 X5.9723 Y8.1912
G01 X5.9800 Y8.2166
G01 X5.9979 Y8.2880
G01 X6.0030 Y8.3140
G01 X6.0138 Y8.3868
G01 X6.0164 Y8.4132
G01 X6.0172 Y8.4279
G01 X6.0538 Y8.4649
G01 X6.0868 Y8.5013
G01 X6.1036 Y8.5218
G01 X6.1328 Y8.5612
G01 X6.1475 Y8.5833
G01 X6.1728 Y8.6254
G01 X6.1853 Y8.6487
G01 X6.2062 Y8.6931
G01 X6.2164 Y8.7176
G01 X6.2329 Y8.7638
G01 X6.2406 Y8.7892
G01 X6.2525 Y8.8368
G01 X6.2577 Y8.8628
G01 X6.2649 Y8.9113
G01 X6.2675 Y8.9377
G01 X6.2699 Y8.9868
G01 X6.2703 Y9.0000
G01 X6.2703 Y11.6810
G01 X7.0446 Y12.4554
G01 X7.0538 Y12.4649
G01 X7.0868 Y12.5013
G01 X7.1036 Y12.5218
G01 X7.1328 Y12.5612
G01 X7.1475 Y12.5833
G01 X7.1728 Y12.6254
G01 X7.1853 Y12.6487
G01 X7.2062 Y12.6931
G01 X7.2164 Y12.7176
G01 X7.2207 Y12.7297
G01 X9.1318 Y12.7297
G01 X9.1426 Y12.7199
G01 X9.1631 Y12.7031
G01 X9.2223 Y12.6592
G01 X9.2443 Y12.6445
G01 X9.3075 Y12.6066
G01 X9.3308 Y12.5942
G01 X9.3974 Y12.5627
G01 X9.4219 Y12.5525
G01 X9.4912 Y12.5277
G01 X9.5166 Y12.5200
G01 X9.5880 Y12.5021
G01 X9.6140 Y12.4970
G01 X9.6868 Y12.4862
G01 X9.7132 Y12.4836
G01 X9.7868 Y12.4800
G01 X9.8000 Y12.4796
G01 X11.0300 Y12.4796
G01 X11.0300 Y10.6000
G01 X11.0313 Y10.5735
G01 X11.0352 Y10.5473
G01 X11.0416 Y10.5216
G01 X11.0506 Y10.4967
G01 X11.0619 Y10.4727
G01 X11.0755 Y10.4500
G01 X11.0913 Y10.4287
G01 X11.1091 Y10.4091
G01 X11.1287 Y10.3913
G01 X11.1500 Y10.3755
G01 X11.1727 Y10.3619
G01 X11.1967 Y10.3506
G01 X11.2216 Y10.3416
G01 X11.2473 Y10.3352
G01 X11.2735 Y10.3313
G01 X11.3000 Y10.3300
G01 X14.5027 Y10.3300
G01 X14.4797 Y8.5129
G01 X14.4798 Y8.4830
G01 X14.5041 Y7.0200
G01 X13.5500 Y7.0200
G01 X13.5235 Y7.0187
G01 X13.4973 Y7.0148
G01 X13.4716 Y7.0084
G01 X13.4467 Y6.9994
G01 X13.4227 Y6.9881
G01 X13.4000 Y6.9745
G01 X13.3787 Y6.9587
G01 X13.3591 Y6.9409
G01 X13.3413 Y6.9213
G01 X13.3255 Y6.9000
G01 X13.3119 Y6.8773
G01 X13.3006 Y6.8533
G01 X13.2916 Y6.8284
G01 X13.2852 Y6.8027
G01 X13.2813 Y6.7765
G01 X13.2800 Y6.7500
G01 X13.2800 Y4.2500
G01 X13.2813 Y4.2235
G01 X13.2852 Y4.1973
G01 X13.2916 Y4.1716
G01 X13.3006 Y4.1467
G01 X13.3119 Y4.1227
G01 X13.3255 Y4.1000
G01 X13.3413 Y4.0787
G01 X13.3591 Y4.0591
G01 X13.3787 Y4.0413
G01 X13.4000 Y4.0255
G01 X13.4227 Y4.0119
G01 X13.4467 Y4.0006
G01 X13.4716 Y3.9916
G01 X13.4973 Y3.9852
G01 X13.5235 Y3.9813
G01 X13.5500 Y3.9800
G01 X17.5500 Y3.9800
G01 X17.5765 Y3.9813
G01 X17.6027 Y3.9852
G01 X17.6284 Y3.9916
G01 X17.6533 Y4.0006
G01 X17.6773 Y4.0119
G01 X17.7000 Y4.0255
G01 X17.7213 Y4.0413
G01 X17.7409 Y4.0591
G01 X17.7587 Y4.0787
G01 X17.7745 Y4.1000
G01 X17.7881 Y4.1227
G01 X17.7994 Y4.1467
G01 X17.8084 Y4.1716
G01 X17.8148 Y4.1973
G01 X17.8187 Y4.2235
G01 X17.8200 Y4.2500
G01 X17.8200 Y6.7500
G01 X17.8187 Y6.7765
G01 X17.8148 Y6.8027
G01 X17.8084 Y6.8284
G01 X17.7994 Y6.8533
G01 X17.7881 Y6.8773
G01 X17.7745 Y6.9000
G01 X17.7587 Y6.9213
G01 X17.7409 Y6.9409
G01 X17.7213 Y6.9587
G01 X17.7000 Y6.9745
G01 X17.6773 Y6.9881
G01 X17.6533 Y6.9994
G01 X17.6284 Y7.0084
G01 X17.6027 Y7.0148
G01 X17.5765 Y7.0187
G01 X17.5500 Y7.0200
G01 X16.5452 Y7.0200
G01 X16.5205 Y8.5020
G01 X16.5436 Y10.3300
G01 X17.7000 Y10.3300
G01 X17.7265 Y10.3313
G01 X17.7527 Y10.3352
G01 X17.7784 Y10.3416
G01 X17.8033 Y10.3506
G01 X17.8273 Y10.3619
G01 X17.8500 Y10.3755
G01 X17.8713 Y10.3913
G01 X17.8909 Y10.4091
G01 X17.9087 Y10.4287
G01 X17.9245 Y10.4500
G01 X17.9381 Y10.4727
G01 X17.9494 Y10.4967
G01 X17.9584 Y10.5216
G01 X17.9648 Y10.5473
G01 X17.9687 Y10.5735
G01 X17.9700 Y10.6000
G01 X17.9700 Y16.4000
G01 X17.9687 Y16.4265
G01 X17.9648 Y16.4527
G01 X17.9584 Y16.4784
G01 X17.9494 Y16.5033
G01 X17.9381 Y16.5273
G01 X17.9245 Y16.5500
G01 X17.9087 Y16.5713
G01 X17.8909 Y16.5909
G01 X17.8713 Y16.6087
G01 X17.8500 Y16.6245
G01 X17.8273 Y16.6381
G01 X17.8033 Y16.6494
G01 X17.7784 Y16.6584
G01 X17.7527 Y16.6648
G01 X17.7265 Y16.6687
G01 X17.7000 Y16.6700
G01 X17.1954 Y16.6700
G01 X17.1954 Y24.3250
G01 X17.1950 Y24.3382
G01 X17.1914 Y24.4118
G01 X17.1888 Y24.4382
G01 X17.1780 Y24.5110
G01 X17.1729 Y24.5370
G01 X17.1550 Y24.6084
G01 X17.1473 Y24.6338
G01 X17.1225 Y24.7031
G01 X17.1123 Y24.7276
G01 X17.0808 Y24.7942
G01 X17.0684 Y24.8175
G01 X17.0305 Y24.8807
G01 X17.0158 Y24.9027
G01 X16.9719 Y24.9619
G01 X16.9551 Y24.9824
G01 X16.9057 Y25.0369
G01 X16.8869 Y25.0557
G01 X16.8324 Y25.1051
G01 X16.8119 Y25.1219
G01 X16.7527 Y25.1658
G01 X16.7307 Y25.1805
G01 X16.6675 Y25.2184
G01 X16.6442 Y25.2308
G01 X16.5776 Y25.2623
G01 X16.5531 Y25.2725
G01 X16.4838 Y25.2973
G01 X16.4584 Y25.3050
G01 X16.3870 Y25.3229
G01 X16.3610 Y25.3280
G01 X16.2882 Y25.3388
G01 X16.2618 Y25.3414
G01 X16.1882 Y25.3450
G01 X16.1750 Y25.3454
G01 X14.2690 Y25.3454
G01 X14.2687 Y25.3515
G01 X14.2648 Y25.3777
G01 X14.2584 Y25.4034
G01 X14.2494 Y25.4283
G01 X14.2381 Y25.4523
G01 X14.2245 Y25.4750
G01 X14.2087 Y25.4963
G01 X14.1909 Y25.5159
G01 X14.1713 Y25.5337
G01 X14.1500 Y25.5495
G01 X14.1273 Y25.5631
G01 X14.1033 Y25.5744
G01 X14.0784 Y25.5834
G01 X14.0527 Y25.5898
G01 X14.0265 Y25.5937
G01 X14.0000 Y25.5950
G01 X12.6730 Y25.5950
G01 X11.9965 Y26.2715
G01 X11.9869 Y26.2807
G01 X11.9324 Y26.3301
G01 X11.9119 Y26.3469
G01 X11.8527 Y26.3908
G01 X11.8307 Y26.4055
G01 X11.7675 Y26.4434
G01 X11.7442 Y26.4558
G01 X11.6776 Y26.4873
G01 X11.6531 Y26.4975
G01 X11.5838 Y26.5223
G01 X11.5584 Y26.5300
G01 X11.4870 Y26.5479
G01 X11.4610 Y26.5530
G01 X11.3882 Y26.5638
G01 X11.3618 Y26.5664
G01 X11.2882 Y26.5700
G01 X11.2750 Y26.5704
G01 X6.5200 Y26.5704
G01 X6.5200 Y27.5500
G01 X6.5187 Y27.5765
G01 X6.5148 Y27.6027
G01 X6.5084 Y27.6284
G01 X6.4994 Y27.6533
G01 X6.4881 Y27.6773
G01 X6.4745 Y27.7000
G01 X6.4587 Y27.7213
G01 X6.4409 Y27.7409
G01 X6.4213 Y27.7587
G01 X6.4000 Y27.7745
G01 X6.3773 Y27.7881
G01 X6.3533 Y27.7994
G01 X6.3284 Y27.8084
G01 X6.3027 Y27.8148
G01 X6.2765 Y27.8187
G01 X6.2500 Y27.8200
G01 X3.7500 Y27.8200
G01 X3.7235 Y27.8187
G01 X3.6973 Y27.8148
G01 X3.6716 Y27.8084
G01 X3.6467 Y27.7994
G01 X3.6227 Y27.7881
G01 X3.6000 Y27.7745
G01 X3.5787 Y27.7587
G01 X3.5591 Y27.7409
G01 X3.5413 Y27.7213
G01 X3.5255 Y27.7000
G01 X3.5119 Y27.6773
G01 X3.5006 Y27.6533
G01 X3.4916 Y27.6284
G01 X3.4852 Y27.6027
G01 X3.4813 Y27.5765
G01 X3.4800 Y27.5500
G01 X3.4800 Y23.5500
G01 X3.4813 Y23.5235
G01 X3.4852 Y23.4973
G01 X3.4916 Y23.4716
G01 X3.5006 Y23.4467
G01 X3.5119 Y23.4227
G01 X3.5255 Y23.4000
G01 X3.5413 Y23.3787
G01 X3.5591 Y23.3591
G01 X3.5787 Y23.3413
G01 X3.6000 Y23.3255
G01 X3.6227 Y23.3119
G01 X3.6467 Y23.3006
G01 X3.6716 Y23.2916
G01 X3.6973 Y23.2852
G01 X3.7235 Y23.2813
G01 X3.7500 Y23.2800
G01 X6.2500 Y23.2800
G01 X6.2765 Y23.2813
G01 X6.3027 Y23.2852
G01 X6.3284 Y23.2916
G01 X6.3533 Y23.3006
G01 X6.3773 Y23.3119
G01 X6.4000 Y23.3255
G01 X6.4213 Y23.3413
G01 X6.4409 Y23.3591
G01 X6.4587 Y23.3787
G01 X6.4745 Y23.4000
G01 X6.4881 Y23.4227
G01 X6.4994 Y23.4467
G01 X6.5084 Y23.4716
G01 X6.5148 Y23.4973
G01 X6.5187 Y23.5235
G01 X6.5200 Y23.5500
G01 X6.5200 Y24.5296
G01 X10.7300 Y24.5296
G01 X10.7300 Y23.3250
G01 X10.7313 Y23.2985
G01 X10.7352 Y23.2723
G01 X10.7416 Y23.2466
G01 X10.7506 Y23.2217
G01 X10.7619 Y23.1977
G01 X10.7755 Y23.1750
G01 X10.7913 Y23.1537
G01 X10.8091 Y23.1341
G01 X10.8287 Y23.1163
G01 X10.8500 Y23.1005
G01 X10.8727 Y23.0869
G01 X10.8967 Y23.0756
G01 X10.9216 Y23.0666
G01 X10.9473 Y23.0602
G01 X10.9735 Y23.0563
G01 X11.0000 Y23.0550
G01 X14.0000 Y23.0550
G01 X14.0265 Y23.0563
G01 X14.0527 Y23.0602
G01 X14.0784 Y23.0666
G01 X14.1033 Y23.0756
G01 X14.1273 Y23.0869
G01 X14.1500 Y23.1005
G01 X14.1713 Y23.1163
G01 X14.1909 Y23.1341
G01 X14.2087 Y23.1537
G01 X14.2245 Y23.1750
G01 X14.2381 Y23.1977
G01 X14.2494 Y23.2217
G01 X14.2584 Y23.2466
G01 X14.2648 Y23.2723
G01 X14.2687 Y23.2985
G01 X14.2690 Y23.3046
G01 X15.1546 Y23.3046
G01 X15.1546 Y16.6700
G01 X11.3000 Y16.6700
G01 X11.2735 Y16.6687
G01 X11.2473 Y16.6648
G01 X11.2216 Y16.6584
G01 X11.1967 Y16.6494
G01 X11.1727 Y16.6381
G01 X11.1500 Y16.6245
G01 X11.1287 Y16.6087
G01 X11.1091 Y16.5909
G01 X11.0913 Y16.5713
G01 X11.0755 Y16.5500
G01 X11.0619 Y16.5273
G01 X11.0506 Y16.5033
G01 X11.0416 Y16.4784
G01 X11.0352 Y16.4527
G01 X11.0313 Y16.4265
G01 X11.0300 Y16.4000
G01 X11.0300 Y14.5204
G01 X9.8000 Y14.5204
G01 X9.7868 Y14.5200
G01 X9.7132 Y14.5164
G01 X9.6868 Y14.5138
G01 X9.6140 Y14.5030
G01 X9.5880 Y14.4979
G01 X9.5166 Y14.4800
G01 X9.4912 Y14.4723
G01 X9.4219 Y14.4475
G01 X9.3974 Y14.4373
G01 X9.3308 Y14.4058
G01 X9.3075 Y14.3934
G01 X9.2443 Y14.3555
G01 X9.2223 Y14.3408
G01 X9.1631 Y14.2969
G01 X9.1426 Y14.2801
G01 X9.1318 Y14.2703
G01 X6.5000 Y14.2703
G01 X6.4868 Y14.2699
G01 X6.4377 Y14.2675
G01 X6.4113 Y14.2649
G01 X6.3628 Y14.2577
G01 X6.3368 Y14.2525
G01 X6.2892 Y14.2406
G01 X6.2638 Y14.2329
G01 X6.2176 Y14.2164
G01 X6.1931 Y14.2062
G01 X6.1487 Y14.1853
G01 X6.1254 Y14.1728
G01 X6.0833 Y14.1475
G01 X6.0612 Y14.1328
G01 X6.0218 Y14.1036
G01 X6.0013 Y14.0868
G01 X5.9649 Y14.0538
G01 X5.9462 Y14.0351
G01 X5.9132 Y13.9987
G01 X5.8964 Y13.9782
G01 X5.8672 Y13.9388
G01 X5.8525 Y13.9167
G01 X5.8272 Y13.8746
G01 X5.8147 Y13.8513
G01 X5.7938 Y13.8069
G01 X5.7836 Y13.7824
G01 X5.7671 Y13.7362
G01 X5.7594 Y13.7108
G01 X5.7475 Y13.6632
G01 X5.7423 Y13.6372
G01 X5.7351 Y13.5887
G01 X5.7325 Y13.5623
G01 X5.7301 Y13.5132
G01 X5.7297 Y13.5000
G01 X5.7297 Y13.3190
G01 X4.9554 Y12.5446
G01 X4.9462 Y12.5351
G01 X4.9132 Y12.4987
G01 X4.8964 Y12.4782
G01 X4.8672 Y12.4388
G01 X4.8525 Y12.4167
G01 X4.8272 Y12.3746
G01 X4.8147 Y12.3513
G01 X4.7938 Y12.3069
G01 X4.7836 Y12.2824
G01 X4.7671 Y12.2362
G01 X4.7594 Y12.2108
G01 X4.7475 Y12.1632
G01 X4.7423 Y12.1372
G01 X4.7351 Y12.0887
G01 X4.7325 Y12.0623
G01 X4.7301 Y12.0132
G01 X4.7297 Y12.0000
G01 X4.7297 Y9.5204
G01 X4.0204 Y9.5204
G01 X4.0204 Y10.1480
G01 X4.0324 Y10.1589
G01 X4.0511 Y10.1776
G01 X4.1071 Y10.2394
G01 X4.1239 Y10.2599
G01 X4.1736 Y10.3269
G01 X4.1883 Y10.3490
G01 X4.2312 Y10.4205
G01 X4.2437 Y10.4439
G01 X4.2794 Y10.5193
G01 X4.2895 Y10.5438
G01 X4.3176 Y10.6223
G01 X4.3253 Y10.6477
G01 X4.3456 Y10.7286
G01 X4.3507 Y10.7546
G01 X4.3630 Y10.8371
G01 X4.3656 Y10.8634
G01 X4.3697 Y10.9468
G01 X4.3697 Y10.9732
G01 X4.3656 Y11.0566
G01 X4.3630 Y11.0829
G01 X4.3507 Y11.1654
G01 X4.3456 Y11.1914
G01 X4.3253 Y11.2723
G01 X4.3176 Y11.2977
G01 X4.2895 Y11.3762
G01 X4.2794 Y11.4007
G01 X4.2437 Y11.4761
G01 X4.2312 Y11.4995
G01 X4.1883 Y11.5710
G01 X4.1736 Y11.5931
G01 X4.1239 Y11.6601
G01 X4.1071 Y11.6806
G01 X4.0511 Y11.7424
G01 X4.0324 Y11.7611
G01 X3.9706 Y11.8171
G01 X3.9501 Y11.8339
G01 X3.8831 Y11.8836
G01 X3.8610 Y11.8983
G01 X3.7895 Y11.9412
G01 X3.7661 Y11.9537
G01 X3.6907 Y11.9894
G01 X3.6662 Y11.9995
G01 X3.5877 Y12.0276
G01 X3.5623 Y12.0353
G01 X3.4814 Y12.0556
G01 X3.4554 Y12.0607
G01 X3.3729 Y12.0730
G01 X3.3466 Y12.0756
G01 X3.2632 Y12.0797
G01 X3.2500 Y12.0800
G01 X2.7500 Y12.0800
G01 X2.7368 Y12.0797
G01 X2.6534 Y12.0756
G01 X2.6271 Y12.0730
G01 X2.5446 Y12.0607
G01 X2.5186 Y12.0556
G01 X2.4377 Y12.0353
G01 X2.4123 Y12.0276
G01 X2.3338 Y11.9995
G01 X2.3093 Y11.9894
G01 X2.2339 Y11.9537
G01 X2.2105 Y11.9412
G01 X2.1390 Y11.8983
G01 X2.1169 Y11.8836
G01 X2.0499 Y11.8339
G01 X2.0294 Y11.8171
G01 X1.9676 Y11.7611
G01 X1.9489 Y11.7424
G01 X1.8929 Y11.6806
G01 X1.8761 Y11.6601
G01 X1.8264 Y11.5931
G01 X1.8117 Y11.5710
G01 X1.7688 Y11.4995
G01 X1.7563 Y11.4761
G01 X1.7206 Y11.4007
G01 X1.7105 Y11.3762
G01 X1.6824 Y11.2977
G01 X1.6747 Y11.2723
G01 X1.6544 Y11.1914
G01 X1.6493 Y11.1654
G01 X1.6370 Y11.0829
G01 X1.6344 Y11.0566
G01 X1.6303 Y10.9732
G01 X1.6303 Y10.9468
G01 X1.6344 Y10.8634
G01 X1.6370 Y10.8371
G01 X1.6493 Y10.7546
G01 X1.6544 Y10.7286
G01 X1.6747 Y10.6477
G01 X1.6824 Y10.6223
G01 X1.7105 Y10.5438
G01 X1.7206 Y10.5193
G01 X1.7563 Y10.4439
G01 X1.7688 Y10.4205
G01 X1.8117 Y10.3490
G01 X1.8264 Y10.3269
G01 X1.8761 Y10.2599
G01 X1.8929 Y10.2394
G01 X1.9489 Y10.1776
G01 X1.9676 Y10.1589
G01 X1.9796 Y10.1480
G01 X1.9796 Y6.9321
G00 Z2.0000
G00 X3.4800 Y21.4500
G01 F60.00
G01 Z-0.1500
G01 F120.00
G01 X3.4800 Y19.9230
G01 X2.2785 Y18.7215
G01 X2.2693 Y18.7119
G01 X2.2199 Y18.6574
G01 X2.2031 Y18.6369
G01 X2.1592 Y18.5777
G01 X2.1445 Y18.5557
G01 X2.1066 Y18.4925
G01 X2.0942 Y18.4692
G01 X2.0627 Y18.4026
G01 X2.0525 Y18.3781
G01 X2.0277 Y18.3088
G01 X2.0200 Y18.2834
G01 X2.0021 Y18.2120
G01 X1.9970 Y18.1860
G01 X1.9862 Y18.1132
G01 X1.9836 Y18.0868
G01 X1.9800 Y18.0132
G01 X1.9796 Y18.0000
G01 X1.9796 Y14.7700
G01 X1.7500 Y14.7700
G01 X1.7235 Y14.7687
G01 X1.6973 Y14.7648
G01 X1.6716 Y14.7584
G01 X1.6467 Y14.7494
G01 X1.6227 Y14.7381
G01 X1.6000 Y14.7245
G01 X1.5787 Y14.7087
G01 X1.5591 Y14.6909
G01 X1.5413 Y14.6713
G01 X1.5255 Y14.6500
G01 X1.5119 Y14.6273
G01 X1.5006 Y14.6033
G01 X1.4916 Y14.5784
G01 X1.4852 Y14.5527
G01 X1.4813 Y14.5265
G01 X1.4800 Y14.5000
G01 X1.4800 Y12.5000
G01 X1.4813 Y12.4735
G01 X1.4852 Y12.4473
G01 X1.4916 Y12.4216
G01 X1.5006 Y12.3967
G01 X1.5119 Y12.3727
G01 X1.5255 Y12.3500
G01 X1.5413 Y12.3287
G01 X1.5591 Y12.3091
G01 X1.5787 Y12.2913
G01 X1.6000 Y12.2755
G01 X1.6227 Y12.2619
G01 X1.6467 Y12.2506
G01 X1.6716 Y12.2416
G01 X1.6973 Y12.2352
G01 X1.7235 Y12.2313
G01 X1.7500 Y12.2300
G01 X4.2500 Y12.2300
G01 X4.2765 Y12.2313
G01 X4.3027 Y12.2352
G01 X4.3284 Y12.2416
G01 X4.3533 Y12.2506
G01 X4.3773 Y12.2619
G01 X4.4000 Y12.2755
G01 X4.4213 Y12.2913
G01 X4.4409 Y12.3091
G01 X4.4587 Y12.3287
G01 X4.4745 Y12.3500
G01 X4.4881 Y12.3727
G01 X4.4994 Y12.3967
G01 X4.5084 Y12.4216
G01 X4.5148 Y12.4473
G01 X4.5187 Y12.4735
G01 X4.5200 Y12.5000
G01 X4.5200 Y14.5000
G01 X4.5187 Y14.5265
G01 X4.5148 Y14.5527
G01 X4.5084 Y14.5784
G01 X4.4994 Y14.6033
G01 X4.4881 Y14.6273
G01 X4.4745 Y14.6500
G01 X4.4587 Y14.6713
G01 X4.4409 Y14.6909
G01 X4.4213 Y14.7087
G01 X4.4000 Y14.7245
G01 X4.3773 Y14.7381
G01 X4.3533 Y14.7494
G01 X4.3284 Y14.7584
G01 X4.3027 Y14.7648
G01 X4.2765 Y14.7687
G01 X4.2500 Y14.7700
G01 X4.0204 Y14.7700
G01 X4.0204 Y17.1800
G01 X6.2500 Y17.1800
G01 X6.2765 Y17.1813
G01 X6.3027 Y17.1852
G01 X6.3284 Y17.1916
G01 X6.3533 Y17.2006
G01 X6.3773 Y17.2119
G01 X6.4000 Y17.2255
G01 X6.4213 Y17.2413
G01 X6.4409 Y17.2591
G01 X6.4587 Y17.2787
G01 X6.4745 Y17.3000
G01 X6.4881 Y17.3227
G01 X6.4994 Y17.3467
G01 X6.5084 Y17.3716
G01 X6.5148 Y17.3973
G01 X6.5187 Y17.4235
G01 X6.5200 Y17.4500
G01 X6.5200 Y18.6546
G01 X6.8613 Y18.6546
G01 X6.9223 Y18.6092
G01 X6.9443 Y18.5945
G01 X6.9897 Y18.5673
G01 X7.1796 Y18.3773
G01 X7.1796 Y16.6500
G01 X7.1000 Y16.6500
G01 X7.0735 Y16.6487
G01 X7.0473 Y16.6448
G01 X7.0216 Y16.6384
G01 X6.9967 Y16.6294
G01 X6.9727 Y16.6181
G01 X6.9500 Y16.6045
G01 X6.9287 Y16.5887
G01 X6.9091 Y16.5709
G01 X6.8913 Y16.5513
G01 X6.8755 Y16.5300
G01 X6.8619 Y16.5073
G01 X6.8506 Y16.4833
G01 X6.8416 Y16.4584
G01 X6.8352 Y16.4327
G01 X6.8313 Y16.4065
G01 X6.8300 Y16.3800
G01 X6.8300 Y15.1800
G01 X6.8313 Y15.1535
G01 X6.8352 Y15.1273
G01 X6.8416 Y15.1016
G01 X6.8506 Y15.0767
G01 X6.8619 Y15.0527
G01 X6.8755 Y15.0300
G01 X6.8913 Y15.0087
G01 X6.9091 Y14.9891
G01 X6.9287 Y14.9713
G01 X6.9500 Y14.9555
G01 X6.9727 Y14.9419
G01 X6.9967 Y14.9306
G01 X7.0216 Y14.9216
G01 X7.0473 Y14.9152
G01 X7.0735 Y14.9113
G01 X7.1000 Y14.9100
G01 X7.6685 Y14.9100
G01 X7.7075 Y14.8866
G01 X7.7308 Y14.8742
G01 X7.7974 Y14.8427
G01 X7.8219 Y14.8325
G01 X7.8912 Y14.8077
G01 X7.9166 Y14.8000
G01 X7.9880 Y14.7821
G01 X8.0140 Y14.7770
G01 X8.0868 Y14.7662
G01 X8.1132 Y14.7636
G01 X8.1868 Y14.7600
G01 X8.2132 Y14.7600
G01 X8.2868 Y14.7636
G01 X8.3132 Y14.7662
G01 X8.3860 Y14.7770
G01 X8.4120 Y14.7821
G01 X8.4834 Y14.8000
G01 X8.5088 Y14.8077
G01 X8.5781 Y14.8325
G01 X8.6026 Y14.8427
G01 X8.6692 Y14.8742
G01 X8.6925 Y14.8866
G01 X8.7315 Y14.9100
G01 X9.3000 Y14.9100
G01 X9.3265 Y14.9113
G01 X9.3527 Y14.9152
G01 X9.3784 Y14.9216
G01 X9.4033 Y14.9306
G01 X9.4273 Y14.9419
G01 X9.4500 Y14.9555
G01 X9.4713 Y14.9713
G01 X9.4909 Y14.9891
G01 X9.5087 Y15.0087
G01 X9.5245 Y15.0300
G01 X9.5381 Y15.0527
G01 X9.5494 Y15.0767
G01 X9.5584 Y15.1016
G01 X9.5648 Y15.1273
G01 X9.5687 Y15.1535
G01 X9.5700 Y15.1800
G01 X9.5700 Y16.3800
G01 X9.5687 Y16.4065
G01 X9.5648 Y16.4327
G01 X9.5584 Y16.4584
G01 X9.5494 Y16.4833
G01 X9.5381 Y16.5073
G01 X9.5245 Y16.5300
G01 X9.5087 Y16.5513
G01 X9.4909 Y16.5709
G01 X9.4713 Y16.5887
G01 X9.4500 Y16.6045
G01 X9.4273 Y16.6181
G01 X9.4033 Y16.6294
G01 X9.3784 Y16.6384
G01 X9.3527 Y16.6448
G01 X9.3265 Y16.6487
G01 X9.3000 Y16.6500
G01 X9.2204 Y16.6500
G01 X9.2204 Y18.6546
G01 X10.7310 Y18.6546
G01 X10.7313 Y18.6485
G01 X10.7352 Y18.6223
G01 X10.7416 Y18.5966
G01 X10.7506 Y18.5717
G01 X10.7619 Y18.5477
G01 X10.7755 Y18.5250
G01 X10.7913 Y18.5037
G01 X10.8091 Y18.4841
G01 X10.8287 Y18.4663
G01 X10.8500 Y18.4505
G01 X10.8727 Y18.4369
G01 X10.8967 Y18.4256
G01 X10.9216 Y18.4166
G01 X10.9473 Y18.4102
G01 X10.9735 Y18.4063
G01 X11.0000 Y18.4050
G01 X14.0000 Y18.4050
G01 X14.0265 Y18.4063
G01 X14.0527 Y18.4102
G01 X14.0784 Y18.4166
G01 X14.1033 Y18.4256
G01 X14.1273 Y18.4369
G01 X14.1500 Y18.4505
G01 X14.1713 Y18.4663
G01 X14.1909 Y18.4841
G01 X14.2087 Y18.5037
G01 X14.2245 Y18.5250
G01 X14.2381 Y18.5477
G01 X14.2494 Y18.5717
G01 X14.2584 Y18.5966
G01 X14.2648 Y18.6223
G01 X14.2687 Y18.6485
G01 X14.2700 Y18.6750
G01 X14.2700 Y20.6750
G01 X14.2687 Y20.7015
G01 X14.2648 Y20.7277
G01 X14.2584 Y20.7534
G01 X14.2494 Y20.7783
G01 X14.2381 Y20.8023
G01 X14.2245 Y20.8250
G01 X14.2087 Y20.8463
G01 X14.1909 Y20.8659
G01 X14.1713 Y20.8837
G01 X14.1500 Y20.8995
G01 X14.1273 Y20.9131
G01 X14.1033 Y20.9244
G01 X14.0784 Y20.9334
G01 X14.0527 Y20.9398
G01 X14.0265 Y20.9437
G01 X14.0000 Y20.9450
G01 X11.0000 Y20.9450
G01 X10.9735 Y20.9437
G01 X10.9473 Y20.9398
G01 X10.9216 Y20.9334
G01 X10.8967 Y20.9244
G01 X10.8727 Y20.9131
G01 X10.8500 Y20.8995
G01 X10.8287 Y20.8837
G01 X10.8091 Y20.8659
G01 X10.7913 Y20.8463
G01 X10.7755 Y20.8250
G01 X10.7619 Y20.8023
G01 X10.7506 Y20.7783
G01 X10.7416 Y20.7534
G01 X10.7352 Y20.7277
G01 X10.7313 Y20.7015
G01 X10.7310 Y20.6954
G01 X6.5200 Y20.6954
G01 X6.5200 Y21.4500
G01 X6.5187 Y21.4765
G01 X6.5148 Y21.5027
G01 X6.5084 Y21.5284
G01 X6.4994 Y21.5533
G01 X6.4881 Y21.5773
G01 X6.4745 Y21.6000
G01 X6.4587 Y21.6213
G01 X6.4409 Y21.6409
G01 X6.4213 Y21.6587
G01 X6.4000 Y21.6745
G01 X6.3773 Y21.6881
G01 X6.3533 Y21.6994
G01 X6.3284 Y21.7084
G01 X6.3027 Y21.7148
G01 X6.2765 Y21.7187
G01 X6.2500 Y21.7200
G01 X3.7500 Y21.7200
G01 X3.7235 Y21.7187
G01 X3.6973 Y21.7148
G01 X3.6716 Y21.7084
G01 X3.6467 Y21.6994
G01 X3.6227 Y21.6881
G01 X3.6000 Y21.6745
G01 X3.5787 Y21.6587
G01 X3.5591 Y21.6409
G01 X3.5413 Y21.6213
G01 X3.5255 Y21.6000
G01 X3.5119 Y21.5773
G01 X3.5006 Y21.5533
G01 X3.4916 Y21.5284
G01 X3.4852 Y21.5027
G01 X3.4813 Y21.4765
G01 X3.4800 Y21.4500
G00 Z2.0000
M05
G00 Z2.0000
G00 Z4.00
G00 X0.0 Y0.0

