(G-CODE GENERATED BY FLATCAM v8.991 - www.flatcam.org - Version Date: 2019/12/27)

(This GCode tool change is done by using a Probe.)
(Make sure that before you start the job you first do a rough zero for Z axis.)
(This means that you need to zero the CNC axis and then jog to the toolchange X, Y location,)
(mount the probe and adjust the Z so more or less the probe tip touch the plate. Then zero the Z axis.)

(Name: 3)
(Type: G-code from Geometry)
(Units: MM)

(Created on Monday, 06 April 2020 at 14:38)

(TOOL DIAMETER: 0.3 mm)
(Feedrate: 120.0 mm/min)
(Feedrate_Z: 60.0 mm/min)
(Feedrate rapids 1500.0 mm/min)

(Feedrate Probe 75.0 mm/min)

(Z_Cut: -0.15 mm)
(Z_Move: 2.0 mm)
(Z Toolchange: 15.0 mm)
(X,Y Toolchange: 0.0000, 0.0000 mm)
(Z Start: None mm)
(Z End: 4.0 mm)
(Z Probe Depth: -0.02 mm)
(Steps per circle: 64)
(Preprocessor Geometry: Toolchange_Probe_MACH3)

(X range:    1.3600 ...   18.0900  mm)
(Y range:    2.0700 ...   27.9400  mm)

(Spindle Speed: None RPM)
G21
G90
G17
G94




G01 F120.00
G00 Z2.0000
(MSG, WARNING: Make sure you do zero on all axis. For Z axis, since it will be probed, make a rough estimate and do a zero.)
M0
M03
G00 X4.6135 Y4.6004
G01 F60.00
G01 Z-0.1500
G01 F120.00
G01 X7.0600 Y4.6004
G01 X7.0600 Y6.7500
G01 X7.0619 Y6.7882
G01 X7.0675 Y6.8261
G01 X7.0768 Y6.8632
G01 X7.0897 Y6.8992
G01 X7.1061 Y6.9338
G01 X7.1257 Y6.9667
G01 X7.1485 Y6.9974
G01 X7.1742 Y7.0258
G01 X7.2026 Y7.0515
G01 X7.2333 Y7.0743
G01 X7.2662 Y7.0939
G01 X7.3008 Y7.1103
G01 X7.3368 Y7.1232
G01 X7.3739 Y7.1325
G01 X7.4118 Y7.1381
G01 X7.4500 Y7.1400
G01 X8.3596 Y7.1400
G01 X8.3596 Y7.3476
G01 X7.3936 Y8.3136
G01 X7.3804 Y8.3275
G01 X7.3310 Y8.3821
G01 X7.3067 Y8.4116
G01 X7.2628 Y8.4708
G01 X7.2416 Y8.5026
G01 X7.2037 Y8.5658
G01 X7.1857 Y8.5995
G01 X7.1542 Y8.6661
G01 X7.1395 Y8.7015
G01 X7.1147 Y8.7708
G01 X7.1036 Y8.8074
G01 X7.0857 Y8.8788
G01 X7.0783 Y8.9164
G01 X7.0675 Y8.9892
G01 X7.0637 Y9.0273
G01 X7.0601 Y9.1009
G01 X7.0601 Y9.1391
G01 X7.0637 Y9.2127
G01 X7.0675 Y9.2508
G01 X7.0783 Y9.3236
G01 X7.0857 Y9.3612
G01 X7.1036 Y9.4326
G01 X7.1147 Y9.4692
G01 X7.1395 Y9.5385
G01 X7.1542 Y9.5739
G01 X7.1857 Y9.6405
G01 X7.2037 Y9.6742
G01 X7.2416 Y9.7374
G01 X7.2628 Y9.7692
G01 X7.3097 Y9.8321
G01 X7.3097 Y10.2300
G01 X7.1000 Y10.2300
G01 X7.0618 Y10.2319
G01 X7.0239 Y10.2375
G01 X6.9868 Y10.2468
G01 X6.9508 Y10.2597
G01 X6.9162 Y10.2761
G01 X6.8833 Y10.2957
G01 X6.8526 Y10.3185
G01 X6.8242 Y10.3442
G01 X6.7985 Y10.3726
G01 X6.7757 Y10.4033
G01 X6.7561 Y10.4362
G01 X6.7397 Y10.4708
G01 X6.7268 Y10.5068
G01 X6.7175 Y10.5439
G01 X6.7119 Y10.5818
G01 X6.7100 Y10.6200
G01 X6.7100 Y11.8200
G01 X6.7119 Y11.8582
G01 X6.7175 Y11.8961
G01 X6.7268 Y11.9332
G01 X6.7397 Y11.9692
G01 X6.7500 Y11.9909
G01 X6.3903 Y11.6312
G01 X6.3903 Y9.0000
G01 X6.3898 Y8.9809
G01 X6.3874 Y8.9318
G01 X6.3836 Y8.8937
G01 X6.3764 Y8.8452
G01 X6.3690 Y8.8076
G01 X6.3570 Y8.7600
G01 X6.3459 Y8.7234
G01 X6.3294 Y8.6772
G01 X6.3147 Y8.6418
G01 X6.2937 Y8.5974
G01 X6.2757 Y8.5637
G01 X6.2505 Y8.5216
G01 X6.2292 Y8.4898
G01 X6.1999 Y8.4503
G01 X6.1757 Y8.4207
G01 X6.1427 Y8.3844
G01 X6.1330 Y8.3742
G01 X6.1217 Y8.2964
G01 X6.1143 Y8.2588
G01 X6.0964 Y8.1874
G01 X6.0853 Y8.1508
G01 X6.0605 Y8.0815
G01 X6.0458 Y8.0461
G01 X6.0143 Y7.9795
G01 X5.9963 Y7.9458
G01 X5.9584 Y7.8826
G01 X5.9372 Y7.8508
G01 X5.8933 Y7.7916
G01 X5.8690 Y7.7621
G01 X5.8196 Y7.7075
G01 X5.7925 Y7.6804
G01 X5.7379 Y7.6310
G01 X5.7084 Y7.6067
G01 X5.6492 Y7.5628
G01 X5.6174 Y7.5416
G01 X5.5542 Y7.5037
G01 X5.5205 Y7.4857
G01 X5.4539 Y7.4542
G01 X5.4185 Y7.4395
G01 X5.3492 Y7.4147
G01 X5.3126 Y7.4036
G01 X5.2412 Y7.3857
G01 X5.2036 Y7.3783
G01 X5.1308 Y7.3675
G01 X5.0927 Y7.3637
G01 X5.0191 Y7.3601
G01 X5.0000 Y7.3596
G01 X4.1404 Y7.3596
G01 X4.1404 Y6.9934
G01 X4.1716 Y6.9703
G01 X4.2011 Y6.9460
G01 X4.2629 Y6.8900
G01 X4.2900 Y6.8629
G01 X4.3460 Y6.8011
G01 X4.3703 Y6.7716
G01 X4.4200 Y6.7046
G01 X4.4413 Y6.6727
G01 X4.4841 Y6.6012
G01 X4.5022 Y6.5674
G01 X4.5379 Y6.4920
G01 X4.5525 Y6.4567
G01 X4.5806 Y6.3781
G01 X4.5917 Y6.3415
G01 X4.6120 Y6.2606
G01 X4.6194 Y6.2231
G01 X4.6317 Y6.1405
G01 X4.6354 Y6.1025
G01 X4.6395 Y6.0191
G01 X4.6395 Y5.9809
G01 X4.6354 Y5.8975
G01 X4.6317 Y5.8595
G01 X4.6194 Y5.7769
G01 X4.6120 Y5.7394
G01 X4.5917 Y5.6585
G01 X4.5806 Y5.6219
G01 X4.5525 Y5.5433
G01 X4.5379 Y5.5080
G01 X4.5022 Y5.4326
G01 X4.4841 Y5.3988
G01 X4.4413 Y5.3273
G01 X4.4200 Y5.2954
G01 X4.3703 Y5.2284
G01 X4.3460 Y5.1989
G01 X4.2900 Y5.1371
G01 X4.2629 Y5.1100
G01 X4.2011 Y5.0540
G01 X4.1716 Y5.0297
G01 X4.1046 Y4.9800
G01 X4.0727 Y4.9587
G01 X4.0012 Y4.9159
G01 X3.9674 Y4.8978
G01 X3.8920 Y4.8621
G01 X3.8627 Y4.8500
G01 X4.2500 Y4.8500
G01 X4.2882 Y4.8481
G01 X4.3261 Y4.8425
G01 X4.3632 Y4.8332
G01 X4.3992 Y4.8203
G01 X4.4338 Y4.8039
G01 X4.4667 Y4.7843
G01 X4.4974 Y4.7615
G01 X4.5258 Y4.7358
G01 X4.5515 Y4.7074
G01 X4.5743 Y4.6767
G01 X4.5939 Y4.6438
G01 X4.6103 Y4.6092
G01 X4.6135 Y4.6004
G00 Z2.0000
G00 X6.9291 Y12.1700
G01 F60.00
G01 Z-0.1500
G01 F120.00
G01 X7.1295 Y12.3705
G01 X7.1427 Y12.3844
G01 X7.1757 Y12.4207
G01 X7.1999 Y12.4503
G01 X7.2292 Y12.4898
G01 X7.2505 Y12.5216
G01 X7.2757 Y12.5637
G01 X7.2937 Y12.5974
G01 X7.2996 Y12.6097
G01 X9.0879 Y12.6097
G01 X9.1508 Y12.5628
G01 X9.1826 Y12.5416
G01 X9.2458 Y12.5037
G01 X9.2795 Y12.4857
G01 X9.3461 Y12.4542
G01 X9.3815 Y12.4395
G01 X9.4508 Y12.4147
G01 X9.4874 Y12.4036
G01 X9.5588 Y12.3857
G01 X9.5964 Y12.3783
G01 X9.6692 Y12.3675
G01 X9.7073 Y12.3637
G01 X9.7809 Y12.3601
G01 X9.8000 Y12.3596
G01 X10.9100 Y12.3596
G01 X10.9100 Y10.6000
G01 X10.9119 Y10.5618
G01 X10.9175 Y10.5239
G01 X10.9268 Y10.4868
G01 X10.9397 Y10.4508
G01 X10.9561 Y10.4162
G01 X10.9757 Y10.3833
G01 X10.9985 Y10.3526
G01 X11.0242 Y10.3242
G01 X11.0526 Y10.2985
G01 X11.0833 Y10.2757
G01 X11.1162 Y10.2561
G01 X11.1508 Y10.2397
G01 X11.1868 Y10.2268
G01 X11.2239 Y10.2175
G01 X11.2618 Y10.2119
G01 X11.3000 Y10.2100
G01 X14.3812 Y10.2100
G01 X14.3597 Y8.5144
G01 X14.3598 Y8.4810
G01 X14.3821 Y7.1400
G01 X13.5500 Y7.1400
G01 X13.5118 Y7.1381
G01 X13.4739 Y7.1325
G01 X13.4368 Y7.1232
G01 X13.4008 Y7.1103
G01 X13.3662 Y7.0939
G01 X13.3333 Y7.0743
G01 X13.3026 Y7.0515
G01 X13.2742 Y7.0258
G01 X13.2485 Y6.9974
G01 X13.2257 Y6.9667
G01 X13.2061 Y6.9338
G01 X13.1897 Y6.8992
G01 X13.1768 Y6.8632
G01 X13.1675 Y6.8261
G01 X13.1619 Y6.7882
G01 X13.1600 Y6.7500
G01 X13.1600 Y4.2500
G01 X13.1619 Y4.2118
G01 X13.1675 Y4.1739
G01 X13.1768 Y4.1368
G01 X13.1897 Y4.1008
G01 X13.2061 Y4.0662
G01 X13.2257 Y4.0333
G01 X13.2485 Y4.0026
G01 X13.2742 Y3.9742
G01 X13.3026 Y3.9485
G01 X13.3333 Y3.9257
G01 X13.3662 Y3.9061
G01 X13.4008 Y3.8897
G01 X13.4368 Y3.8768
G01 X13.4739 Y3.8675
G01 X13.5118 Y3.8619
G01 X13.5500 Y3.8600
G01 X17.5500 Y3.8600
G01 X17.5882 Y3.8619
G01 X17.6261 Y3.8675
G01 X17.6632 Y3.8768
G01 X17.6992 Y3.8897
G01 X17.7338 Y3.9061
G01 X17.7667 Y3.9257
G01 X17.7974 Y3.9485
G01 X17.8258 Y3.9742
G01 X17.8515 Y4.0026
G01 X17.8743 Y4.0333
G01 X17.8939 Y4.0662
G01 X17.9103 Y4.1008
G01 X17.9232 Y4.1368
G01 X17.9325 Y4.1739
G01 X17.9381 Y4.2118
G01 X17.9400 Y4.2500
G01 X17.9400 Y6.7500
G01 X17.9381 Y6.7882
G01 X17.9325 Y6.8261
G01 X17.9232 Y6.8632
G01 X17.9103 Y6.8992
G01 X17.8939 Y6.9338
G01 X17.8743 Y6.9667
G01 X17.8515 Y6.9974
G01 X17.8258 Y7.0258
G01 X17.7974 Y7.0515
G01 X17.7667 Y7.0743
G01 X17.7338 Y7.0939
G01 X17.6992 Y7.1103
G01 X17.6632 Y7.1232
G01 X17.6261 Y7.1325
G01 X17.5882 Y7.1381
G01 X17.5500 Y7.1400
G01 X16.6632 Y7.1400
G01 X16.6405 Y8.5023
G01 X16.6621 Y10.2100
G01 X17.7000 Y10.2100
G01 X17.7382 Y10.2119
G01 X17.7761 Y10.2175
G01 X17.8132 Y10.2268
G01 X17.8492 Y10.2397
G01 X17.8838 Y10.2561
G01 X17.9167 Y10.2757
G01 X17.9474 Y10.2985
G01 X17.9758 Y10.3242
G01 X18.0015 Y10.3526
G01 X18.0243 Y10.3833
G01 X18.0439 Y10.4162
G01 X18.0603 Y10.4508
G01 X18.0732 Y10.4868
G01 X18.0825 Y10.5239
G01 X18.0881 Y10.5618
G01 X18.0900 Y10.6000
G01 X18.0900 Y16.4000
G01 X18.0881 Y16.4382
G01 X18.0825 Y16.4761
G01 X18.0732 Y16.5132
G01 X18.0603 Y16.5492
G01 X18.0439 Y16.5838
G01 X18.0243 Y16.6167
G01 X18.0015 Y16.6474
G01 X17.9758 Y16.6758
G01 X17.9474 Y16.7015
G01 X17.9167 Y16.7243
G01 X17.8838 Y16.7439
G01 X17.8492 Y16.7603
G01 X17.8132 Y16.7732
G01 X17.7761 Y16.7825
G01 X17.7382 Y16.7881
G01 X17.7000 Y16.7900
G01 X17.3154 Y16.7900
G01 X17.3154 Y24.3250
G01 X17.3149 Y24.3441
G01 X17.3113 Y24.4177
G01 X17.3075 Y24.4558
G01 X17.2967 Y24.5286
G01 X17.2893 Y24.5662
G01 X17.2714 Y24.6376
G01 X17.2603 Y24.6742
G01 X17.2355 Y24.7435
G01 X17.2208 Y24.7789
G01 X17.1893 Y24.8455
G01 X17.1713 Y24.8792
G01 X17.1334 Y24.9424
G01 X17.1122 Y24.9742
G01 X17.0683 Y25.0334
G01 X17.0440 Y25.0629
G01 X16.9946 Y25.1175
G01 X16.9675 Y25.1446
G01 X16.9129 Y25.1940
G01 X16.8834 Y25.2183
G01 X16.8242 Y25.2622
G01 X16.7924 Y25.2834
G01 X16.7292 Y25.3213
G01 X16.6955 Y25.3393
G01 X16.6289 Y25.3708
G01 X16.5935 Y25.3855
G01 X16.5242 Y25.4103
G01 X16.4876 Y25.4214
G01 X16.4162 Y25.4393
G01 X16.3786 Y25.4467
G01 X16.3058 Y25.4575
G01 X16.2677 Y25.4613
G01 X16.1941 Y25.4649
G01 X16.1750 Y25.4654
G01 X14.3635 Y25.4654
G01 X14.3603 Y25.4742
G01 X14.3439 Y25.5088
G01 X14.3243 Y25.5417
G01 X14.3015 Y25.5724
G01 X14.2758 Y25.6008
G01 X14.2474 Y25.6265
G01 X14.2167 Y25.6493
G01 X14.1838 Y25.6689
G01 X14.1492 Y25.6853
G01 X14.1132 Y25.6982
G01 X14.0761 Y25.7075
G01 X14.0382 Y25.7131
G01 X14.0000 Y25.7150
G01 X12.7227 Y25.7150
G01 X12.0814 Y26.3564
G01 X12.0675 Y26.3696
G01 X12.0129 Y26.4190
G01 X11.9834 Y26.4433
G01 X11.9242 Y26.4872
G01 X11.8924 Y26.5084
G01 X11.8292 Y26.5463
G01 X11.7955 Y26.5643
G01 X11.7289 Y26.5958
G01 X11.6935 Y26.6105
G01 X11.6242 Y26.6353
G01 X11.5876 Y26.6464
G01 X11.5162 Y26.6643
G01 X11.4786 Y26.6717
G01 X11.4058 Y26.6825
G01 X11.3677 Y26.6863
G01 X11.2941 Y26.6899
G01 X11.2750 Y26.6904
G01 X6.6400 Y26.6904
G01 X6.6400 Y27.5500
G01 X6.6381 Y27.5882
G01 X6.6325 Y27.6261
G01 X6.6232 Y27.6632
G01 X6.6103 Y27.6992
G01 X6.5939 Y27.7338
G01 X6.5743 Y27.7667
G01 X6.5515 Y27.7974
G01 X6.5258 Y27.8258
G01 X6.4974 Y27.8515
G01 X6.4667 Y27.8743
G01 X6.4338 Y27.8939
G01 X6.3992 Y27.9103
G01 X6.3632 Y27.9232
G01 X6.3261 Y27.9325
G01 X6.2882 Y27.9381
G01 X6.2500 Y27.9400
G01 X3.7500 Y27.9400
G01 X3.7118 Y27.9381
G01 X3.6739 Y27.9325
G01 X3.6368 Y27.9232
G01 X3.6008 Y27.9103
G01 X3.5662 Y27.8939
G01 X3.5333 Y27.8743
G01 X3.5026 Y27.8515
G01 X3.4742 Y27.8258
G01 X3.4485 Y27.7974
G01 X3.4257 Y27.7667
G01 X3.4061 Y27.7338
G01 X3.3897 Y27.6992
G01 X3.3768 Y27.6632
G01 X3.3675 Y27.6261
G01 X3.3619 Y27.5882
G01 X3.3600 Y27.5500
G01 X3.3600 Y23.5500
G01 X3.3619 Y23.5118
G01 X3.3675 Y23.4739
G01 X3.3768 Y23.4368
G01 X3.3897 Y23.4008
G01 X3.4061 Y23.3662
G01 X3.4257 Y23.3333
G01 X3.4485 Y23.3026
G01 X3.4742 Y23.2742
G01 X3.5026 Y23.2485
G01 X3.5333 Y23.2257
G01 X3.5662 Y23.2061
G01 X3.6008 Y23.1897
G01 X3.6368 Y23.1768
G01 X3.6739 Y23.1675
G01 X3.7118 Y23.1619
G01 X3.7500 Y23.1600
G01 X6.2500 Y23.1600
G01 X6.2882 Y23.1619
G01 X6.3261 Y23.1675
G01 X6.3632 Y23.1768
G01 X6.3992 Y23.1897
G01 X6.4338 Y23.2061
G01 X6.4667 Y23.2257
G01 X6.4974 Y23.2485
G01 X6.5258 Y23.2742
G01 X6.5515 Y23.3026
G01 X6.5743 Y23.3333
G01 X6.5939 Y23.3662
G01 X6.6103 Y23.4008
G01 X6.6232 Y23.4368
G01 X6.6325 Y23.4739
G01 X6.6381 Y23.5118
G01 X6.6400 Y23.5500
G01 X6.6400 Y24.4096
G01 X10.6100 Y24.4096
G01 X10.6100 Y23.3250
G01 X10.6119 Y23.2868
G01 X10.6175 Y23.2489
G01 X10.6268 Y23.2118
G01 X10.6397 Y23.1758
G01 X10.6561 Y23.1412
G01 X10.6757 Y23.1083
G01 X10.6985 Y23.0776
G01 X10.7242 Y23.0492
G01 X10.7526 Y23.0235
G01 X10.7833 Y23.0007
G01 X10.8162 Y22.9811
G01 X10.8508 Y22.9647
G01 X10.8868 Y22.9518
G01 X10.9239 Y22.9425
G01 X10.9618 Y22.9369
G01 X11.0000 Y22.9350
G01 X14.0000 Y22.9350
G01 X14.0382 Y22.9369
G01 X14.0761 Y22.9425
G01 X14.1132 Y22.9518
G01 X14.1492 Y22.9647
G01 X14.1838 Y22.9811
G01 X14.2167 Y23.0007
G01 X14.2474 Y23.0235
G01 X14.2758 Y23.0492
G01 X14.3015 Y23.0776
G01 X14.3243 Y23.1083
G01 X14.3439 Y23.1412
G01 X14.3603 Y23.1758
G01 X14.3635 Y23.1846
G01 X15.0346 Y23.1846
G01 X15.0346 Y16.7900
G01 X11.3000 Y16.7900
G01 X11.2618 Y16.7881
G01 X11.2239 Y16.7825
G01 X11.1868 Y16.7732
G01 X11.1508 Y16.7603
G01 X11.1162 Y16.7439
G01 X11.0833 Y16.7243
G01 X11.0526 Y16.7015
G01 X11.0242 Y16.6758
G01 X10.9985 Y16.6474
G01 X10.9757 Y16.6167
G01 X10.9561 Y16.5838
G01 X10.9397 Y16.5492
G01 X10.9268 Y16.5132
G01 X10.9175 Y16.4761
G01 X10.9119 Y16.4382
G01 X10.9100 Y16.4000
G01 X10.9100 Y14.6404
G01 X9.8000 Y14.6404
G01 X9.7809 Y14.6399
G01 X9.7073 Y14.6363
G01 X9.6692 Y14.6325
G01 X9.5964 Y14.6217
G01 X9.5588 Y14.6143
G01 X9.4874 Y14.5964
G01 X9.4508 Y14.5853
G01 X9.3815 Y14.5605
G01 X9.3461 Y14.5458
G01 X9.2795 Y14.5143
G01 X9.2458 Y14.4963
G01 X9.1826 Y14.4584
G01 X9.1508 Y14.4372
G01 X9.0879 Y14.3903
G01 X6.5000 Y14.3903
G01 X6.4809 Y14.3898
G01 X6.4318 Y14.3874
G01 X6.3937 Y14.3836
G01 X6.3452 Y14.3764
G01 X6.3076 Y14.3690
G01 X6.2600 Y14.3570
G01 X6.2234 Y14.3459
G01 X6.1772 Y14.3294
G01 X6.1418 Y14.3147
G01 X6.0974 Y14.2937
G01 X6.0637 Y14.2757
G01 X6.0216 Y14.2505
G01 X5.9898 Y14.2292
G01 X5.9503 Y14.1999
G01 X5.9207 Y14.1757
G01 X5.8844 Y14.1427
G01 X5.8573 Y14.1156
G01 X5.8243 Y14.0793
G01 X5.8001 Y14.0497
G01 X5.7708 Y14.0102
G01 X5.7495 Y13.9784
G01 X5.7243 Y13.9363
G01 X5.7063 Y13.9026
G01 X5.6853 Y13.8582
G01 X5.6706 Y13.8228
G01 X5.6541 Y13.7766
G01 X5.6430 Y13.7400
G01 X5.6310 Y13.6924
G01 X5.6236 Y13.6548
G01 X5.6164 Y13.6063
G01 X5.6126 Y13.5682
G01 X5.6102 Y13.5191
G01 X5.6097 Y13.5000
G01 X5.6097 Y13.3688
G01 X4.8705 Y12.6295
G01 X4.8573 Y12.6156
G01 X4.8243 Y12.5793
G01 X4.8001 Y12.5497
G01 X4.7708 Y12.5102
G01 X4.7495 Y12.4784
G01 X4.7243 Y12.4363
G01 X4.7063 Y12.4026
G01 X4.6853 Y12.3582
G01 X4.6706 Y12.3228
G01 X4.6541 Y12.2766
G01 X4.6430 Y12.2400
G01 X4.6310 Y12.1924
G01 X4.6236 Y12.1548
G01 X4.6164 Y12.1063
G01 X4.6126 Y12.0682
G01 X4.6102 Y12.0191
G01 X4.6097 Y12.0000
G01 X4.6097 Y9.6404
G01 X4.1404 Y9.6404
G01 X4.1404 Y10.0975
G01 X4.1960 Y10.1589
G01 X4.2203 Y10.1884
G01 X4.2700 Y10.2554
G01 X4.2913 Y10.2873
G01 X4.3341 Y10.3588
G01 X4.3522 Y10.3926
G01 X4.3879 Y10.4680
G01 X4.4025 Y10.5033
G01 X4.4306 Y10.5819
G01 X4.4417 Y10.6185
G01 X4.4620 Y10.6994
G01 X4.4694 Y10.7369
G01 X4.4817 Y10.8195
G01 X4.4854 Y10.8575
G01 X4.4895 Y10.9409
G01 X4.4895 Y10.9791
G01 X4.4854 Y11.0625
G01 X4.4817 Y11.1005
G01 X4.4694 Y11.1831
G01 X4.4620 Y11.2206
G01 X4.4417 Y11.3015
G01 X4.4306 Y11.3381
G01 X4.4025 Y11.4167
G01 X4.3879 Y11.4520
G01 X4.3522 Y11.5274
G01 X4.3341 Y11.5612
G01 X4.2913 Y11.6327
G01 X4.2700 Y11.6646
G01 X4.2203 Y11.7316
G01 X4.1960 Y11.7611
G01 X4.1400 Y11.8229
G01 X4.1129 Y11.8500
G01 X4.0511 Y11.9060
G01 X4.0216 Y11.9303
G01 X3.9546 Y11.9800
G01 X3.9227 Y12.0013
G01 X3.8512 Y12.0441
G01 X3.8174 Y12.0622
G01 X3.7420 Y12.0979
G01 X3.7127 Y12.1100
G01 X4.2500 Y12.1100
G01 X4.2882 Y12.1119
G01 X4.3261 Y12.1175
G01 X4.3632 Y12.1268
G01 X4.3992 Y12.1397
G01 X4.4338 Y12.1561
G01 X4.4667 Y12.1757
G01 X4.4974 Y12.1985
G01 X4.5258 Y12.2242
G01 X4.5515 Y12.2526
G01 X4.5743 Y12.2833
G01 X4.5939 Y12.3162
G01 X4.6103 Y12.3508
G01 X4.6232 Y12.3868
G01 X4.6325 Y12.4239
G01 X4.6381 Y12.4618
G01 X4.6400 Y12.5000
G01 X4.6400 Y14.5000
G01 X4.6381 Y14.5382
G01 X4.6325 Y14.5761
G01 X4.6232 Y14.6132
G01 X4.6103 Y14.6492
G01 X4.5939 Y14.6838
G01 X4.5743 Y14.7167
G01 X4.5515 Y14.7474
G01 X4.5258 Y14.7758
G01 X4.4974 Y14.8015
G01 X4.4667 Y14.8243
G01 X4.4338 Y14.8439
G01 X4.3992 Y14.8603
G01 X4.3632 Y14.8732
G01 X4.3261 Y14.8825
G01 X4.2882 Y14.8881
G01 X4.2500 Y14.8900
G01 X4.1404 Y14.8900
G01 X4.1404 Y17.0600
G01 X6.2500 Y17.0600
G01 X6.2882 Y17.0619
G01 X6.3261 Y17.0675
G01 X6.3632 Y17.0768
G01 X6.3992 Y17.0897
G01 X6.4338 Y17.1061
G01 X6.4667 Y17.1257
G01 X6.4974 Y17.1485
G01 X6.5258 Y17.1742
G01 X6.5515 Y17.2026
G01 X6.5743 Y17.2333
G01 X6.5939 Y17.2662
G01 X6.6103 Y17.3008
G01 X6.6232 Y17.3368
G01 X6.6325 Y17.3739
G01 X6.6381 Y17.4118
G01 X6.6400 Y17.4500
G01 X6.6400 Y18.5346
G01 X6.8214 Y18.5346
G01 X6.8508 Y18.5128
G01 X6.8826 Y18.4916
G01 X6.9153 Y18.4720
G01 X7.0596 Y18.3276
G01 X7.0596 Y16.7678
G01 X7.0239 Y16.7625
G01 X6.9868 Y16.7532
G01 X6.9508 Y16.7403
G01 X6.9162 Y16.7239
G01 X6.8833 Y16.7043
G01 X6.8526 Y16.6815
G01 X6.8242 Y16.6558
G01 X6.7985 Y16.6274
G01 X6.7757 Y16.5967
G01 X6.7561 Y16.5638
G01 X6.7397 Y16.5292
G01 X6.7268 Y16.4932
G01 X6.7175 Y16.4561
G01 X6.7119 Y16.4182
G01 X6.7100 Y16.3800
G01 X6.7100 Y15.1800
G01 X6.7119 Y15.1418
G01 X6.7175 Y15.1039
G01 X6.7268 Y15.0668
G01 X6.7397 Y15.0308
G01 X6.7561 Y14.9962
G01 X6.7757 Y14.9633
G01 X6.7985 Y14.9326
G01 X6.8242 Y14.9042
G01 X6.8526 Y14.8785
G01 X6.8833 Y14.8557
G01 X6.9162 Y14.8361
G01 X6.9508 Y14.8197
G01 X6.9868 Y14.8068
G01 X7.0239 Y14.7975
G01 X7.0618 Y14.7919
G01 X7.1000 Y14.7900
G01 X7.6353 Y14.7900
G01 X7.6458 Y14.7837
G01 X7.6795 Y14.7657
G01 X7.7461 Y14.7342
G01 X7.7815 Y14.7195
G01 X7.8508 Y14.6947
G01 X7.8874 Y14.6836
G01 X7.9588 Y14.6657
G01 X7.9964 Y14.6583
G01 X8.0692 Y14.6475
G01 X8.1073 Y14.6437
G01 X8.1809 Y14.6401
G01 X8.2191 Y14.6401
G01 X8.2927 Y14.6437
G01 X8.3308 Y14.6475
G01 X8.4036 Y14.6583
G01 X8.4412 Y14.6657
G01 X8.5126 Y14.6836
G01 X8.5492 Y14.6947
G01 X8.6185 Y14.7195
G01 X8.6539 Y14.7342
G01 X8.7205 Y14.7657
G01 X8.7542 Y14.7837
G01 X8.7647 Y14.7900
G01 X9.3000 Y14.7900
G01 X9.3382 Y14.7919
G01 X9.3761 Y14.7975
G01 X9.4132 Y14.8068
G01 X9.4492 Y14.8197
G01 X9.4838 Y14.8361
G01 X9.5167 Y14.8557
G01 X9.5474 Y14.8785
G01 X9.5758 Y14.9042
G01 X9.6015 Y14.9326
G01 X9.6243 Y14.9633
G01 X9.6439 Y14.9962
G01 X9.6603 Y15.0308
G01 X9.6732 Y15.0668
G01 X9.6825 Y15.1039
G01 X9.6881 Y15.1418
G01 X9.6900 Y15.1800
G01 X9.6900 Y16.3800
G01 X9.6881 Y16.4182
G01 X9.6825 Y16.4561
G01 X9.6732 Y16.4932
G01 X9.6603 Y16.5292
G01 X9.6439 Y16.5638
G01 X9.6243 Y16.5967
G01 X9.6015 Y16.6274
G01 X9.5758 Y16.6558
G01 X9.5474 Y16.6815
G01 X9.5167 Y16.7043
G01 X9.4838 Y16.7239
G01 X9.4492 Y16.7403
G01 X9.4132 Y16.7532
G01 X9.3761 Y16.7625
G01 X9.3404 Y16.7678
G01 X9.3404 Y18.5346
G01 X10.6365 Y18.5346
G01 X10.6397 Y18.5258
G01 X10.6561 Y18.4912
G01 X10.6757 Y18.4583
G01 X10.6985 Y18.4276
G01 X10.7242 Y18.3992
G01 X10.7526 Y18.3735
G01 X10.7833 Y18.3507
G01 X10.8162 Y18.3311
G01 X10.8508 Y18.3147
G01 X10.8868 Y18.3018
G01 X10.9239 Y18.2925
G01 X10.9618 Y18.2869
G01 X11.0000 Y18.2850
G01 X14.0000 Y18.2850
G01 X14.0382 Y18.2869
G01 X14.0761 Y18.2925
G01 X14.1132 Y18.3018
G01 X14.1492 Y18.3147
G01 X14.1838 Y18.3311
G01 X14.2167 Y18.3507
G01 X14.2474 Y18.3735
G01 X14.2758 Y18.3992
G01 X14.3015 Y18.4276
G01 X14.3243 Y18.4583
G01 X14.3439 Y18.4912
G01 X14.3603 Y18.5258
G01 X14.3732 Y18.5618
G01 X14.3825 Y18.5989
G01 X14.3881 Y18.6368
G01 X14.3900 Y18.6750
G01 X14.3900 Y20.6750
G01 X14.3881 Y20.7132
G01 X14.3825 Y20.7511
G01 X14.3732 Y20.7882
G01 X14.3603 Y20.8242
G01 X14.3439 Y20.8588
G01 X14.3243 Y20.8917
G01 X14.3015 Y20.9224
G01 X14.2758 Y20.9508
G01 X14.2474 Y20.9765
G01 X14.2167 Y20.9993
G01 X14.1838 Y21.0189
G01 X14.1492 Y21.0353
G01 X14.1132 Y21.0482
G01 X14.0761 Y21.0575
G01 X14.0382 Y21.0631
G01 X14.0000 Y21.0650
G01 X11.0000 Y21.0650
G01 X10.9618 Y21.0631
G01 X10.9239 Y21.0575
G01 X10.8868 Y21.0482
G01 X10.8508 Y21.0353
G01 X10.8162 Y21.0189
G01 X10.7833 Y20.9993
G01 X10.7526 Y20.9765
G01 X10.7242 Y20.9508
G01 X10.6985 Y20.9224
G01 X10.6757 Y20.8917
G01 X10.6561 Y20.8588
G01 X10.6397 Y20.8242
G01 X10.6365 Y20.8154
G01 X6.6400 Y20.8154
G01 X6.6400 Y21.4500
G01 X6.6381 Y21.4882
G01 X6.6325 Y21.5261
G01 X6.6232 Y21.5632
G01 X6.6103 Y21.5992
G01 X6.5939 Y21.6338
G01 X6.5743 Y21.6667
G01 X6.5515 Y21.6974
G01 X6.5258 Y21.7258
G01 X6.4974 Y21.7515
G01 X6.4667 Y21.7743
G01 X6.4338 Y21.7939
G01 X6.3992 Y21.8103
G01 X6.3632 Y21.8232
G01 X6.3261 Y21.8325
G01 X6.2882 Y21.8381
G01 X6.2500 Y21.8400
G01 X3.7500 Y21.8400
G01 X3.7118 Y21.8381
G01 X3.6739 Y21.8325
G01 X3.6368 Y21.8232
G01 X3.6008 Y21.8103
G01 X3.5662 Y21.7939
G01 X3.5333 Y21.7743
G01 X3.5026 Y21.7515
G01 X3.4742 Y21.7258
G01 X3.4485 Y21.6974
G01 X3.4257 Y21.6667
G01 X3.4061 Y21.6338
G01 X3.3897 Y21.5992
G01 X3.3768 Y21.5632
G01 X3.3675 Y21.5261
G01 X3.3619 Y21.4882
G01 X3.3600 Y21.4500
G01 X3.3600 Y19.9727
G01 X2.1936 Y18.8064
G01 X2.1804 Y18.7925
G01 X2.1310 Y18.7379
G01 X2.1067 Y18.7084
G01 X2.0628 Y18.6492
G01 X2.0416 Y18.6174
G01 X2.0037 Y18.5542
G01 X1.9857 Y18.5205
G01 X1.9542 Y18.4539
G01 X1.9395 Y18.4185
G01 X1.9147 Y18.3492
G01 X1.9036 Y18.3126
G01 X1.8857 Y18.2412
G01 X1.8783 Y18.2036
G01 X1.8675 Y18.1308
G01 X1.8637 Y18.0927
G01 X1.8601 Y18.0191
G01 X1.8596 Y18.0000
G01 X1.8596 Y14.8900
G01 X1.7500 Y14.8900
G01 X1.7118 Y14.8881
G01 X1.6739 Y14.8825
G01 X1.6368 Y14.8732
G01 X1.6008 Y14.8603
G01 X1.5662 Y14.8439
G01 X1.5333 Y14.8243
G01 X1.5026 Y14.8015
G01 X1.4742 Y14.7758
G01 X1.4485 Y14.7474
G01 X1.4257 Y14.7167
G01 X1.4061 Y14.6838
G01 X1.3897 Y14.6492
G01 X1.3768 Y14.6132
G01 X1.3675 Y14.5761
G01 X1.3619 Y14.5382
G01 X1.3600 Y14.5000
G01 X1.3600 Y12.5000
G01 X1.3619 Y12.4618
G01 X1.3675 Y12.4239
G01 X1.3768 Y12.3868
G01 X1.3897 Y12.3508
G01 X1.4061 Y12.3162
G01 X1.4257 Y12.2833
G01 X1.4485 Y12.2526
G01 X1.4742 Y12.2242
G01 X1.5026 Y12.1985
G01 X1.5333 Y12.1757
G01 X1.5662 Y12.1561
G01 X1.6008 Y12.1397
G01 X1.6368 Y12.1268
G01 X1.6739 Y12.1175
G01 X1.7118 Y12.1119
G01 X1.7500 Y12.1100
G01 X2.2873 Y12.1100
G01 X2.2580 Y12.0979
G01 X2.1826 Y12.0622
G01 X2.1488 Y12.0441
G01 X2.0773 Y12.0013
G01 X2.0454 Y11.9800
G01 X1.9784 Y11.9303
G01 X1.9489 Y11.9060
G01 X1.8871 Y11.8500
G01 X1.8600 Y11.8229
G01 X1.8040 Y11.7611
G01 X1.7797 Y11.7316
G01 X1.7300 Y11.6646
G01 X1.7087 Y11.6327
G01 X1.6659 Y11.5612
G01 X1.6478 Y11.5274
G01 X1.6121 Y11.4520
G01 X1.5975 Y11.4167
G01 X1.5694 Y11.3381
G01 X1.5583 Y11.3015
G01 X1.5380 Y11.2206
G01 X1.5306 Y11.1831
G01 X1.5183 Y11.1005
G01 X1.5146 Y11.0625
G01 X1.5105 Y10.9791
G01 X1.5105 Y10.9409
G01 X1.5146 Y10.8575
G01 X1.5183 Y10.8195
G01 X1.5306 Y10.7369
G01 X1.5380 Y10.6994
G01 X1.5583 Y10.6185
G01 X1.5694 Y10.5819
G01 X1.5975 Y10.5033
G01 X1.6121 Y10.4680
G01 X1.6478 Y10.3926
G01 X1.6659 Y10.3588
G01 X1.7087 Y10.2873
G01 X1.7300 Y10.2554
G01 X1.7797 Y10.1884
G01 X1.8040 Y10.1589
G01 X1.8596 Y10.0975
G01 X1.8596 Y6.9934
G01 X1.8284 Y6.9703
G01 X1.7989 Y6.9460
G01 X1.7371 Y6.8900
G01 X1.7100 Y6.8629
G01 X1.6540 Y6.8011
G01 X1.6297 Y6.7716
G01 X1.5800 Y6.7046
G01 X1.5587 Y6.6727
G01 X1.5159 Y6.6012
G01 X1.4978 Y6.5674
G01 X1.4621 Y6.4920
G01 X1.4475 Y6.4567
G01 X1.4194 Y6.3781
G01 X1.4083 Y6.3415
G01 X1.3880 Y6.2606
G01 X1.3806 Y6.2231
G01 X1.3683 Y6.1405
G01 X1.3646 Y6.1025
G01 X1.3605 Y6.0191
G01 X1.3605 Y5.9809
G01 X1.3646 Y5.8975
G01 X1.3683 Y5.8595
G01 X1.3806 Y5.7769
G01 X1.3880 Y5.7394
G01 X1.4083 Y5.6585
G01 X1.4194 Y5.6219
G01 X1.4475 Y5.5433
G01 X1.4621 Y5.5080
G01 X1.4978 Y5.4326
G01 X1.5159 Y5.3988
G01 X1.5587 Y5.3273
G01 X1.5800 Y5.2954
G01 X1.6297 Y5.2284
G01 X1.6540 Y5.1989
G01 X1.7100 Y5.1371
G01 X1.7371 Y5.1100
G01 X1.7989 Y5.0540
G01 X1.8284 Y5.0297
G01 X1.8954 Y4.9800
G01 X1.9273 Y4.9587
G01 X1.9988 Y4.9159
G01 X2.0326 Y4.8978
G01 X2.1080 Y4.8621
G01 X2.1373 Y4.8500
G01 X1.7500 Y4.8500
G01 X1.7118 Y4.8481
G01 X1.6739 Y4.8425
G01 X1.6368 Y4.8332
G01 X1.6008 Y4.8203
G01 X1.5662 Y4.8039
G01 X1.5333 Y4.7843
G01 X1.5026 Y4.7615
G01 X1.4742 Y4.7358
G01 X1.4485 Y4.7074
G01 X1.4257 Y4.6767
G01 X1.4061 Y4.6438
G01 X1.3897 Y4.6092
G01 X1.3768 Y4.5732
G01 X1.3675 Y4.5361
G01 X1.3619 Y4.4982
G01 X1.3600 Y4.4600
G01 X1.3600 Y2.4600
G01 X1.3619 Y2.4218
G01 X1.3675 Y2.3839
G01 X1.3768 Y2.3468
G01 X1.3897 Y2.3108
G01 X1.4061 Y2.2762
G01 X1.4257 Y2.2433
G01 X1.4485 Y2.2126
G01 X1.4742 Y2.1842
G01 X1.5026 Y2.1585
G01 X1.5333 Y2.1357
G01 X1.5662 Y2.1161
G01 X1.6008 Y2.0997
G01 X1.6368 Y2.0868
G01 X1.6739 Y2.0775
G01 X1.7118 Y2.0719
G01 X1.7500 Y2.0700
G01 X4.2500 Y2.0700
G01 X4.2882 Y2.0719
G01 X4.3261 Y2.0775
G01 X4.3632 Y2.0868
G01 X4.3992 Y2.0997
G01 X4.4338 Y2.1161
G01 X4.4667 Y2.1357
G01 X4.4974 Y2.1585
G01 X4.5258 Y2.1842
G01 X4.5515 Y2.2126
G01 X4.5743 Y2.2433
G01 X4.5939 Y2.2762
G01 X4.6103 Y2.3108
G01 X4.6135 Y2.3196
G01 X7.9600 Y2.3196
G01 X7.9791 Y2.3201
G01 X8.0527 Y2.3237
G01 X8.0908 Y2.3275
G01 X8.1636 Y2.3383
G01 X8.2012 Y2.3457
G01 X8.2726 Y2.3636
G01 X8.3092 Y2.3747
G01 X8.3785 Y2.3995
G01 X8.4139 Y2.4142
G01 X8.4805 Y2.4457
G01 X8.5142 Y2.4637
G01 X8.5774 Y2.5016
G01 X8.6092 Y2.5228
G01 X8.6684 Y2.5667
G01 X8.6979 Y2.5910
G01 X8.7525 Y2.6404
G01 X8.7664 Y2.6536
G01 X9.9727 Y3.8600
G01 X11.4500 Y3.8600
G01 X11.4882 Y3.8619
G01 X11.5261 Y3.8675
G01 X11.5632 Y3.8768
G01 X11.5992 Y3.8897
G01 X11.6338 Y3.9061
G01 X11.6667 Y3.9257
G01 X11.6974 Y3.9485
G01 X11.7258 Y3.9742
G01 X11.7515 Y4.0026
G01 X11.7743 Y4.0333
G01 X11.7939 Y4.0662
G01 X11.8103 Y4.1008
G01 X11.8232 Y4.1368
G01 X11.8325 Y4.1739
G01 X11.8381 Y4.2118
G01 X11.8400 Y4.2500
G01 X11.8400 Y6.7500
G01 X11.8381 Y6.7882
G01 X11.8325 Y6.8261
G01 X11.8232 Y6.8632
G01 X11.8103 Y6.8992
G01 X11.7939 Y6.9338
G01 X11.7743 Y6.9667
G01 X11.7515 Y6.9974
G01 X11.7258 Y7.0258
G01 X11.6974 Y7.0515
G01 X11.6667 Y7.0743
G01 X11.6338 Y7.0939
G01 X11.5992 Y7.1103
G01 X11.5632 Y7.1232
G01 X11.5261 Y7.1325
G01 X11.4882 Y7.1381
G01 X11.4500 Y7.1400
G01 X10.6404 Y7.1400
G01 X10.6404 Y7.8200
G01 X10.6399 Y7.8391
G01 X10.6363 Y7.9127
G01 X10.6325 Y7.9508
G01 X10.6217 Y8.0236
G01 X10.6143 Y8.0612
G01 X10.5964 Y8.1326
G01 X10.5853 Y8.1692
G01 X10.5605 Y8.2385
G01 X10.5458 Y8.2739
G01 X10.5143 Y8.3405
G01 X10.4963 Y8.3742
G01 X10.4584 Y8.4374
G01 X10.4372 Y8.4692
G01 X10.3933 Y8.5284
G01 X10.3690 Y8.5579
G01 X10.3196 Y8.6125
G01 X10.3064 Y8.6264
G01 X9.0903 Y9.8425
G01 X9.0903 Y10.2300
G01 X9.3000 Y10.2300
G01 X9.3382 Y10.2319
G01 X9.3761 Y10.2375
G01 X9.4132 Y10.2468
G01 X9.4492 Y10.2597
G01 X9.4838 Y10.2761
G01 X9.5167 Y10.2957
G01 X9.5474 Y10.3185
G01 X9.5758 Y10.3442
G01 X9.6015 Y10.3726
G01 X9.6243 Y10.4033
G01 X9.6439 Y10.4362
G01 X9.6603 Y10.4708
G01 X9.6732 Y10.5068
G01 X9.6825 Y10.5439
G01 X9.6881 Y10.5818
G01 X9.6900 Y10.6200
G01 X9.6900 Y11.8200
G01 X9.6881 Y11.8582
G01 X9.6825 Y11.8961
G01 X9.6732 Y11.9332
G01 X9.6603 Y11.9692
G01 X9.6439 Y12.0038
G01 X9.6243 Y12.0367
G01 X9.6015 Y12.0674
G01 X9.5758 Y12.0958
G01 X9.5474 Y12.1215
G01 X9.5167 Y12.1443
G01 X9.4838 Y12.1639
G01 X9.4492 Y12.1803
G01 X9.4132 Y12.1932
G01 X9.3761 Y12.2025
G01 X9.3382 Y12.2081
G01 X9.3000 Y12.2100
G01 X7.1000 Y12.2100
G01 X7.0618 Y12.2081
G01 X7.0239 Y12.2025
G01 X6.9868 Y12.1932
G01 X6.9508 Y12.1803
G01 X6.9291 Y12.1700
G00 Z2.0000
M05
G00 Z2.0000
G00 Z4.00
G00 X0.0 Y0.0

