(G-CODE GENERATED BY FLATCAM v8.991 - www.flatcam.org - Version Date: 2019/12/27)

(Name: delme)
(Type: G-code from Excellon)
(Units: MM)

(Created on Monday, 06 April 2020 at 14:39)

(Feedrate: 300.0 mm/min)
(Feedrate rapids 1500.0 mm/min)

(Z_Cut: -1.7 mm)
(Z_Move: 2.0 mm)
(Z Toolchange: 15.0 mm)
(X,Y Toolchange: 0.0000, 0.0000 mm)
(Z Start: None mm)
(Z End: 0.5 mm)
(Steps per circle: 64)
(Preprocessor Excellon: default)

(X range:    2.6000 ...    3.4000  mm)
(Y range:    3.0600 ...   13.9000  mm)

(Spindle Speed: None RPM)
G21
G90
G94




G01 F300.00
G00 Z2.0000

M03
G00 X3.0000 Y6.0000
G01 Z-1.7000
G01 Z0
G00 Z2.0000
G00 X3.0000 Y3.4600
G01 Z-1.7000
G01 Z0
G00 Z2.0000
G00 X3.0000 Y10.9600
G01 Z-1.7000
G01 Z0
G00 Z2.0000
G00 X3.0000 Y13.5000
G01 Z-1.7000
G01 Z0
G00 Z2.0000
M05
G00 Z0.50
G00 X0.0 Y0.0

