(G-CODE GENERATED BY FLATCAM v8.991 - www.flatcam.org - Version Date: 2019/12/27)

(Name: delikler)
(Type: G-code from Excellon)
(Units: MM)

(Created on Friday, 01 May 2020 at 17:17)

(Feedrate: 300.0 mm/min)
(Feedrate rapids 1500.0 mm/min)

(Z_Cut: -2.0 mm)
(Z_Move: 3.0 mm)
(Z Toolchange: 15.0 mm)
(X,Y Toolchange: 0.0000, 0.0000 mm)
(Z Start: None mm)
(Z End: 2.0 mm)
(Steps per circle: 64)
(Preprocessor Excellon: default)

(X range:    4.0000 ...  126.0000  mm)
(Y range:    3.6000 ...   66.9000  mm)

(Spindle Speed: None RPM)
G21
G90
G94




G01 F300.00
G00 Z3.0000

M03
G00 X117.5000 Y4.0000
G01 Z-2.0000
G01 Z0
G00 Z3.0000
G00 X108.5000 Y12.5000
G01 Z-2.0000
G01 Z0
G00 Z3.0000
G00 X105.9600 Y12.5000
G01 Z-2.0000
G01 Z0
G00 Z3.0000
G00 X101.0000 Y12.5000
G01 Z-2.0000
G01 Z0
G00 Z3.0000
G00 X98.4600 Y12.5000
G01 Z-2.0000
G01 Z0
G00 Z3.0000
G00 X96.5000 Y4.0000
G01 Z-2.0000
G01 Z0
G00 Z3.0000
G00 X91.0000 Y9.0000
G01 Z-2.0000
G01 Z0
G00 Z3.0000
G00 X87.5000 Y8.5000
G01 Z-2.0000
G01 Z0
G00 Z3.0000
G00 X87.5000 Y11.5000
G01 Z-2.0000
G01 Z0
G00 Z3.0000
G00 X87.5000 Y14.0000
G01 Z-2.0000
G01 Z0
G00 Z3.0000
G00 X87.5000 Y17.0000
G01 Z-2.0000
G01 Z0
G00 Z3.0000
G00 X82.2800 Y19.6200
G01 Z-2.0000
G01 Z0
G00 Z3.0000
G00 X79.7400 Y19.6200
G01 Z-2.0000
G01 Z0
G00 Z3.0000
G00 X77.2000 Y19.6200
G01 Z-2.0000
G01 Z0
G00 Z3.0000
G00 X74.6600 Y19.6200
G01 Z-2.0000
G01 Z0
G00 Z3.0000
G00 X72.1200 Y19.6200
G01 Z-2.0000
G01 Z0
G00 Z3.0000
G00 X69.5800 Y19.6200
G01 Z-2.0000
G01 Z0
G00 Z3.0000
G00 X67.0400 Y19.6200
G01 Z-2.0000
G01 Z0
G00 Z3.0000
G00 X64.5000 Y19.6200
G01 Z-2.0000
G01 Z0
G00 Z3.0000
G00 X61.9600 Y19.6200
G01 Z-2.0000
G01 Z0
G00 Z3.0000
G00 X59.4200 Y19.6200
G01 Z-2.0000
G01 Z0
G00 Z3.0000
G00 X56.8800 Y19.6200
G01 Z-2.0000
G01 Z0
G00 Z3.0000
G00 X56.3600 Y17.0000
G01 Z-2.0000
G01 Z0
G00 Z3.0000
G00 X58.5000 Y15.5000
G01 Z-2.0000
G01 Z0
G00 Z3.0000
G00 X67.5000 Y8.5000
G01 Z-2.0000
G01 Z0
G00 Z3.0000
G00 X70.5000 Y11.0000
G01 Z-2.0000
G01 Z0
G00 Z3.0000
G00 X74.5000 Y14.0000
G01 Z-2.0000
G01 Z0
G00 Z3.0000
G00 X76.0000 Y11.5000
G01 Z-2.0000
G01 Z0
G00 Z3.0000
G00 X82.0000 Y8.7400
G01 Z-2.0000
G01 Z0
G00 Z3.0000
G00 X82.2800 Y4.3800
G01 Z-2.0000
G01 Z0
G00 Z3.0000
G00 X79.7400 Y4.3800
G01 Z-2.0000
G01 Z0
G00 Z3.0000
G00 X77.2000 Y4.3800
G01 Z-2.0000
G01 Z0
G00 Z3.0000
G00 X74.6600 Y4.3800
G01 Z-2.0000
G01 Z0
G00 Z3.0000
G00 X72.1200 Y4.3800
G01 Z-2.0000
G01 Z0
G00 Z3.0000
G00 X69.5800 Y4.3800
G01 Z-2.0000
G01 Z0
G00 Z3.0000
G00 X67.0400 Y4.3800
G01 Z-2.0000
G01 Z0
G00 Z3.0000
G00 X64.5000 Y4.3800
G01 Z-2.0000
G01 Z0
G00 Z3.0000
G00 X61.9600 Y4.3800
G01 Z-2.0000
G01 Z0
G00 Z3.0000
G00 X59.4200 Y4.3800
G01 Z-2.0000
G01 Z0
G00 Z3.0000
G00 X56.8800 Y4.3800
G01 Z-2.0000
G01 Z0
G00 Z3.0000
G00 X54.3400 Y4.3800
G01 Z-2.0000
G01 Z0
G00 Z3.0000
G00 X51.8000 Y4.3800
G01 Z-2.0000
G01 Z0
G00 Z3.0000
G00 X49.2600 Y4.3800
G01 Z-2.0000
G01 Z0
G00 Z3.0000
G00 X46.7200 Y4.3800
G01 Z-2.0000
G01 Z0
G00 Z3.0000
G00 X54.3400 Y19.6200
G01 Z-2.0000
G01 Z0
G00 Z3.0000
G00 X51.8000 Y19.6200
G01 Z-2.0000
G01 Z0
G00 Z3.0000
G00 X51.5000 Y23.5000
G01 Z-2.0000
G01 Z0
G00 Z3.0000
G00 X49.2600 Y19.6200
G01 Z-2.0000
G01 Z0
G00 Z3.0000
G00 X46.7200 Y19.6200
G01 Z-2.0000
G01 Z0
G00 Z3.0000
G00 X31.0000 Y21.5000
G01 Z-2.0000
G01 Z0
G00 Z3.0000
G00 X28.3400 Y21.5400
G01 Z-2.0000
G01 Z0
G00 Z3.0000
G00 X25.8000 Y21.5400
G01 Z-2.0000
G01 Z0
G00 Z3.0000
G00 X23.2600 Y21.5400
G01 Z-2.0000
G01 Z0
G00 Z3.0000
G00 X25.5000 Y11.0000
G01 Z-2.0000
G01 Z0
G00 Z3.0000
G00 X23.0000 Y8.5000
G01 Z-2.0000
G01 Z0
G00 Z3.0000
G00 X15.0000 Y5.0000
G01 Z-2.0000
G01 Z0
G00 Z3.0000
G00 X9.5000 Y5.0000
G01 Z-2.0000
G01 Z0
G00 Z3.0000
G00 X9.5000 Y10.5000
G01 Z-2.0000
G01 Z0
G00 Z3.0000
G00 X5.5000 Y10.5000
G01 Z-2.0000
G01 Z0
G00 Z3.0000
G00 X5.5000 Y14.5000
G01 Z-2.0000
G01 Z0
G00 Z3.0000
G00 X9.5000 Y14.5000
G01 Z-2.0000
G01 Z0
G00 Z3.0000
G00 X19.0000 Y15.0000
G01 Z-2.0000
G01 Z0
G00 Z3.0000
G00 X20.7200 Y21.5400
G01 Z-2.0000
G01 Z0
G00 Z3.0000
G00 X16.0000 Y32.0000
G01 Z-2.0000
G01 Z0
G00 Z3.0000
G00 X11.5000 Y32.0000
G01 Z-2.0000
G01 Z0
G00 Z3.0000
G00 X11.5000 Y36.5000
G01 Z-2.0000
G01 Z0
G00 Z3.0000
G00 X11.5000 Y41.0000
G01 Z-2.0000
G01 Z0
G00 Z3.0000
G00 X12.5000 Y57.0000
G01 Z-2.0000
G01 Z0
G00 Z3.0000
G00 X15.5000 Y41.0000
G01 Z-2.0000
G01 Z0
G00 Z3.0000
G00 X15.5000 Y36.5000
G01 Z-2.0000
G01 Z0
G00 Z3.0000
G00 X27.0000 Y35.5000
G01 Z-2.0000
G01 Z0
G00 Z3.0000
G00 X27.0000 Y32.9600
G01 Z-2.0000
G01 Z0
G00 Z3.0000
G00 X27.0000 Y30.4200
G01 Z-2.0000
G01 Z0
G00 Z3.0000
G00 X43.0400 Y36.5400
G01 Z-2.0000
G01 Z0
G00 Z3.0000
G00 X48.4600 Y36.5400
G01 Z-2.0000
G01 Z0
G00 Z3.0000
G00 X52.5000 Y35.0000
G01 Z-2.0000
G01 Z0
G00 Z3.0000
G00 X55.0000 Y39.0000
G01 Z-2.0000
G01 Z0
G00 Z3.0000
G00 X51.0000 Y41.0000
G01 Z-2.0000
G01 Z0
G00 Z3.0000
G00 X48.4600 Y41.0000
G01 Z-2.0000
G01 Z0
G00 Z3.0000
G00 X45.9200 Y41.0000
G01 Z-2.0000
G01 Z0
G00 Z3.0000
G00 X45.9200 Y45.0000
G01 Z-2.0000
G01 Z0
G00 Z3.0000
G00 X48.4600 Y49.0000
G01 Z-2.0000
G01 Z0
G00 Z3.0000
G00 X51.0000 Y49.0000
G01 Z-2.0000
G01 Z0
G00 Z3.0000
G00 X51.5400 Y55.0000
G01 Z-2.0000
G01 Z0
G00 Z3.0000
G00 X49.0000 Y55.0000
G01 Z-2.0000
G01 Z0
G00 Z3.0000
G00 X44.0000 Y55.0000
G01 Z-2.0000
G01 Z0
G00 Z3.0000
G00 X41.4600 Y55.0000
G01 Z-2.0000
G01 Z0
G00 Z3.0000
G00 X45.9200 Y49.0000
G01 Z-2.0000
G01 Z0
G00 Z3.0000
G00 X48.4600 Y45.0000
G01 Z-2.0000
G01 Z0
G00 Z3.0000
G00 X51.0000 Y45.0000
G01 Z-2.0000
G01 Z0
G00 Z3.0000
G00 X55.0000 Y43.5000
G01 Z-2.0000
G01 Z0
G00 Z3.0000
G00 X61.0000 Y51.0000
G01 Z-2.0000
G01 Z0
G00 Z3.0000
G00 X68.5000 Y48.5000
G01 Z-2.0000
G01 Z0
G00 Z3.0000
G00 X68.5000 Y51.0000
G01 Z-2.0000
G01 Z0
G00 Z3.0000
G00 X73.5000 Y52.5000
G01 Z-2.0000
G01 Z0
G00 Z3.0000
G00 X78.8400 Y55.0000
G01 Z-2.0000
G01 Z0
G00 Z3.0000
G00 X78.8400 Y58.5000
G01 Z-2.0000
G01 Z0
G00 Z3.0000
G00 X76.7600 Y62.0000
G01 Z-2.0000
G01 Z0
G00 Z3.0000
G00 X78.8400 Y66.5000
G01 Z-2.0000
G01 Z0
G00 Z3.0000
G00 X89.0000 Y66.5000
G01 Z-2.0000
G01 Z0
G00 Z3.0000
G00 X92.0000 Y62.0000
G01 Z-2.0000
G01 Z0
G00 Z3.0000
G00 X103.4600 Y56.5000
G01 Z-2.0000
G01 Z0
G00 Z3.0000
G00 X106.0000 Y56.5000
G01 Z-2.0000
G01 Z0
G00 Z3.0000
G00 X112.0000 Y56.5000
G01 Z-2.0000
G01 Z0
G00 Z3.0000
G00 X114.5400 Y56.5000
G01 Z-2.0000
G01 Z0
G00 Z3.0000
G00 X116.0000 Y32.5000
G01 Z-2.0000
G01 Z0
G00 Z3.0000
G00 X111.5000 Y30.0000
G01 Z-2.0000
G01 Z0
G00 Z3.0000
G00 X109.0000 Y34.0000
G01 Z-2.0000
G01 Z0
G00 Z3.0000
G00 X105.7500 Y30.7500
G01 Z-2.0000
G01 Z0
G00 Z3.0000
G00 X100.5000 Y30.4200
G01 Z-2.0000
G01 Z0
G00 Z3.0000
G00 X100.5000 Y32.9600
G01 Z-2.0000
G01 Z0
G00 Z3.0000
G00 X100.5000 Y35.5000
G01 Z-2.0000
G01 Z0
G00 Z3.0000
G00 X91.0000 Y33.0000
G01 Z-2.0000
G01 Z0
G00 Z3.0000
G00 X82.0000 Y35.0000
G01 Z-2.0000
G01 Z0
G00 Z3.0000
G00 X79.5000 Y35.0000
G01 Z-2.0000
G01 Z0
G00 Z3.0000
G00 X81.4200 Y43.5000
G01 Z-2.0000
G01 Z0
G00 Z3.0000
G00 X83.9600 Y43.5000
G01 Z-2.0000
G01 Z0
G00 Z3.0000
G00 X86.5000 Y43.5000
G01 Z-2.0000
G01 Z0
G00 Z3.0000
G00 X89.0000 Y52.0000
G01 Z-2.0000
G01 Z0
G00 Z3.0000
G00 X89.0000 Y55.0000
G01 Z-2.0000
G01 Z0
G00 Z3.0000
G00 X89.0000 Y58.5000
G01 Z-2.0000
G01 Z0
G00 Z3.0000
G00 X78.8400 Y52.0000
G01 Z-2.0000
G01 Z0
G00 Z3.0000
G00 X73.5000 Y49.0000
G01 Z-2.0000
G01 Z0
G00 Z3.0000
G00 X73.5000 Y45.5000
G01 Z-2.0000
G01 Z0
G00 Z3.0000
G00 X68.5000 Y45.5000
G01 Z-2.0000
G01 Z0
G00 Z3.0000
G00 X61.2500 Y42.7500
G01 Z-2.0000
G01 Z0
G00 Z3.0000
G00 X59.5000 Y39.0000
G01 Z-2.0000
G01 Z0
G00 Z3.0000
G00 X64.4200 Y32.5000
G01 Z-2.0000
G01 Z0
G00 Z3.0000
G00 X64.4200 Y29.9600
G01 Z-2.0000
G01 Z0
G00 Z3.0000
G00 X66.9600 Y29.9600
G01 Z-2.0000
G01 Z0
G00 Z3.0000
G00 X66.9600 Y32.5000
G01 Z-2.0000
G01 Z0
G00 Z3.0000
G00 X69.5000 Y32.5000
G01 Z-2.0000
G01 Z0
G00 Z3.0000
G00 X69.5000 Y29.9600
G01 Z-2.0000
G01 Z0
G00 Z3.0000
G00 X72.0400 Y29.9600
G01 Z-2.0000
G01 Z0
G00 Z3.0000
G00 X72.0400 Y32.5000
G01 Z-2.0000
G01 Z0
G00 Z3.0000
G00 X74.5000 Y35.0000
G01 Z-2.0000
G01 Z0
G00 Z3.0000
G00 X77.0000 Y35.0000
G01 Z-2.0000
G01 Z0
G00 Z3.0000
G00 X74.5000 Y27.5000
G01 Z-2.0000
G01 Z0
G00 Z3.0000
G00 X77.0000 Y27.5000
G01 Z-2.0000
G01 Z0
G00 Z3.0000
G00 X79.5000 Y27.5000
G01 Z-2.0000
G01 Z0
G00 Z3.0000
G00 X84.5000 Y27.5000
G01 Z-2.0000
G01 Z0
G00 Z3.0000
G00 X87.5000 Y23.0000
G01 Z-2.0000
G01 Z0
G00 Z3.0000
G00 X101.2200 Y21.5400
G01 Z-2.0000
G01 Z0
G00 Z3.0000
G00 X103.7600 Y21.5400
G01 Z-2.0000
G01 Z0
G00 Z3.0000
G00 X106.3000 Y21.5400
G01 Z-2.0000
G01 Z0
G00 Z3.0000
G00 X108.8400 Y21.5400
G01 Z-2.0000
G01 Z0
G00 Z3.0000
G00 X111.5000 Y21.5000
G01 Z-2.0000
G01 Z0
G00 Z3.0000
M03
G00 X125.0000 Y5.0000
G01 Z-2.0000
G01 Z0
G00 Z3.0000
G00 X105.0000 Y65.0000
G01 Z-2.0000
G01 Z0
G00 Z3.0000
G00 X25.0000 Y65.0000
G01 Z-2.0000
G01 Z0
G00 Z3.0000
G00 X5.0000 Y5.0000
G01 Z-2.0000
G01 Z0
G00 Z3.0000
M03
G00 X116.0000 Y49.5000
G01 Z-2.0000
G01 Z0
G00 Z3.0000
G00 X116.0000 Y23.5000
G01 Z-2.0000
G01 Z0
G00 Z3.0000
G00 X96.0000 Y23.5000
G01 Z-2.0000
G01 Z0
G00 Z3.0000
G00 X35.5000 Y23.5000
G01 Z-2.0000
G01 Z0
G00 Z3.0000
G00 X15.5000 Y23.5000
G01 Z-2.0000
G01 Z0
G00 Z3.0000
G00 X15.5000 Y49.5000
G01 Z-2.0000
G01 Z0
G00 Z3.0000
G00 X35.5000 Y49.5000
G01 Z-2.0000
G01 Z0
G00 Z3.0000
G00 X96.0000 Y49.5000
G01 Z-2.0000
G01 Z0
G00 Z3.0000
M05
G00 Z2.00
G00 X0.0 Y0.0

