(G-CODE GENERATED BY FLATCAM v8.991 - www.flatcam.org - Version Date: 2019/12/27)

(This GCode tool change is done by using a Probe.)
(Make sure that before you start the job you first do a rough zero for Z axis.)
(This means that you need to zero the CNC axis and then jog to the toolchange X, Y location,)
(mount the probe and adjust the Z so more or less the probe tip touch the plate. Then zero the Z axis.)

(Name: 1)
(Type: G-code from Geometry)
(Units: MM)

(Created on Monday, 06 April 2020 at 17:32)

(TOOL DIAMETER: 0.3 mm)
(Feedrate: 120.0 mm/min)
(Feedrate_Z: 60.0 mm/min)
(Feedrate rapids 1500.0 mm/min)

(Feedrate Probe 75.0 mm/min)

(Z_Cut: -0.15 mm)
(Z_Move: 2.0 mm)
(Z Toolchange: 15.0 mm)
(X,Y Toolchange: 0.0000, 0.0000 mm)
(Z Start: None mm)
(Z End: 4.0 mm)
(Z Probe Depth: -0.02 mm)
(Steps per circle: 64)
(Preprocessor Geometry: Toolchange_Probe_MACH3)

(X range:    0.5996 ...   27.9004  mm)
(Y range:    0.5748 ...   17.7000  mm)

(Spindle Speed: None RPM)
G21
G90
G17
G94




G01 F120.00
G00 Z2.0000
(MSG, WARNING: Make sure you do zero on all axis. For Z axis, since it will be probed, make a rough estimate and do a zero.)
M0
M03
G00 X0.5998 Y4.9926
G01 F60.00
G01 Z-0.1500
G01 F120.00
G01 X0.6034 Y4.9191
G01 X0.6049 Y4.9044
G01 X0.6157 Y4.8316
G01 X0.6185 Y4.8172
G01 X0.6364 Y4.7457
G01 X0.6407 Y4.7316
G01 X0.6655 Y4.6623
G01 X0.6711 Y4.6487
G01 X0.7026 Y4.5821
G01 X0.7096 Y4.5692
G01 X0.7474 Y4.5060
G01 X0.7556 Y4.4938
G01 X0.7995 Y4.4346
G01 X0.8088 Y4.4232
G01 X0.8583 Y4.3687
G01 X0.8687 Y4.3583
G01 X0.9232 Y4.3088
G01 X0.9346 Y4.2995
G01 X0.9938 Y4.2556
G01 X1.0060 Y4.2474
G01 X1.0692 Y4.2096
G01 X1.0821 Y4.2026
G01 X1.1487 Y4.1711
G01 X1.1623 Y4.1655
G01 X1.2316 Y4.1407
G01 X1.2457 Y4.1364
G01 X1.3172 Y4.1185
G01 X1.3316 Y4.1157
G01 X1.4044 Y4.1049
G01 X1.4191 Y4.1034
G01 X1.5000 Y4.0996
G01 X2.5250 Y4.0996
G01 X2.5250 Y3.0000
G01 X2.5257 Y2.9853
G01 X2.5279 Y2.9707
G01 X2.5315 Y2.9565
G01 X2.5364 Y2.9426
G01 X2.5427 Y2.9293
G01 X2.5503 Y2.9167
G01 X2.5590 Y2.9048
G01 X2.5689 Y2.8939
G01 X2.5798 Y2.8840
G01 X2.5917 Y2.8753
G01 X2.6043 Y2.8677
G01 X2.6176 Y2.8614
G01 X2.6315 Y2.8565
G01 X2.6457 Y2.8529
G01 X2.6603 Y2.8507
G01 X2.6750 Y2.8500
G01 X3.0247 Y2.8500
G01 X3.0249 Y1.8176
G01 X3.0273 Y1.7686
G01 X3.0288 Y1.7540
G01 X3.0360 Y1.7054
G01 X3.0389 Y1.6910
G01 X3.0508 Y1.6433
G01 X3.0551 Y1.6293
G01 X3.0716 Y1.5830
G01 X3.0772 Y1.5694
G01 X3.0982 Y1.5251
G01 X3.1052 Y1.5121
G01 X3.1304 Y1.4700
G01 X3.1386 Y1.4577
G01 X3.1678 Y1.4183
G01 X3.1772 Y1.4069
G01 X3.2101 Y1.3705
G01 X3.8205 Y0.7601
G01 X3.8569 Y0.7272
G01 X3.8683 Y0.7178
G01 X3.9077 Y0.6886
G01 X3.9200 Y0.6804
G01 X3.9621 Y0.6552
G01 X3.9750 Y0.6482
G01 X4.0194 Y0.6272
G01 X4.0330 Y0.6216
G01 X4.0792 Y0.6051
G01 X4.0933 Y0.6008
G01 X4.1409 Y0.5889
G01 X4.1554 Y0.5860
G01 X4.2039 Y0.5788
G01 X4.2186 Y0.5773
G01 X4.2750 Y0.5748
G01 X25.2250 Y0.5748
G01 X25.2814 Y0.5773
G01 X25.2961 Y0.5788
G01 X25.3446 Y0.5860
G01 X25.3591 Y0.5889
G01 X25.4067 Y0.6008
G01 X25.4208 Y0.6051
G01 X25.4670 Y0.6216
G01 X25.4806 Y0.6272
G01 X25.5250 Y0.6482
G01 X25.5379 Y0.6552
G01 X25.5571 Y0.6666
G01 X25.5800 Y0.6804
G01 X25.5923 Y0.6886
G01 X25.6317 Y0.7178
G01 X25.6431 Y0.7272
G01 X25.6848 Y0.7652
G01 X25.9998 Y1.0802
G01 X26.0378 Y1.1219
G01 X26.0472 Y1.1333
G01 X26.0764 Y1.1727
G01 X26.0846 Y1.1850
G01 X26.1098 Y1.2271
G01 X26.1168 Y1.2401
G01 X26.1328 Y1.2739
G01 X26.1378 Y1.2844
G01 X26.1434 Y1.2980
G01 X26.1599 Y1.3443
G01 X26.1642 Y1.3583
G01 X26.1761 Y1.4060
G01 X26.1790 Y1.4204
G01 X26.1862 Y1.4690
G01 X26.1877 Y1.4836
G01 X26.1903 Y1.5400
G01 X26.1903 Y2.3020
G01 X26.2637 Y2.3565
G01 X26.2751 Y2.3658
G01 X26.3478 Y2.4318
G01 X26.3582 Y2.4422
G01 X26.4242 Y2.5149
G01 X26.4335 Y2.5263
G01 X26.4920 Y2.6051
G01 X26.5001 Y2.6173
G01 X26.5506 Y2.7015
G01 X26.5575 Y2.7145
G01 X26.5995 Y2.8032
G01 X26.6051 Y2.8168
G01 X26.6382 Y2.9092
G01 X26.6424 Y2.9233
G01 X26.6663 Y3.0185
G01 X26.6692 Y3.0329
G01 X26.6836 Y3.1300
G01 X26.6850 Y3.1446
G01 X26.6900 Y3.2500
G01 X26.6900 Y3.3767
G01 X27.6367 Y4.3233
G01 X27.6912 Y4.3832
G01 X27.7005 Y4.3946
G01 X27.7444 Y4.4538
G01 X27.7526 Y4.4660
G01 X27.7904 Y4.5292
G01 X27.7974 Y4.5421
G01 X27.8289 Y4.6087
G01 X27.8345 Y4.6223
G01 X27.8593 Y4.6916
G01 X27.8636 Y4.7057
G01 X27.8815 Y4.7772
G01 X27.8843 Y4.7916
G01 X27.8951 Y4.8644
G01 X27.8966 Y4.8791
G01 X27.9004 Y4.9600
G01 X27.9004 Y8.4000
G01 X27.8966 Y8.4809
G01 X27.8951 Y8.4956
G01 X27.8843 Y8.5684
G01 X27.8815 Y8.5828
G01 X27.8636 Y8.6543
G01 X27.8593 Y8.6684
G01 X27.8345 Y8.7377
G01 X27.8289 Y8.7513
G01 X27.7974 Y8.8179
G01 X27.7904 Y8.8308
G01 X27.7526 Y8.8940
G01 X27.7444 Y8.9062
G01 X27.7005 Y8.9654
G01 X27.6912 Y8.9768
G01 X27.6367 Y9.0367
G01 X27.0813 Y9.5917
G01 X27.0268 Y9.6412
G01 X27.0154 Y9.6505
G01 X26.9562 Y9.6944
G01 X26.9440 Y9.7026
G01 X26.8808 Y9.7404
G01 X26.8679 Y9.7474
G01 X26.8013 Y9.7789
G01 X26.7877 Y9.7845
G01 X26.7184 Y9.8093
G01 X26.7043 Y9.8136
G01 X26.6328 Y9.8315
G01 X26.6184 Y9.8343
G01 X26.5456 Y9.8451
G01 X26.5309 Y9.8466
G01 X26.4500 Y9.8504
G01 X25.4000 Y9.8504
G01 X25.4000 Y10.9500
G01 X25.3993 Y10.9647
G01 X25.3971 Y10.9793
G01 X25.3935 Y10.9935
G01 X25.3886 Y11.0074
G01 X25.3823 Y11.0207
G01 X25.3747 Y11.0333
G01 X25.3660 Y11.0452
G01 X25.3561 Y11.0561
G01 X25.3452 Y11.0660
G01 X25.3333 Y11.0747
G01 X25.3207 Y11.0823
G01 X25.3074 Y11.0886
G01 X25.2935 Y11.0935
G01 X25.2793 Y11.0971
G01 X25.2647 Y11.0993
G01 X25.2500 Y11.1000
G01 X22.7500 Y11.1000
G01 X22.7353 Y11.0993
G01 X22.7207 Y11.0971
G01 X22.7065 Y11.0935
G01 X22.6926 Y11.0886
G01 X22.6793 Y11.0823
G01 X22.6667 Y11.0747
G01 X22.6548 Y11.0660
G01 X22.6439 Y11.0561
G01 X22.6340 Y11.0452
G01 X22.6253 Y11.0333
G01 X22.6177 Y11.0207
G01 X22.6114 Y11.0074
G01 X22.6065 Y10.9935
G01 X22.6029 Y10.9793
G01 X22.6007 Y10.9647
G01 X22.6000 Y10.9500
G01 X22.6000 Y6.9500
G01 X22.6007 Y6.9353
G01 X22.6029 Y6.9207
G01 X22.6065 Y6.9065
G01 X22.6114 Y6.8926
G01 X22.6177 Y6.8793
G01 X22.6253 Y6.8667
G01 X22.6340 Y6.8548
G01 X22.6439 Y6.8439
G01 X22.6548 Y6.8340
G01 X22.6667 Y6.8253
G01 X22.6793 Y6.8177
G01 X22.6926 Y6.8114
G01 X22.7065 Y6.8065
G01 X22.7207 Y6.8029
G01 X22.7353 Y6.8007
G01 X22.7500 Y6.8000
G01 X25.2500 Y6.8000
G01 X25.2647 Y6.8007
G01 X25.2793 Y6.8029
G01 X25.2935 Y6.8065
G01 X25.3074 Y6.8114
G01 X25.3207 Y6.8177
G01 X25.3333 Y6.8253
G01 X25.3452 Y6.8340
G01 X25.3561 Y6.8439
G01 X25.3660 Y6.8548
G01 X25.3747 Y6.8667
G01 X25.3823 Y6.8793
G01 X25.3886 Y6.8926
G01 X25.3935 Y6.9065
G01 X25.3971 Y6.9207
G01 X25.3993 Y6.9353
G01 X25.4000 Y6.9500
G01 X25.4000 Y8.0496
G01 X26.0771 Y8.0496
G01 X26.0996 Y8.0271
G01 X26.0996 Y5.3329
G01 X25.6602 Y4.8935
G01 X25.6454 Y4.8950
G01 X25.5474 Y4.8998
G01 X25.5326 Y4.8998
G01 X25.4346 Y4.8950
G01 X25.4200 Y4.8936
G01 X25.3229 Y4.8792
G01 X25.3085 Y4.8763
G01 X25.2133 Y4.8524
G01 X25.1992 Y4.8482
G01 X25.1068 Y4.8151
G01 X25.0932 Y4.8095
G01 X25.0045 Y4.7675
G01 X24.9915 Y4.7606
G01 X24.9073 Y4.7101
G01 X24.8951 Y4.7020
G01 X24.8163 Y4.6435
G01 X24.8049 Y4.6342
G01 X24.7322 Y4.5682
G01 X24.7218 Y4.5578
G01 X24.6558 Y4.4851
G01 X24.6465 Y4.4737
G01 X24.5880 Y4.3949
G01 X24.5799 Y4.3827
G01 X24.5294 Y4.2985
G01 X24.5225 Y4.2855
G01 X24.4805 Y4.1968
G01 X24.4749 Y4.1832
G01 X24.4418 Y4.0908
G01 X24.4376 Y4.0767
G01 X24.4137 Y3.9815
G01 X24.4108 Y3.9671
G01 X24.3964 Y3.8700
G01 X24.3950 Y3.8554
G01 X24.3902 Y3.7574
G01 X24.3900 Y3.2500
G01 X24.3950 Y3.1446
G01 X24.3964 Y3.1300
G01 X24.4108 Y3.0329
G01 X24.4137 Y3.0185
G01 X24.4376 Y2.9233
G01 X24.4418 Y2.9092
G01 X24.4749 Y2.8168
G01 X24.4805 Y2.8032
G01 X24.5225 Y2.7145
G01 X24.5294 Y2.7015
G01 X24.5799 Y2.6173
G01 X24.5880 Y2.6051
G01 X24.6465 Y2.5263
G01 X24.6558 Y2.5149
G01 X24.7218 Y2.4422
G01 X24.7322 Y2.4318
G01 X24.8049 Y2.3658
G01 X24.8163 Y2.3565
G01 X24.8897 Y2.3020
G01 X24.8897 Y1.8753
G01 X19.5402 Y1.8753
G01 X19.5402 Y2.6500
G01 X19.5377 Y2.7064
G01 X19.5362 Y2.7210
G01 X19.5290 Y2.7696
G01 X19.5261 Y2.7840
G01 X19.5142 Y2.8317
G01 X19.5099 Y2.8457
G01 X19.4934 Y2.8920
G01 X19.4878 Y2.9056
G01 X19.4668 Y2.9500
G01 X19.4598 Y2.9629
G01 X19.4346 Y3.0050
G01 X19.4264 Y3.0173
G01 X19.3972 Y3.0567
G01 X19.3878 Y3.0681
G01 X19.3549 Y3.1045
G01 X19.1900 Y3.2696
G01 X19.1900 Y3.7500
G01 X19.1850 Y3.8554
G01 X19.1836 Y3.8700
G01 X19.1692 Y3.9671
G01 X19.1663 Y3.9815
G01 X19.1424 Y4.0767
G01 X19.1382 Y4.0908
G01 X19.1051 Y4.1832
G01 X19.0995 Y4.1968
G01 X19.0575 Y4.2855
G01 X19.0506 Y4.2985
G01 X19.0001 Y4.3827
G01 X18.9920 Y4.3949
G01 X18.9335 Y4.4737
G01 X18.9242 Y4.4851
G01 X18.8582 Y4.5578
G01 X18.8478 Y4.5682
G01 X18.7751 Y4.6342
G01 X18.7637 Y4.6435
G01 X18.6849 Y4.7020
G01 X18.6727 Y4.7101
G01 X18.5885 Y4.7606
G01 X18.5755 Y4.7675
G01 X18.4868 Y4.8095
G01 X18.4732 Y4.8151
G01 X18.3808 Y4.8482
G01 X18.3667 Y4.8524
G01 X18.2715 Y4.8763
G01 X18.2571 Y4.8792
G01 X18.1600 Y4.8936
G01 X18.1454 Y4.8950
G01 X18.0474 Y4.8998
G01 X18.0326 Y4.8998
G01 X17.9346 Y4.8950
G01 X17.9200 Y4.8936
G01 X17.8229 Y4.8792
G01 X17.8085 Y4.8763
G01 X17.7133 Y4.8524
G01 X17.6992 Y4.8482
G01 X17.6068 Y4.8151
G01 X17.5932 Y4.8095
G01 X17.5045 Y4.7675
G01 X17.4915 Y4.7606
G01 X17.4073 Y4.7101
G01 X17.3951 Y4.7020
G01 X17.3163 Y4.6435
G01 X17.3049 Y4.6342
G01 X17.2322 Y4.5682
G01 X17.2218 Y4.5578
G01 X17.1558 Y4.4851
G01 X17.1465 Y4.4737
G01 X17.0880 Y4.3949
G01 X17.0799 Y4.3827
G01 X17.0294 Y4.2985
G01 X17.0225 Y4.2855
G01 X16.9805 Y4.1968
G01 X16.9749 Y4.1832
G01 X16.9418 Y4.0908
G01 X16.9376 Y4.0767
G01 X16.9137 Y3.9815
G01 X16.9108 Y3.9671
G01 X16.8964 Y3.8700
G01 X16.8950 Y3.8554
G01 X16.8900 Y3.7500
G01 X16.8900 Y3.2500
G01 X16.8950 Y3.1446
G01 X16.8964 Y3.1300
G01 X16.9108 Y3.0329
G01 X16.9137 Y3.0185
G01 X16.9376 Y2.9233
G01 X16.9418 Y2.9092
G01 X16.9749 Y2.8168
G01 X16.9805 Y2.8032
G01 X17.0225 Y2.7145
G01 X17.0294 Y2.7015
G01 X17.0799 Y2.6173
G01 X17.0880 Y2.6051
G01 X17.1465 Y2.5263
G01 X17.1558 Y2.5149
G01 X17.2218 Y2.4422
G01 X17.2322 Y2.4318
G01 X17.3049 Y2.3658
G01 X17.3163 Y2.3565
G01 X17.3951 Y2.2980
G01 X17.4073 Y2.2899
G01 X17.4915 Y2.2394
G01 X17.5045 Y2.2325
G01 X17.5932 Y2.1905
G01 X17.6068 Y2.1849
G01 X17.6992 Y2.1518
G01 X17.7133 Y2.1476
G01 X17.8085 Y2.1237
G01 X17.8229 Y2.1208
G01 X17.9200 Y2.1064
G01 X17.9346 Y2.1050
G01 X18.0326 Y2.1002
G01 X18.0474 Y2.1002
G01 X18.1454 Y2.1050
G01 X18.1600 Y2.1064
G01 X18.2397 Y2.1183
G01 X18.2397 Y1.8753
G01 X4.5443 Y1.8753
G01 X4.3253 Y2.0943
G01 X4.3253 Y2.8500
G01 X4.6750 Y2.8500
G01 X4.6897 Y2.8507
G01 X4.7043 Y2.8529
G01 X4.7185 Y2.8565
G01 X4.7324 Y2.8614
G01 X4.7457 Y2.8677
G01 X4.7583 Y2.8753
G01 X4.7702 Y2.8840
G01 X4.7811 Y2.8939
G01 X4.7910 Y2.9048
G01 X4.7997 Y2.9167
G01 X4.8073 Y2.9293
G01 X4.8136 Y2.9426
G01 X4.8185 Y2.9565
G01 X4.8221 Y2.9707
G01 X4.8243 Y2.9853
G01 X4.8250 Y3.0000
G01 X4.8250 Y6.0000
G01 X4.8243 Y6.0147
G01 X4.8221 Y6.0293
G01 X4.8185 Y6.0435
G01 X4.8136 Y6.0574
G01 X4.8073 Y6.0707
G01 X4.7997 Y6.0833
G01 X4.7910 Y6.0952
G01 X4.7811 Y6.1061
G01 X4.7702 Y6.1160
G01 X4.7583 Y6.1247
G01 X4.7457 Y6.1323
G01 X4.7324 Y6.1386
G01 X4.7185 Y6.1435
G01 X4.7043 Y6.1471
G01 X4.6897 Y6.1493
G01 X4.6750 Y6.1500
G01 X2.6750 Y6.1500
G01 X2.6603 Y6.1493
G01 X2.6457 Y6.1471
G01 X2.6315 Y6.1435
G01 X2.6176 Y6.1386
G01 X2.6043 Y6.1323
G01 X2.5917 Y6.1247
G01 X2.5798 Y6.1160
G01 X2.5689 Y6.1061
G01 X2.5590 Y6.0952
G01 X2.5503 Y6.0833
G01 X2.5427 Y6.0707
G01 X2.5364 Y6.0574
G01 X2.5315 Y6.0435
G01 X2.5279 Y6.0293
G01 X2.5257 Y6.0147
G01 X2.5250 Y6.0000
G01 X2.5250 Y5.9004
G01 X2.4004 Y5.9004
G01 X2.4004 Y10.1271
G01 X3.1367 Y10.8633
G01 X3.1912 Y10.9232
G01 X3.2005 Y10.9346
G01 X3.2444 Y10.9938
G01 X3.2526 Y11.0060
G01 X3.2904 Y11.0692
G01 X3.2974 Y11.0821
G01 X3.3289 Y11.1487
G01 X3.3345 Y11.1623
G01 X3.3593 Y11.2316
G01 X3.3636 Y11.2457
G01 X3.3815 Y11.3172
G01 X3.3843 Y11.3316
G01 X3.3951 Y11.4044
G01 X3.3966 Y11.4191
G01 X3.4004 Y11.5000
G01 X3.4004 Y14.4271
G01 X3.6229 Y14.6496
G01 X4.6000 Y14.6496
G01 X4.6000 Y13.5500
G01 X4.6007 Y13.5353
G01 X4.6029 Y13.5207
G01 X4.6065 Y13.5065
G01 X4.6114 Y13.4926
G01 X4.6177 Y13.4793
G01 X4.6253 Y13.4667
G01 X4.6340 Y13.4548
G01 X4.6439 Y13.4439
G01 X4.6548 Y13.4340
G01 X4.6667 Y13.4253
G01 X4.6793 Y13.4177
G01 X4.6926 Y13.4114
G01 X4.7065 Y13.4065
G01 X4.7207 Y13.4029
G01 X4.7353 Y13.4007
G01 X4.7500 Y13.4000
G01 X7.2500 Y13.4000
G01 X7.2647 Y13.4007
G01 X7.2793 Y13.4029
G01 X7.2935 Y13.4065
G01 X7.3074 Y13.4114
G01 X7.3207 Y13.4177
G01 X7.3333 Y13.4253
G01 X7.3452 Y13.4340
G01 X7.3561 Y13.4439
G01 X7.3660 Y13.4548
G01 X7.3747 Y13.4667
G01 X7.3823 Y13.4793
G01 X7.3886 Y13.4926
G01 X7.3935 Y13.5065
G01 X7.3971 Y13.5207
G01 X7.3993 Y13.5353
G01 X7.4000 Y13.5500
G01 X7.4000 Y14.8997
G01 X7.9807 Y14.8997
G01 X9.3497 Y13.5307
G01 X9.3499 Y10.4926
G01 X9.3523 Y10.4436
G01 X9.3538 Y10.4290
G01 X9.3610 Y10.3804
G01 X9.3639 Y10.3660
G01 X9.3758 Y10.3183
G01 X9.3801 Y10.3043
G01 X9.3966 Y10.2580
G01 X9.4022 Y10.2444
G01 X9.4232 Y10.2001
G01 X9.4302 Y10.1871
G01 X9.4554 Y10.1450
G01 X9.4636 Y10.1327
G01 X9.4928 Y10.0933
G01 X9.5022 Y10.0819
G01 X9.5402 Y10.0402
G01 X12.2402 Y7.3402
G01 X12.2819 Y7.3022
G01 X12.2933 Y7.2928
G01 X12.3327 Y7.2636
G01 X12.3450 Y7.2554
G01 X12.3871 Y7.2302
G01 X12.4001 Y7.2232
G01 X12.4444 Y7.2022
G01 X12.4580 Y7.1966
G01 X12.4700 Y7.1923
G01 X12.4700 Y6.7000
G01 X12.4707 Y6.6853
G01 X12.4729 Y6.6707
G01 X12.4765 Y6.6565
G01 X12.4814 Y6.6426
G01 X12.4877 Y6.6293
G01 X12.4953 Y6.6167
G01 X12.5040 Y6.6048
G01 X12.5139 Y6.5939
G01 X12.5248 Y6.5840
G01 X12.5367 Y6.5753
G01 X12.5493 Y6.5677
G01 X12.5626 Y6.5614
G01 X12.5765 Y6.5565
G01 X12.5907 Y6.5529
G01 X12.6053 Y6.5507
G01 X12.6200 Y6.5500
G01 X13.8200 Y6.5500
G01 X13.8347 Y6.5507
G01 X13.8493 Y6.5529
G01 X13.8635 Y6.5565
G01 X13.8774 Y6.5614
G01 X13.8907 Y6.5677
G01 X13.9033 Y6.5753
G01 X13.9152 Y6.5840
G01 X13.9261 Y6.5939
G01 X13.9360 Y6.6048
G01 X13.9447 Y6.6167
G01 X13.9523 Y6.6293
G01 X13.9586 Y6.6426
G01 X13.9635 Y6.6565
G01 X13.9671 Y6.6707
G01 X13.9693 Y6.6853
G01 X13.9700 Y6.7000
G01 X13.9700 Y8.9000
G01 X13.9693 Y8.9147
G01 X13.9671 Y8.9293
G01 X13.9635 Y8.9435
G01 X13.9586 Y8.9574
G01 X13.9523 Y8.9707
G01 X13.9447 Y8.9833
G01 X13.9360 Y8.9952
G01 X13.9261 Y9.0061
G01 X13.9152 Y9.0160
G01 X13.9033 Y9.0247
G01 X13.8907 Y9.0323
G01 X13.8774 Y9.0386
G01 X13.8635 Y9.0435
G01 X13.8493 Y9.0471
G01 X13.8347 Y9.0493
G01 X13.8200 Y9.0500
G01 X12.6200 Y9.0500
G01 X12.6053 Y9.0493
G01 X12.5907 Y9.0471
G01 X12.5765 Y9.0435
G01 X12.5626 Y9.0386
G01 X12.5493 Y9.0323
G01 X12.5367 Y9.0247
G01 X12.5248 Y9.0160
G01 X12.5139 Y9.0061
G01 X12.5040 Y8.9952
G01 X12.4953 Y8.9833
G01 X12.4877 Y8.9707
G01 X12.4814 Y8.9574
G01 X12.4764 Y8.9432
G01 X10.6503 Y10.7693
G01 X10.6501 Y13.8074
G01 X10.6477 Y13.8564
G01 X10.6462 Y13.8710
G01 X10.6390 Y13.9196
G01 X10.6361 Y13.9340
G01 X10.6242 Y13.9817
G01 X10.6199 Y13.9957
G01 X10.6034 Y14.0420
G01 X10.5978 Y14.0556
G01 X10.5768 Y14.0999
G01 X10.5698 Y14.1129
G01 X10.5446 Y14.1550
G01 X10.5364 Y14.1673
G01 X10.5072 Y14.2067
G01 X10.4978 Y14.2181
G01 X10.4598 Y14.2598
G01 X8.7098 Y16.0098
G01 X8.6681 Y16.0478
G01 X8.6567 Y16.0572
G01 X8.6173 Y16.0864
G01 X8.6050 Y16.0946
G01 X8.5629 Y16.1198
G01 X8.5499 Y16.1268
G01 X8.5056 Y16.1478
G01 X8.4920 Y16.1534
G01 X8.4457 Y16.1699
G01 X8.4317 Y16.1742
G01 X8.3840 Y16.1861
G01 X8.3696 Y16.1890
G01 X8.3210 Y16.1962
G01 X8.3064 Y16.1977
G01 X8.2500 Y16.2003
G01 X7.4000 Y16.2003
G01 X7.4000 Y17.5500
G01 X7.3993 Y17.5647
G01 X7.3971 Y17.5793
G01 X7.3935 Y17.5935
G01 X7.3886 Y17.6074
G01 X7.3823 Y17.6207
G01 X7.3747 Y17.6333
G01 X7.3660 Y17.6452
G01 X7.3561 Y17.6561
G01 X7.3452 Y17.6660
G01 X7.3333 Y17.6747
G01 X7.3207 Y17.6823
G01 X7.3074 Y17.6886
G01 X7.2935 Y17.6935
G01 X7.2793 Y17.6971
G01 X7.2647 Y17.6993
G01 X7.2500 Y17.7000
G01 X4.7500 Y17.7000
G01 X4.7353 Y17.6993
G01 X4.7207 Y17.6971
G01 X4.7065 Y17.6935
G01 X4.6926 Y17.6886
G01 X4.6793 Y17.6823
G01 X4.6667 Y17.6747
G01 X4.6548 Y17.6660
G01 X4.6439 Y17.6561
G01 X4.6340 Y17.6452
G01 X4.6253 Y17.6333
G01 X4.6177 Y17.6207
G01 X4.6114 Y17.6074
G01 X4.6065 Y17.5935
G01 X4.6029 Y17.5793
G01 X4.6007 Y17.5647
G01 X4.6000 Y17.5500
G01 X4.6000 Y16.4504
G01 X3.2426 Y16.4502
G01 X3.1691 Y16.4466
G01 X3.1544 Y16.4451
G01 X3.0816 Y16.4343
G01 X3.0672 Y16.4315
G01 X2.9957 Y16.4136
G01 X2.9816 Y16.4093
G01 X2.9123 Y16.3845
G01 X2.8987 Y16.3789
G01 X2.8321 Y16.3474
G01 X2.8192 Y16.3404
G01 X2.7560 Y16.3026
G01 X2.7438 Y16.2944
G01 X2.6846 Y16.2505
G01 X2.6732 Y16.2412
G01 X2.6187 Y16.1917
G01 X1.8633 Y15.4367
G01 X1.8088 Y15.3768
G01 X1.7995 Y15.3654
G01 X1.7556 Y15.3062
G01 X1.7474 Y15.2940
G01 X1.7096 Y15.2308
G01 X1.7026 Y15.2179
G01 X1.6711 Y15.1513
G01 X1.6655 Y15.1377
G01 X1.6407 Y15.0684
G01 X1.6364 Y15.0543
G01 X1.6185 Y14.9828
G01 X1.6157 Y14.9684
G01 X1.6049 Y14.8956
G01 X1.6034 Y14.8809
G01 X1.5996 Y14.8000
G01 X1.5996 Y11.8729
G01 X0.8633 Y11.1367
G01 X0.8088 Y11.0768
G01 X0.7995 Y11.0654
G01 X0.7556 Y11.0062
G01 X0.7474 Y10.9940
G01 X0.7096 Y10.9308
G01 X0.7026 Y10.9179
G01 X0.6711 Y10.8513
G01 X0.6655 Y10.8377
G01 X0.6407 Y10.7684
G01 X0.6364 Y10.7543
G01 X0.6185 Y10.6828
G01 X0.6157 Y10.6684
G01 X0.6049 Y10.5956
G01 X0.6034 Y10.5809
G01 X0.5996 Y10.5000
G01 X0.5998 Y4.9926
G00 Z2.0000
G00 X4.7500 Y7.3000
G01 F60.00
G01 Z-0.1500
G01 F120.00
G01 X7.2500 Y7.3000
G01 X7.2647 Y7.3007
G01 X7.2793 Y7.3029
G01 X7.2935 Y7.3065
G01 X7.3074 Y7.3114
G01 X7.3207 Y7.3177
G01 X7.3333 Y7.3253
G01 X7.3452 Y7.3340
G01 X7.3561 Y7.3439
G01 X7.3660 Y7.3548
G01 X7.3747 Y7.3667
G01 X7.3823 Y7.3793
G01 X7.3886 Y7.3926
G01 X7.3935 Y7.4065
G01 X7.3971 Y7.4207
G01 X7.3993 Y7.4353
G01 X7.4000 Y7.4500
G01 X7.4000 Y8.7997
G01 X7.6747 Y8.7997
G01 X7.6747 Y6.1500
G01 X7.3250 Y6.1500
G01 X7.3103 Y6.1493
G01 X7.2957 Y6.1471
G01 X7.2815 Y6.1435
G01 X7.2676 Y6.1386
G01 X7.2543 Y6.1323
G01 X7.2417 Y6.1247
G01 X7.2298 Y6.1160
G01 X7.2189 Y6.1061
G01 X7.2090 Y6.0952
G01 X7.2003 Y6.0833
G01 X7.1927 Y6.0707
G01 X7.1864 Y6.0574
G01 X7.1815 Y6.0435
G01 X7.1779 Y6.0293
G01 X7.1757 Y6.0147
G01 X7.1750 Y6.0000
G01 X7.1750 Y3.0000
G01 X7.1757 Y2.9853
G01 X7.1779 Y2.9707
G01 X7.1815 Y2.9565
G01 X7.1864 Y2.9426
G01 X7.1927 Y2.9293
G01 X7.2003 Y2.9167
G01 X7.2090 Y2.9048
G01 X7.2189 Y2.8939
G01 X7.2298 Y2.8840
G01 X7.2417 Y2.8753
G01 X7.2543 Y2.8677
G01 X7.2676 Y2.8614
G01 X7.2815 Y2.8565
G01 X7.2957 Y2.8529
G01 X7.3103 Y2.8507
G01 X7.3250 Y2.8500
G01 X9.3250 Y2.8500
G01 X9.3397 Y2.8507
G01 X9.3543 Y2.8529
G01 X9.3685 Y2.8565
G01 X9.3824 Y2.8614
G01 X9.3957 Y2.8677
G01 X9.4083 Y2.8753
G01 X9.4202 Y2.8840
G01 X9.4311 Y2.8939
G01 X9.4410 Y2.9048
G01 X9.4497 Y2.9167
G01 X9.4573 Y2.9293
G01 X9.4636 Y2.9426
G01 X9.4685 Y2.9565
G01 X9.4721 Y2.9707
G01 X9.4743 Y2.9853
G01 X9.4750 Y3.0000
G01 X9.4750 Y3.8497
G01 X14.2307 Y3.8497
G01 X14.3500 Y3.7304
G01 X14.3500 Y2.2500
G01 X14.3507 Y2.2353
G01 X14.3529 Y2.2207
G01 X14.3565 Y2.2065
G01 X14.3614 Y2.1926
G01 X14.3677 Y2.1793
G01 X14.3753 Y2.1667
G01 X14.3840 Y2.1548
G01 X14.3939 Y2.1439
G01 X14.4048 Y2.1340
G01 X14.4167 Y2.1253
G01 X14.4293 Y2.1177
G01 X14.4426 Y2.1114
G01 X14.4565 Y2.1065
G01 X14.4707 Y2.1029
G01 X14.4853 Y2.1007
G01 X14.5000 Y2.1000
G01 X16.5000 Y2.1000
G01 X16.5147 Y2.1007
G01 X16.5293 Y2.1029
G01 X16.5435 Y2.1065
G01 X16.5574 Y2.1114
G01 X16.5707 Y2.1177
G01 X16.5833 Y2.1253
G01 X16.5952 Y2.1340
G01 X16.6061 Y2.1439
G01 X16.6160 Y2.1548
G01 X16.6247 Y2.1667
G01 X16.6323 Y2.1793
G01 X16.6386 Y2.1926
G01 X16.6435 Y2.2065
G01 X16.6471 Y2.2207
G01 X16.6493 Y2.2353
G01 X16.6500 Y2.2500
G01 X16.6500 Y4.7500
G01 X16.6493 Y4.7647
G01 X16.6471 Y4.7793
G01 X16.6435 Y4.7935
G01 X16.6386 Y4.8074
G01 X16.6323 Y4.8207
G01 X16.6247 Y4.8333
G01 X16.6160 Y4.8452
G01 X16.6061 Y4.8561
G01 X16.5952 Y4.8660
G01 X16.5833 Y4.8747
G01 X16.5707 Y4.8823
G01 X16.5574 Y4.8886
G01 X16.5435 Y4.8935
G01 X16.5293 Y4.8971
G01 X16.5147 Y4.8993
G01 X16.5000 Y4.9000
G01 X16.1503 Y4.9000
G01 X16.1503 Y6.8507
G01 X16.4493 Y7.1497
G01 X17.0300 Y7.1497
G01 X17.0300 Y6.7000
G01 X17.0307 Y6.6853
G01 X17.0329 Y6.6707
G01 X17.0365 Y6.6565
G01 X17.0414 Y6.6426
G01 X17.0477 Y6.6293
G01 X17.0553 Y6.6167
G01 X17.0640 Y6.6048
G01 X17.0739 Y6.5939
G01 X17.0848 Y6.5840
G01 X17.0967 Y6.5753
G01 X17.1093 Y6.5677
G01 X17.1226 Y6.5614
G01 X17.1365 Y6.5565
G01 X17.1507 Y6.5529
G01 X17.1653 Y6.5507
G01 X17.1800 Y6.5500
G01 X18.3800 Y6.5500
G01 X18.3947 Y6.5507
G01 X18.4093 Y6.5529
G01 X18.4235 Y6.5565
G01 X18.4374 Y6.5614
G01 X18.4507 Y6.5677
G01 X18.4633 Y6.5753
G01 X18.4752 Y6.5840
G01 X18.4861 Y6.5939
G01 X18.4960 Y6.6048
G01 X18.5047 Y6.6167
G01 X18.5123 Y6.6293
G01 X18.5186 Y6.6426
G01 X18.5235 Y6.6565
G01 X18.5271 Y6.6707
G01 X18.5293 Y6.6853
G01 X18.5300 Y6.7000
G01 X18.5300 Y8.9000
G01 X18.5293 Y8.9147
G01 X18.5271 Y8.9293
G01 X18.5235 Y8.9435
G01 X18.5186 Y8.9574
G01 X18.5123 Y8.9707
G01 X18.5047 Y8.9833
G01 X18.4960 Y8.9952
G01 X18.4861 Y9.0061
G01 X18.4752 Y9.0160
G01 X18.4633 Y9.0247
G01 X18.4507 Y9.0323
G01 X18.4374 Y9.0386
G01 X18.4235 Y9.0435
G01 X18.4093 Y9.0471
G01 X18.3947 Y9.0493
G01 X18.3800 Y9.0500
G01 X17.1800 Y9.0500
G01 X17.1653 Y9.0493
G01 X17.1507 Y9.0471
G01 X17.1365 Y9.0435
G01 X17.1226 Y9.0386
G01 X17.1093 Y9.0323
G01 X17.0967 Y9.0247
G01 X17.0848 Y9.0160
G01 X17.0739 Y9.0061
G01 X17.0640 Y8.9952
G01 X17.0553 Y8.9833
G01 X17.0477 Y8.9707
G01 X17.0414 Y8.9574
G01 X17.0365 Y8.9435
G01 X17.0329 Y8.9293
G01 X17.0307 Y8.9147
G01 X17.0300 Y8.9000
G01 X17.0300 Y8.4503
G01 X16.1726 Y8.4501
G01 X16.1236 Y8.4477
G01 X16.1090 Y8.4462
G01 X16.0604 Y8.4390
G01 X16.0460 Y8.4361
G01 X15.9983 Y8.4242
G01 X15.9843 Y8.4199
G01 X15.9380 Y8.4034
G01 X15.9244 Y8.3978
G01 X15.8801 Y8.3768
G01 X15.8671 Y8.3698
G01 X15.8250 Y8.3446
G01 X15.8127 Y8.3364
G01 X15.7733 Y8.3072
G01 X15.7619 Y8.2978
G01 X15.7255 Y8.2649
G01 X15.0351 Y7.5745
G01 X15.0022 Y7.5381
G01 X14.9928 Y7.5267
G01 X14.9636 Y7.4873
G01 X14.9554 Y7.4750
G01 X14.9302 Y7.4329
G01 X14.9232 Y7.4199
G01 X14.9022 Y7.3756
G01 X14.8966 Y7.3620
G01 X14.8801 Y7.3157
G01 X14.8758 Y7.3017
G01 X14.8639 Y7.2540
G01 X14.8610 Y7.2396
G01 X14.8538 Y7.1910
G01 X14.8523 Y7.1764
G01 X14.8497 Y7.1200
G01 X14.8497 Y5.0478
G01 X14.8129 Y5.0698
G01 X14.7999 Y5.0768
G01 X14.7556 Y5.0978
G01 X14.7420 Y5.1034
G01 X14.6957 Y5.1199
G01 X14.6817 Y5.1242
G01 X14.6340 Y5.1361
G01 X14.6196 Y5.1390
G01 X14.5710 Y5.1462
G01 X14.5564 Y5.1477
G01 X14.5000 Y5.1503
G01 X10.1503 Y5.1503
G01 X10.1503 Y8.0000
G01 X10.1477 Y8.0564
G01 X10.1462 Y8.0710
G01 X10.1390 Y8.1196
G01 X10.1361 Y8.1340
G01 X10.1242 Y8.1817
G01 X10.1199 Y8.1957
G01 X10.1034 Y8.2420
G01 X10.0978 Y8.2556
G01 X10.0768 Y8.2999
G01 X10.0698 Y8.3129
G01 X10.0446 Y8.3550
G01 X10.0364 Y8.3673
G01 X10.0072 Y8.4067
G01 X9.9978 Y8.4181
G01 X9.9598 Y8.4598
G01 X9.1458 Y9.2738
G01 X9.1390 Y9.3196
G01 X9.1361 Y9.3340
G01 X9.1242 Y9.3817
G01 X9.1199 Y9.3957
G01 X9.1034 Y9.4420
G01 X9.0978 Y9.4556
G01 X9.0768 Y9.4999
G01 X9.0698 Y9.5129
G01 X9.0446 Y9.5550
G01 X9.0364 Y9.5673
G01 X9.0072 Y9.6067
G01 X8.9978 Y9.6181
G01 X8.9598 Y9.6598
G01 X8.7098 Y9.9098
G01 X8.6681 Y9.9478
G01 X8.6567 Y9.9572
G01 X8.6173 Y9.9864
G01 X8.6050 Y9.9946
G01 X8.5629 Y10.0198
G01 X8.5499 Y10.0268
G01 X8.5056 Y10.0478
G01 X8.4920 Y10.0534
G01 X8.4457 Y10.0699
G01 X8.4317 Y10.0742
G01 X8.3840 Y10.0861
G01 X8.3696 Y10.0890
G01 X8.3210 Y10.0962
G01 X8.3064 Y10.0977
G01 X8.2574 Y10.1001
G01 X7.4000 Y10.1003
G01 X7.4000 Y11.4500
G01 X7.3993 Y11.4647
G01 X7.3971 Y11.4793
G01 X7.3935 Y11.4935
G01 X7.3886 Y11.5074
G01 X7.3823 Y11.5207
G01 X7.3747 Y11.5333
G01 X7.3660 Y11.5452
G01 X7.3561 Y11.5561
G01 X7.3452 Y11.5660
G01 X7.3333 Y11.5747
G01 X7.3207 Y11.5823
G01 X7.3074 Y11.5886
G01 X7.2935 Y11.5935
G01 X7.2793 Y11.5971
G01 X7.2647 Y11.5993
G01 X7.2500 Y11.6000
G01 X4.7500 Y11.6000
G01 X4.7353 Y11.5993
G01 X4.7207 Y11.5971
G01 X4.7065 Y11.5935
G01 X4.6926 Y11.5886
G01 X4.6793 Y11.5823
G01 X4.6667 Y11.5747
G01 X4.6548 Y11.5660
G01 X4.6439 Y11.5561
G01 X4.6340 Y11.5452
G01 X4.6253 Y11.5333
G01 X4.6177 Y11.5207
G01 X4.6114 Y11.5074
G01 X4.6065 Y11.4935
G01 X4.6029 Y11.4793
G01 X4.6007 Y11.4647
G01 X4.6000 Y11.4500
G01 X4.6000 Y7.4500
G01 X4.6007 Y7.4353
G01 X4.6029 Y7.4207
G01 X4.6065 Y7.4065
G01 X4.6114 Y7.3926
G01 X4.6177 Y7.3793
G01 X4.6253 Y7.3667
G01 X4.6340 Y7.3548
G01 X4.6439 Y7.3439
G01 X4.6548 Y7.3340
G01 X4.6667 Y7.3253
G01 X4.6793 Y7.3177
G01 X4.6926 Y7.3114
G01 X4.7065 Y7.3065
G01 X4.7207 Y7.3029
G01 X4.7353 Y7.3007
G01 X4.7500 Y7.3000
G00 Z2.0000
G00 X12.6000 Y10.7500
G01 F60.00
G01 Z-0.1500
G01 F120.00
G01 X18.4000 Y10.7500
G01 X18.4147 Y10.7507
G01 X18.4293 Y10.7529
G01 X18.4435 Y10.7565
G01 X18.4574 Y10.7614
G01 X18.4707 Y10.7677
G01 X18.4833 Y10.7753
G01 X18.4952 Y10.7840
G01 X18.5061 Y10.7939
G01 X18.5160 Y10.8048
G01 X18.5247 Y10.8167
G01 X18.5323 Y10.8293
G01 X18.5386 Y10.8426
G01 X18.5435 Y10.8565
G01 X18.5471 Y10.8707
G01 X18.5493 Y10.8853
G01 X18.5500 Y10.9000
G01 X18.5500 Y14.3738
G01 X19.8497 Y14.3577
G01 X19.8497 Y6.0000
G01 X19.8523 Y5.9436
G01 X19.8538 Y5.9290
G01 X19.8610 Y5.8804
G01 X19.8639 Y5.8660
G01 X19.8758 Y5.8183
G01 X19.8801 Y5.8043
G01 X19.8966 Y5.7580
G01 X19.9022 Y5.7444
G01 X19.9232 Y5.7001
G01 X19.9302 Y5.6871
G01 X19.9554 Y5.6450
G01 X19.9636 Y5.6327
G01 X19.9928 Y5.5933
G01 X20.0022 Y5.5819
G01 X20.0351 Y5.5455
G01 X21.8500 Y3.7304
G01 X21.8500 Y2.2500
G01 X21.8507 Y2.2353
G01 X21.8529 Y2.2207
G01 X21.8565 Y2.2065
G01 X21.8614 Y2.1926
G01 X21.8677 Y2.1793
G01 X21.8753 Y2.1667
G01 X21.8840 Y2.1548
G01 X21.8939 Y2.1439
G01 X21.9048 Y2.1340
G01 X21.9167 Y2.1253
G01 X21.9293 Y2.1177
G01 X21.9426 Y2.1114
G01 X21.9565 Y2.1065
G01 X21.9707 Y2.1029
G01 X21.9853 Y2.1007
G01 X22.0000 Y2.1000
G01 X24.0000 Y2.1000
G01 X24.0147 Y2.1007
G01 X24.0293 Y2.1029
G01 X24.0435 Y2.1065
G01 X24.0574 Y2.1114
G01 X24.0707 Y2.1177
G01 X24.0833 Y2.1253
G01 X24.0952 Y2.1340
G01 X24.1061 Y2.1439
G01 X24.1160 Y2.1548
G01 X24.1247 Y2.1667
G01 X24.1323 Y2.1793
G01 X24.1386 Y2.1926
G01 X24.1435 Y2.2065
G01 X24.1471 Y2.2207
G01 X24.1493 Y2.2353
G01 X24.1500 Y2.2500
G01 X24.1500 Y4.7500
G01 X24.1493 Y4.7647
G01 X24.1471 Y4.7793
G01 X24.1435 Y4.7935
G01 X24.1386 Y4.8074
G01 X24.1323 Y4.8207
G01 X24.1247 Y4.8333
G01 X24.1160 Y4.8452
G01 X24.1061 Y4.8561
G01 X24.0952 Y4.8660
G01 X24.0833 Y4.8747
G01 X24.0707 Y4.8823
G01 X24.0574 Y4.8886
G01 X24.0435 Y4.8935
G01 X24.0293 Y4.8971
G01 X24.0147 Y4.8993
G01 X24.0000 Y4.9000
G01 X22.5196 Y4.9000
G01 X21.1503 Y6.2693
G01 X21.1503 Y14.3590
G01 X22.6000 Y14.3797
G01 X22.6000 Y13.0500
G01 X22.6007 Y13.0353
G01 X22.6029 Y13.0207
G01 X22.6065 Y13.0065
G01 X22.6114 Y12.9926
G01 X22.6177 Y12.9793
G01 X22.6253 Y12.9667
G01 X22.6340 Y12.9548
G01 X22.6439 Y12.9439
G01 X22.6548 Y12.9340
G01 X22.6667 Y12.9253
G01 X22.6793 Y12.9177
G01 X22.6926 Y12.9114
G01 X22.7065 Y12.9065
G01 X22.7207 Y12.9029
G01 X22.7353 Y12.9007
G01 X22.7500 Y12.9000
G01 X25.2500 Y12.9000
G01 X25.2647 Y12.9007
G01 X25.2793 Y12.9029
G01 X25.2935 Y12.9065
G01 X25.3074 Y12.9114
G01 X25.3207 Y12.9177
G01 X25.3333 Y12.9253
G01 X25.3452 Y12.9340
G01 X25.3561 Y12.9439
G01 X25.3660 Y12.9548
G01 X25.3747 Y12.9667
G01 X25.3823 Y12.9793
G01 X25.3886 Y12.9926
G01 X25.3935 Y13.0065
G01 X25.3971 Y13.0207
G01 X25.3993 Y13.0353
G01 X25.4000 Y13.0500
G01 X25.4000 Y17.0500
G01 X25.3993 Y17.0647
G01 X25.3971 Y17.0793
G01 X25.3935 Y17.0935
G01 X25.3886 Y17.1074
G01 X25.3823 Y17.1207
G01 X25.3747 Y17.1333
G01 X25.3660 Y17.1452
G01 X25.3561 Y17.1561
G01 X25.3452 Y17.1660
G01 X25.3333 Y17.1747
G01 X25.3207 Y17.1823
G01 X25.3074 Y17.1886
G01 X25.2935 Y17.1935
G01 X25.2793 Y17.1971
G01 X25.2647 Y17.1993
G01 X25.2500 Y17.2000
G01 X22.7500 Y17.2000
G01 X22.7353 Y17.1993
G01 X22.7207 Y17.1971
G01 X22.7065 Y17.1935
G01 X22.6926 Y17.1886
G01 X22.6793 Y17.1823
G01 X22.6667 Y17.1747
G01 X22.6548 Y17.1660
G01 X22.6439 Y17.1561
G01 X22.6340 Y17.1452
G01 X22.6253 Y17.1333
G01 X22.6177 Y17.1207
G01 X22.6114 Y17.1074
G01 X22.6065 Y17.0935
G01 X22.6029 Y17.0793
G01 X22.6007 Y17.0647
G01 X22.6000 Y17.0500
G01 X22.6000 Y15.6803
G01 X20.4994 Y15.6503
G01 X18.5500 Y15.6744
G01 X18.5500 Y17.3000
G01 X18.5493 Y17.3147
G01 X18.5471 Y17.3293
G01 X18.5435 Y17.3435
G01 X18.5386 Y17.3574
G01 X18.5323 Y17.3707
G01 X18.5247 Y17.3833
G01 X18.5160 Y17.3952
G01 X18.5061 Y17.4061
G01 X18.4952 Y17.4160
G01 X18.4833 Y17.4247
G01 X18.4707 Y17.4323
G01 X18.4574 Y17.4386
G01 X18.4435 Y17.4435
G01 X18.4293 Y17.4471
G01 X18.4147 Y17.4493
G01 X18.4000 Y17.4500
G01 X12.6000 Y17.4500
G01 X12.5853 Y17.4493
G01 X12.5707 Y17.4471
G01 X12.5565 Y17.4435
G01 X12.5426 Y17.4386
G01 X12.5293 Y17.4323
G01 X12.5167 Y17.4247
G01 X12.5048 Y17.4160
G01 X12.4939 Y17.4061
G01 X12.4840 Y17.3952
G01 X12.4753 Y17.3833
G01 X12.4677 Y17.3707
G01 X12.4614 Y17.3574
G01 X12.4565 Y17.3435
G01 X12.4529 Y17.3293
G01 X12.4507 Y17.3147
G01 X12.4500 Y17.3000
G01 X12.4500 Y10.9000
G01 X12.4507 Y10.8853
G01 X12.4529 Y10.8707
G01 X12.4565 Y10.8565
G01 X12.4614 Y10.8426
G01 X12.4677 Y10.8293
G01 X12.4753 Y10.8167
G01 X12.4840 Y10.8048
G01 X12.4939 Y10.7939
G01 X12.5048 Y10.7840
G01 X12.5167 Y10.7753
G01 X12.5293 Y10.7677
G01 X12.5426 Y10.7614
G01 X12.5565 Y10.7565
G01 X12.5707 Y10.7529
G01 X12.5853 Y10.7507
G01 X12.6000 Y10.7500
G00 Z2.0000
M05
G00 Z2.0000
G00 Z4.00
G00 X0.0 Y0.0

