(G-CODE GENERATED BY FLATCAM v8.991 - www.flatcam.org - Version Date: 2019/12/27)

(This GCode tool change is done by using a Probe.)
(Make sure that before you start the job you first do a rough zero for Z axis.)
(This means that you need to zero the CNC axis and then jog to the toolchange X, Y location,)
(mount the probe and adjust the Z so more or less the probe tip touch the plate. Then zero the Z axis.)

(Name: 3)
(Type: G-code from Geometry)
(Units: MM)

(Created on Monday, 06 April 2020 at 17:31)

(TOOL DIAMETER: 0.3 mm)
(Feedrate: 120.0 mm/min)
(Feedrate_Z: 60.0 mm/min)
(Feedrate rapids 1500.0 mm/min)

(Feedrate Probe 75.0 mm/min)

(Z_Cut: -0.15 mm)
(Z_Move: 2.0 mm)
(Z Toolchange: 15.0 mm)
(X,Y Toolchange: 0.0000, 0.0000 mm)
(Z Start: None mm)
(Z End: 4.0 mm)
(Z Probe Depth: -0.02 mm)
(Steps per circle: 64)
(Preprocessor Geometry: Toolchange_Probe_MACH3)

(X range:    0.2396 ...   28.2604  mm)
(Y range:    0.2148 ...   18.0600  mm)

(Spindle Speed: None RPM)
G21
G90
G17
G94




G01 F120.00
G00 Z2.0000
(MSG, WARNING: Make sure you do zero on all axis. For Z axis, since it will be probed, make a rough estimate and do a zero.)
M0
M03
G00 X4.7500 Y6.9400
G01 F60.00
G01 Z-0.1500
G01 F120.00
G01 X4.7000 Y6.9425
G01 X4.6505 Y6.9498
G01 X4.6020 Y6.9620
G01 X4.5548 Y6.9788
G01 X4.5096 Y7.0002
G01 X4.4667 Y7.0260
G01 X4.4265 Y7.0558
G01 X4.3894 Y7.0894
G01 X4.3558 Y7.1265
G01 X4.3260 Y7.1667
G01 X4.3002 Y7.2096
G01 X4.2788 Y7.2548
G01 X4.2620 Y7.3020
G01 X4.2498 Y7.3505
G01 X4.2425 Y7.4000
G01 X4.2400 Y7.4500
G01 X4.2400 Y11.4500
G01 X4.2425 Y11.5000
G01 X4.2498 Y11.5495
G01 X4.2620 Y11.5980
G01 X4.2788 Y11.6452
G01 X4.3002 Y11.6904
G01 X4.3260 Y11.7333
G01 X4.3558 Y11.7735
G01 X4.3894 Y11.8106
G01 X4.4265 Y11.8442
G01 X4.4667 Y11.8740
G01 X4.5096 Y11.8998
G01 X4.5548 Y11.9212
G01 X4.6020 Y11.9380
G01 X4.6505 Y11.9502
G01 X4.7000 Y11.9575
G01 X4.7500 Y11.9600
G01 X7.2500 Y11.9600
G01 X7.3000 Y11.9575
G01 X7.3495 Y11.9502
G01 X7.3980 Y11.9380
G01 X7.4452 Y11.9212
G01 X7.4904 Y11.8998
G01 X7.5333 Y11.8740
G01 X7.5735 Y11.8442
G01 X7.6106 Y11.8106
G01 X7.6442 Y11.7735
G01 X7.6740 Y11.7333
G01 X7.6998 Y11.6904
G01 X7.7212 Y11.6452
G01 X7.7380 Y11.5980
G01 X7.7502 Y11.5495
G01 X7.7575 Y11.5000
G01 X7.7600 Y11.4500
G01 X7.7600 Y10.4603
G01 X8.2500 Y10.4603
G01 X8.2750 Y10.4596
G01 X8.3241 Y10.4572
G01 X8.3739 Y10.4523
G01 X8.4224 Y10.4451
G01 X8.4715 Y10.4354
G01 X8.5191 Y10.4234
G01 X8.5670 Y10.4089
G01 X8.6133 Y10.3924
G01 X8.6595 Y10.3732
G01 X8.7039 Y10.3522
G01 X8.7480 Y10.3286
G01 X8.7901 Y10.3034
G01 X8.8317 Y10.2756
G01 X8.8712 Y10.2463
G01 X8.9099 Y10.2146
G01 X8.9462 Y10.1816
G01 X8.9644 Y10.1644
G01 X9.1152 Y10.0135
G01 X9.0978 Y10.0461
G01 X9.0768 Y10.0905
G01 X9.0576 Y10.1367
G01 X9.0411 Y10.1830
G01 X9.0266 Y10.2309
G01 X9.0146 Y10.2785
G01 X9.0049 Y10.3276
G01 X8.9977 Y10.3761
G01 X8.9928 Y10.4259
G01 X8.9904 Y10.4750
G01 X8.9897 Y10.5000
G01 X8.9897 Y13.3815
G01 X7.8315 Y14.5397
G01 X7.7600 Y14.5397
G01 X7.7600 Y13.5500
G01 X7.7575 Y13.5000
G01 X7.7502 Y13.4505
G01 X7.7380 Y13.4020
G01 X7.7212 Y13.3548
G01 X7.6998 Y13.3096
G01 X7.6740 Y13.2667
G01 X7.6442 Y13.2265
G01 X7.6106 Y13.1894
G01 X7.5735 Y13.1558
G01 X7.5333 Y13.1260
G01 X7.4904 Y13.1002
G01 X7.4452 Y13.0788
G01 X7.3980 Y13.0620
G01 X7.3495 Y13.0498
G01 X7.3000 Y13.0425
G01 X7.2500 Y13.0400
G01 X4.7500 Y13.0400
G01 X4.7000 Y13.0425
G01 X4.6505 Y13.0498
G01 X4.6020 Y13.0620
G01 X4.5548 Y13.0788
G01 X4.5096 Y13.1002
G01 X4.4667 Y13.1260
G01 X4.4265 Y13.1558
G01 X4.3894 Y13.1894
G01 X4.3558 Y13.2265
G01 X4.3260 Y13.2667
G01 X4.3002 Y13.3096
G01 X4.2788 Y13.3548
G01 X4.2620 Y13.4020
G01 X4.2498 Y13.4505
G01 X4.2425 Y13.5000
G01 X4.2400 Y13.5500
G01 X4.2400 Y14.2896
G01 X3.7721 Y14.2896
G01 X3.7604 Y14.2779
G01 X3.7604 Y11.5000
G01 X3.7598 Y11.4750
G01 X3.7561 Y11.4014
G01 X3.7512 Y11.3516
G01 X3.7404 Y11.2788
G01 X3.7307 Y11.2297
G01 X3.7128 Y11.1583
G01 X3.6983 Y11.1104
G01 X3.6734 Y11.0410
G01 X3.6543 Y10.9948
G01 X3.6228 Y10.9282
G01 X3.5992 Y10.8841
G01 X3.5614 Y10.8209
G01 X3.5335 Y10.7793
G01 X3.4897 Y10.7202
G01 X3.4579 Y10.6815
G01 X3.4085 Y10.6269
G01 X3.3912 Y10.6088
G01 X2.7604 Y9.9779
G01 X2.7604 Y6.5100
G01 X4.6750 Y6.5100
G01 X4.7250 Y6.5075
G01 X4.7745 Y6.5002
G01 X4.8230 Y6.4880
G01 X4.8702 Y6.4712
G01 X4.9154 Y6.4498
G01 X4.9583 Y6.4240
G01 X4.9985 Y6.3942
G01 X5.0356 Y6.3606
G01 X5.0692 Y6.3235
G01 X5.0990 Y6.2833
G01 X5.1248 Y6.2404
G01 X5.1462 Y6.1952
G01 X5.1630 Y6.1480
G01 X5.1752 Y6.0995
G01 X5.1825 Y6.0500
G01 X5.1850 Y6.0000
G01 X5.1850 Y3.0000
G01 X5.1825 Y2.9500
G01 X5.1752 Y2.9005
G01 X5.1630 Y2.8520
G01 X5.1462 Y2.8048
G01 X5.1248 Y2.7596
G01 X5.0990 Y2.7167
G01 X5.0692 Y2.6765
G01 X5.0356 Y2.6394
G01 X4.9985 Y2.6058
G01 X4.9583 Y2.5760
G01 X4.9154 Y2.5502
G01 X4.8702 Y2.5288
G01 X4.8230 Y2.5120
G01 X4.7745 Y2.4998
G01 X4.7250 Y2.4925
G01 X4.6853 Y2.4905
G01 X4.6853 Y2.2435
G01 X4.6934 Y2.2353
G01 X13.9907 Y2.2353
G01 X13.9900 Y2.2500
G01 X13.9900 Y3.4897
G01 X9.8350 Y3.4897
G01 X9.8350 Y3.0000
G01 X9.8325 Y2.9500
G01 X9.8252 Y2.9005
G01 X9.8130 Y2.8520
G01 X9.7962 Y2.8048
G01 X9.7748 Y2.7596
G01 X9.7490 Y2.7167
G01 X9.7192 Y2.6765
G01 X9.6856 Y2.6394
G01 X9.6485 Y2.6058
G01 X9.6083 Y2.5760
G01 X9.5654 Y2.5502
G01 X9.5202 Y2.5288
G01 X9.4730 Y2.5120
G01 X9.4245 Y2.4998
G01 X9.3750 Y2.4925
G01 X9.3250 Y2.4900
G01 X7.3250 Y2.4900
G01 X7.2750 Y2.4925
G01 X7.2255 Y2.4998
G01 X7.1770 Y2.5120
G01 X7.1298 Y2.5288
G01 X7.0846 Y2.5502
G01 X7.0417 Y2.5760
G01 X7.0015 Y2.6058
G01 X6.9644 Y2.6394
G01 X6.9308 Y2.6765
G01 X6.9010 Y2.7167
G01 X6.8752 Y2.7596
G01 X6.8538 Y2.8048
G01 X6.8370 Y2.8520
G01 X6.8248 Y2.9005
G01 X6.8175 Y2.9500
G01 X6.8150 Y3.0000
G01 X6.8150 Y6.0000
G01 X6.8175 Y6.0500
G01 X6.8248 Y6.0995
G01 X6.8370 Y6.1480
G01 X6.8538 Y6.1952
G01 X6.8752 Y6.2404
G01 X6.9010 Y6.2833
G01 X6.9308 Y6.3235
G01 X6.9644 Y6.3606
G01 X7.0015 Y6.3942
G01 X7.0417 Y6.4240
G01 X7.0846 Y6.4498
G01 X7.1298 Y6.4712
G01 X7.1770 Y6.4880
G01 X7.2255 Y6.5002
G01 X7.2750 Y6.5075
G01 X7.3147 Y6.5095
G01 X7.3147 Y6.9446
G01 X7.3000 Y6.9425
G01 X7.2500 Y6.9400
G01 X4.7500 Y6.9400
G00 Z2.0000
G00 X9.3848 Y9.6865
G01 F60.00
G01 Z-0.1500
G01 F120.00
G01 X11.9856 Y7.0856
G01 X12.0038 Y7.0684
G01 X12.0401 Y7.0354
G01 X12.0788 Y7.0037
G01 X12.1100 Y6.9806
G01 X12.1100 Y6.7000
G01 X12.1125 Y6.6500
G01 X12.1198 Y6.6005
G01 X12.1320 Y6.5520
G01 X12.1488 Y6.5048
G01 X12.1702 Y6.4596
G01 X12.1960 Y6.4167
G01 X12.2258 Y6.3765
G01 X12.2594 Y6.3394
G01 X12.2965 Y6.3058
G01 X12.3367 Y6.2760
G01 X12.3796 Y6.2502
G01 X12.4248 Y6.2288
G01 X12.4720 Y6.2120
G01 X12.5205 Y6.1998
G01 X12.5700 Y6.1925
G01 X12.6200 Y6.1900
G01 X13.8200 Y6.1900
G01 X13.8700 Y6.1925
G01 X13.9195 Y6.1998
G01 X13.9680 Y6.2120
G01 X14.0152 Y6.2288
G01 X14.0604 Y6.2502
G01 X14.1033 Y6.2760
G01 X14.1435 Y6.3058
G01 X14.1806 Y6.3394
G01 X14.2142 Y6.3765
G01 X14.2440 Y6.4167
G01 X14.2698 Y6.4596
G01 X14.2912 Y6.5048
G01 X14.3080 Y6.5520
G01 X14.3202 Y6.6005
G01 X14.3275 Y6.6500
G01 X14.3300 Y6.7000
G01 X14.3300 Y8.9000
G01 X14.3275 Y8.9500
G01 X14.3202 Y8.9995
G01 X14.3080 Y9.0480
G01 X14.2912 Y9.0952
G01 X14.2698 Y9.1404
G01 X14.2440 Y9.1833
G01 X14.2142 Y9.2235
G01 X14.1806 Y9.2606
G01 X14.1435 Y9.2942
G01 X14.1033 Y9.3240
G01 X14.0604 Y9.3498
G01 X14.0152 Y9.3712
G01 X13.9680 Y9.3880
G01 X13.9195 Y9.4002
G01 X13.8700 Y9.4075
G01 X13.8200 Y9.4100
G01 X12.6200 Y9.4100
G01 X12.5700 Y9.4075
G01 X12.5275 Y9.4012
G01 X11.0103 Y10.9185
G01 X11.0103 Y13.8000
G01 X11.0096 Y13.8250
G01 X11.0072 Y13.8741
G01 X11.0023 Y13.9239
G01 X10.9951 Y13.9724
G01 X10.9854 Y14.0215
G01 X10.9734 Y14.0691
G01 X10.9589 Y14.1170
G01 X10.9424 Y14.1633
G01 X10.9232 Y14.2095
G01 X10.9022 Y14.2539
G01 X10.8786 Y14.2980
G01 X10.8534 Y14.3401
G01 X10.8256 Y14.3817
G01 X10.7963 Y14.4212
G01 X10.7646 Y14.4599
G01 X10.7316 Y14.4962
G01 X10.7144 Y14.5144
G01 X8.9644 Y16.2644
G01 X8.9462 Y16.2816
G01 X8.9099 Y16.3146
G01 X8.8712 Y16.3463
G01 X8.8317 Y16.3756
G01 X8.7901 Y16.4034
G01 X8.7480 Y16.4286
G01 X8.7039 Y16.4522
G01 X8.6595 Y16.4732
G01 X8.6133 Y16.4924
G01 X8.5670 Y16.5089
G01 X8.5191 Y16.5234
G01 X8.4715 Y16.5354
G01 X8.4224 Y16.5451
G01 X8.3739 Y16.5523
G01 X8.3241 Y16.5572
G01 X8.2750 Y16.5596
G01 X8.2500 Y16.5603
G01 X7.7600 Y16.5603
G01 X7.7600 Y17.5500
G01 X7.7575 Y17.6000
G01 X7.7502 Y17.6495
G01 X7.7380 Y17.6980
G01 X7.7212 Y17.7452
G01 X7.6998 Y17.7904
G01 X7.6740 Y17.8333
G01 X7.6442 Y17.8735
G01 X7.6106 Y17.9106
G01 X7.5735 Y17.9442
G01 X7.5333 Y17.9740
G01 X7.4904 Y17.9998
G01 X7.4452 Y18.0212
G01 X7.3980 Y18.0380
G01 X7.3495 Y18.0502
G01 X7.3000 Y18.0575
G01 X7.2500 Y18.0600
G01 X4.7500 Y18.0600
G01 X4.7000 Y18.0575
G01 X4.6505 Y18.0502
G01 X4.6020 Y18.0380
G01 X4.5548 Y18.0212
G01 X4.5096 Y17.9998
G01 X4.4667 Y17.9740
G01 X4.4265 Y17.9442
G01 X4.3894 Y17.9106
G01 X4.3558 Y17.8735
G01 X4.3260 Y17.8333
G01 X4.3002 Y17.7904
G01 X4.2788 Y17.7452
G01 X4.2620 Y17.6980
G01 X4.2498 Y17.6495
G01 X4.2425 Y17.6000
G01 X4.2400 Y17.5500
G01 X4.2400 Y16.8104
G01 X3.2500 Y16.8104
G01 X3.2250 Y16.8098
G01 X3.1514 Y16.8061
G01 X3.1016 Y16.8012
G01 X3.0288 Y16.7904
G01 X2.9797 Y16.7807
G01 X2.9083 Y16.7628
G01 X2.8604 Y16.7483
G01 X2.7910 Y16.7234
G01 X2.7448 Y16.7043
G01 X2.6782 Y16.6728
G01 X2.6341 Y16.6492
G01 X2.5709 Y16.6114
G01 X2.5293 Y16.5835
G01 X2.4702 Y16.5397
G01 X2.4315 Y16.5079
G01 X2.3769 Y16.4585
G01 X2.3588 Y16.4412
G01 X1.6088 Y15.6912
G01 X1.5915 Y15.6731
G01 X1.5421 Y15.6185
G01 X1.5103 Y15.5798
G01 X1.4665 Y15.5207
G01 X1.4386 Y15.4791
G01 X1.4008 Y15.4159
G01 X1.3772 Y15.3718
G01 X1.3457 Y15.3052
G01 X1.3266 Y15.2590
G01 X1.3017 Y15.1896
G01 X1.2872 Y15.1417
G01 X1.2693 Y15.0703
G01 X1.2596 Y15.0212
G01 X1.2488 Y14.9484
G01 X1.2439 Y14.8986
G01 X1.2402 Y14.8250
G01 X1.2396 Y14.8000
G01 X1.2396 Y12.0221
G01 X0.6088 Y11.3912
G01 X0.5915 Y11.3731
G01 X0.5421 Y11.3185
G01 X0.5103 Y11.2798
G01 X0.4665 Y11.2207
G01 X0.4386 Y11.1791
G01 X0.4008 Y11.1159
G01 X0.3772 Y11.0718
G01 X0.3457 Y11.0052
G01 X0.3266 Y10.9590
G01 X0.3017 Y10.8896
G01 X0.2872 Y10.8417
G01 X0.2693 Y10.7703
G01 X0.2596 Y10.7212
G01 X0.2488 Y10.6484
G01 X0.2439 Y10.5986
G01 X0.2402 Y10.5250
G01 X0.2396 Y10.5000
G01 X0.2396 Y5.0000
G01 X0.2402 Y4.9750
G01 X0.2439 Y4.9014
G01 X0.2488 Y4.8516
G01 X0.2596 Y4.7788
G01 X0.2693 Y4.7297
G01 X0.2872 Y4.6583
G01 X0.3017 Y4.6104
G01 X0.3266 Y4.5410
G01 X0.3457 Y4.4948
G01 X0.3772 Y4.4282
G01 X0.4008 Y4.3841
G01 X0.4386 Y4.3209
G01 X0.4665 Y4.2793
G01 X0.5103 Y4.2202
G01 X0.5421 Y4.1815
G01 X0.5915 Y4.1269
G01 X0.6269 Y4.0915
G01 X0.6815 Y4.0421
G01 X0.7202 Y4.0103
G01 X0.7793 Y3.9665
G01 X0.8209 Y3.9386
G01 X0.8841 Y3.9008
G01 X0.9282 Y3.8772
G01 X0.9948 Y3.8457
G01 X1.0410 Y3.8266
G01 X1.1104 Y3.8017
G01 X1.1583 Y3.7872
G01 X1.2297 Y3.7693
G01 X1.2788 Y3.7596
G01 X1.3516 Y3.7488
G01 X1.4014 Y3.7439
G01 X1.4750 Y3.7402
G01 X1.5000 Y3.7396
G01 X2.1650 Y3.7396
G01 X2.1650 Y3.0000
G01 X2.1675 Y2.9500
G01 X2.1748 Y2.9005
G01 X2.1870 Y2.8520
G01 X2.2038 Y2.8048
G01 X2.2252 Y2.7596
G01 X2.2510 Y2.7167
G01 X2.2808 Y2.6765
G01 X2.3144 Y2.6394
G01 X2.3515 Y2.6058
G01 X2.3917 Y2.5760
G01 X2.4346 Y2.5502
G01 X2.4798 Y2.5288
G01 X2.5270 Y2.5120
G01 X2.5755 Y2.4998
G01 X2.6250 Y2.4925
G01 X2.6647 Y2.4905
G01 X2.6647 Y1.8250
G01 X2.6654 Y1.8000
G01 X2.6678 Y1.7509
G01 X2.6727 Y1.7011
G01 X2.6799 Y1.6526
G01 X2.6896 Y1.6035
G01 X2.7016 Y1.5559
G01 X2.7161 Y1.5080
G01 X2.7326 Y1.4617
G01 X2.7518 Y1.4155
G01 X2.7728 Y1.3711
G01 X2.7964 Y1.3270
G01 X2.8216 Y1.2849
G01 X2.8494 Y1.2433
G01 X2.8787 Y1.2038
G01 X2.9104 Y1.1651
G01 X2.9434 Y1.1288
G01 X2.9606 Y1.1106
G01 X3.5606 Y0.5107
G01 X3.5788 Y0.4934
G01 X3.6151 Y0.4604
G01 X3.6538 Y0.4287
G01 X3.6933 Y0.3994
G01 X3.7349 Y0.3716
G01 X3.7770 Y0.3464
G01 X3.8211 Y0.3228
G01 X3.8655 Y0.3018
G01 X3.9117 Y0.2827
G01 X3.9580 Y0.2661
G01 X4.0059 Y0.2516
G01 X4.0535 Y0.2397
G01 X4.1026 Y0.2299
G01 X4.1511 Y0.2227
G01 X4.2009 Y0.2178
G01 X4.2500 Y0.2154
G01 X4.2750 Y0.2148
G01 X25.2250 Y0.2148
G01 X25.2500 Y0.2154
G01 X25.2991 Y0.2178
G01 X25.3489 Y0.2227
G01 X25.3974 Y0.2299
G01 X25.4465 Y0.2397
G01 X25.4941 Y0.2516
G01 X25.5420 Y0.2661
G01 X25.5883 Y0.2827
G01 X25.6345 Y0.3018
G01 X25.6789 Y0.3228
G01 X25.7230 Y0.3464
G01 X25.7422 Y0.3579
G01 X25.7651 Y0.3716
G01 X25.8067 Y0.3994
G01 X25.8462 Y0.4287
G01 X25.8849 Y0.4604
G01 X25.9212 Y0.4934
G01 X25.9394 Y0.5107
G01 X26.2544 Y0.8256
G01 X26.2716 Y0.8438
G01 X26.3046 Y0.8801
G01 X26.3363 Y0.9188
G01 X26.3656 Y0.9583
G01 X26.3934 Y0.9999
G01 X26.4186 Y1.0420
G01 X26.4422 Y1.0861
G01 X26.4632 Y1.1305
G01 X26.4824 Y1.1767
G01 X26.4989 Y1.2230
G01 X26.5134 Y1.2709
G01 X26.5254 Y1.3185
G01 X26.5351 Y1.3676
G01 X26.5423 Y1.4161
G01 X26.5472 Y1.4659
G01 X26.5496 Y1.5150
G01 X26.5503 Y1.5400
G01 X26.5503 Y2.1293
G01 X26.5896 Y2.1650
G01 X26.6250 Y2.2004
G01 X26.6909 Y2.2731
G01 X26.7226 Y2.3118
G01 X26.7811 Y2.3906
G01 X26.8089 Y2.4322
G01 X26.8594 Y2.5164
G01 X26.8830 Y2.5606
G01 X26.9249 Y2.6493
G01 X26.9441 Y2.6955
G01 X26.9771 Y2.7879
G01 X26.9917 Y2.8358
G01 X27.0155 Y2.9310
G01 X27.0253 Y2.9801
G01 X27.0397 Y3.0772
G01 X27.0446 Y3.1270
G01 X27.0494 Y3.2270
G01 X27.8912 Y4.0688
G01 X27.9085 Y4.0869
G01 X27.9579 Y4.1415
G01 X27.9897 Y4.1802
G01 X28.0335 Y4.2393
G01 X28.0614 Y4.2809
G01 X28.0992 Y4.3441
G01 X28.1228 Y4.3882
G01 X28.1543 Y4.4548
G01 X28.1734 Y4.5010
G01 X28.1983 Y4.5704
G01 X28.2128 Y4.6183
G01 X28.2307 Y4.6897
G01 X28.2404 Y4.7388
G01 X28.2512 Y4.8116
G01 X28.2561 Y4.8614
G01 X28.2598 Y4.9350
G01 X28.2604 Y4.9600
G01 X28.2604 Y8.4000
G01 X28.2598 Y8.4250
G01 X28.2561 Y8.4986
G01 X28.2512 Y8.5484
G01 X28.2404 Y8.6212
G01 X28.2307 Y8.6703
G01 X28.2128 Y8.7417
G01 X28.1983 Y8.7896
G01 X28.1734 Y8.8590
G01 X28.1543 Y8.9052
G01 X28.1228 Y8.9718
G01 X28.0992 Y9.0159
G01 X28.0614 Y9.0791
G01 X28.0335 Y9.1207
G01 X27.9897 Y9.1798
G01 X27.9579 Y9.2185
G01 X27.9085 Y9.2731
G01 X27.8912 Y9.2912
G01 X27.3412 Y9.8412
G01 X27.3231 Y9.8585
G01 X27.2685 Y9.9079
G01 X27.2298 Y9.9397
G01 X27.1707 Y9.9835
G01 X27.1291 Y10.0114
G01 X27.0659 Y10.0492
G01 X27.0218 Y10.0728
G01 X26.9552 Y10.1043
G01 X26.9090 Y10.1234
G01 X26.8396 Y10.1483
G01 X26.7917 Y10.1628
G01 X26.7203 Y10.1807
G01 X26.6712 Y10.1904
G01 X26.5984 Y10.2012
G01 X26.5486 Y10.2061
G01 X26.4750 Y10.2098
G01 X26.4500 Y10.2104
G01 X25.7600 Y10.2104
G01 X25.7600 Y10.9500
G01 X25.7575 Y11.0000
G01 X25.7502 Y11.0495
G01 X25.7380 Y11.0980
G01 X25.7212 Y11.1452
G01 X25.6998 Y11.1904
G01 X25.6740 Y11.2333
G01 X25.6442 Y11.2735
G01 X25.6106 Y11.3106
G01 X25.5735 Y11.3442
G01 X25.5333 Y11.3740
G01 X25.4904 Y11.3998
G01 X25.4452 Y11.4212
G01 X25.3980 Y11.4380
G01 X25.3495 Y11.4502
G01 X25.3000 Y11.4575
G01 X25.2500 Y11.4600
G01 X22.7500 Y11.4600
G01 X22.7000 Y11.4575
G01 X22.6505 Y11.4502
G01 X22.6020 Y11.4380
G01 X22.5548 Y11.4212
G01 X22.5096 Y11.3998
G01 X22.4667 Y11.3740
G01 X22.4265 Y11.3442
G01 X22.3894 Y11.3106
G01 X22.3558 Y11.2735
G01 X22.3260 Y11.2333
G01 X22.3002 Y11.1904
G01 X22.2788 Y11.1452
G01 X22.2620 Y11.0980
G01 X22.2498 Y11.0495
G01 X22.2425 Y11.0000
G01 X22.2400 Y10.9500
G01 X22.2400 Y6.9500
G01 X22.2425 Y6.9000
G01 X22.2498 Y6.8505
G01 X22.2620 Y6.8020
G01 X22.2788 Y6.7548
G01 X22.3002 Y6.7096
G01 X22.3260 Y6.6667
G01 X22.3558 Y6.6265
G01 X22.3894 Y6.5894
G01 X22.4265 Y6.5558
G01 X22.4667 Y6.5260
G01 X22.5096 Y6.5002
G01 X22.5548 Y6.4788
G01 X22.6020 Y6.4620
G01 X22.6505 Y6.4498
G01 X22.7000 Y6.4425
G01 X22.7500 Y6.4400
G01 X25.2500 Y6.4400
G01 X25.3000 Y6.4425
G01 X25.3495 Y6.4498
G01 X25.3980 Y6.4620
G01 X25.4452 Y6.4788
G01 X25.4904 Y6.5002
G01 X25.5333 Y6.5260
G01 X25.5735 Y6.5558
G01 X25.6106 Y6.5894
G01 X25.6442 Y6.6265
G01 X25.6740 Y6.6667
G01 X25.6998 Y6.7096
G01 X25.7212 Y6.7548
G01 X25.7380 Y6.8020
G01 X25.7396 Y6.8083
G01 X25.7396 Y5.4821
G01 X25.5169 Y5.2594
G01 X25.4170 Y5.2546
G01 X25.3672 Y5.2497
G01 X25.2701 Y5.2353
G01 X25.2210 Y5.2255
G01 X25.1258 Y5.2017
G01 X25.0779 Y5.1871
G01 X24.9855 Y5.1541
G01 X24.9393 Y5.1349
G01 X24.8506 Y5.0930
G01 X24.8064 Y5.0694
G01 X24.7222 Y5.0189
G01 X24.6806 Y4.9911
G01 X24.6018 Y4.9326
G01 X24.5631 Y4.9009
G01 X24.5009 Y4.8445
G01 X24.5002 Y4.8495
G01 X24.4880 Y4.8980
G01 X24.4712 Y4.9452
G01 X24.4498 Y4.9904
G01 X24.4240 Y5.0333
G01 X24.3942 Y5.0735
G01 X24.3606 Y5.1106
G01 X24.3235 Y5.1442
G01 X24.2833 Y5.1740
G01 X24.2404 Y5.1998
G01 X24.1952 Y5.2212
G01 X24.1480 Y5.2380
G01 X24.0995 Y5.2502
G01 X24.0500 Y5.2575
G01 X24.0000 Y5.2600
G01 X22.6687 Y5.2600
G01 X21.5103 Y6.4185
G01 X21.5103 Y14.0041
G01 X22.2400 Y14.0145
G01 X22.2400 Y13.0500
G01 X22.2425 Y13.0000
G01 X22.2498 Y12.9505
G01 X22.2620 Y12.9020
G01 X22.2788 Y12.8548
G01 X22.3002 Y12.8096
G01 X22.3260 Y12.7667
G01 X22.3558 Y12.7265
G01 X22.3894 Y12.6894
G01 X22.4265 Y12.6558
G01 X22.4667 Y12.6260
G01 X22.5096 Y12.6002
G01 X22.5548 Y12.5788
G01 X22.6020 Y12.5620
G01 X22.6505 Y12.5498
G01 X22.7000 Y12.5425
G01 X22.7500 Y12.5400
G01 X25.2500 Y12.5400
G01 X25.3000 Y12.5425
G01 X25.3495 Y12.5498
G01 X25.3980 Y12.5620
G01 X25.4452 Y12.5788
G01 X25.4904 Y12.6002
G01 X25.5333 Y12.6260
G01 X25.5735 Y12.6558
G01 X25.6106 Y12.6894
G01 X25.6442 Y12.7265
G01 X25.6740 Y12.7667
G01 X25.6998 Y12.8096
G01 X25.7212 Y12.8548
G01 X25.7380 Y12.9020
G01 X25.7502 Y12.9505
G01 X25.7575 Y13.0000
G01 X25.7600 Y13.0500
G01 X25.7600 Y17.0500
G01 X25.7575 Y17.1000
G01 X25.7502 Y17.1495
G01 X25.7380 Y17.1980
G01 X25.7212 Y17.2452
G01 X25.6998 Y17.2904
G01 X25.6740 Y17.3333
G01 X25.6442 Y17.3735
G01 X25.6106 Y17.4106
G01 X25.5735 Y17.4442
G01 X25.5333 Y17.4740
G01 X25.4904 Y17.4998
G01 X25.4452 Y17.5212
G01 X25.3980 Y17.5380
G01 X25.3495 Y17.5502
G01 X25.3000 Y17.5575
G01 X25.2500 Y17.5600
G01 X22.7500 Y17.5600
G01 X22.7000 Y17.5575
G01 X22.6505 Y17.5502
G01 X22.6020 Y17.5380
G01 X22.5548 Y17.5212
G01 X22.5096 Y17.4998
G01 X22.4667 Y17.4740
G01 X22.4265 Y17.4442
G01 X22.3894 Y17.4106
G01 X22.3558 Y17.3735
G01 X22.3260 Y17.3333
G01 X22.3002 Y17.2904
G01 X22.2788 Y17.2452
G01 X22.2620 Y17.1980
G01 X22.2498 Y17.1495
G01 X22.2425 Y17.1000
G01 X22.2400 Y17.0500
G01 X22.2400 Y16.0352
G01 X20.4990 Y16.0103
G01 X18.9100 Y16.0300
G01 X18.9100 Y17.3000
G01 X18.9075 Y17.3500
G01 X18.9002 Y17.3995
G01 X18.8880 Y17.4480
G01 X18.8712 Y17.4952
G01 X18.8498 Y17.5404
G01 X18.8240 Y17.5833
G01 X18.7942 Y17.6235
G01 X18.7606 Y17.6606
G01 X18.7235 Y17.6942
G01 X18.6833 Y17.7240
G01 X18.6404 Y17.7498
G01 X18.5952 Y17.7712
G01 X18.5480 Y17.7880
G01 X18.4995 Y17.8002
G01 X18.4500 Y17.8075
G01 X18.4000 Y17.8100
G01 X12.6000 Y17.8100
G01 X12.5500 Y17.8075
G01 X12.5005 Y17.8002
G01 X12.4520 Y17.7880
G01 X12.4048 Y17.7712
G01 X12.3596 Y17.7498
G01 X12.3167 Y17.7240
G01 X12.2765 Y17.6942
G01 X12.2394 Y17.6606
G01 X12.2058 Y17.6235
G01 X12.1760 Y17.5833
G01 X12.1502 Y17.5404
G01 X12.1288 Y17.4952
G01 X12.1120 Y17.4480
G01 X12.0998 Y17.3995
G01 X12.0925 Y17.3500
G01 X12.0900 Y17.3000
G01 X12.0900 Y10.9000
G01 X12.0925 Y10.8500
G01 X12.0998 Y10.8005
G01 X12.1120 Y10.7520
G01 X12.1288 Y10.7048
G01 X12.1502 Y10.6596
G01 X12.1760 Y10.6167
G01 X12.2058 Y10.5765
G01 X12.2394 Y10.5394
G01 X12.2765 Y10.5058
G01 X12.3167 Y10.4760
G01 X12.3596 Y10.4502
G01 X12.4048 Y10.4288
G01 X12.4520 Y10.4120
G01 X12.5005 Y10.3998
G01 X12.5500 Y10.3925
G01 X12.6000 Y10.3900
G01 X18.4000 Y10.3900
G01 X18.4500 Y10.3925
G01 X18.4995 Y10.3998
G01 X18.5480 Y10.4120
G01 X18.5952 Y10.4288
G01 X18.6404 Y10.4502
G01 X18.6833 Y10.4760
G01 X18.7235 Y10.5058
G01 X18.7606 Y10.5394
G01 X18.7942 Y10.5765
G01 X18.8240 Y10.6167
G01 X18.8498 Y10.6596
G01 X18.8712 Y10.7048
G01 X18.8880 Y10.7520
G01 X18.9002 Y10.8005
G01 X18.9075 Y10.8500
G01 X18.9100 Y10.9000
G01 X18.9100 Y14.0093
G01 X19.4897 Y14.0021
G01 X19.4897 Y6.0000
G01 X19.4904 Y5.9750
G01 X19.4928 Y5.9259
G01 X19.4977 Y5.8761
G01 X19.5049 Y5.8276
G01 X19.5146 Y5.7785
G01 X19.5266 Y5.7309
G01 X19.5411 Y5.6830
G01 X19.5576 Y5.6367
G01 X19.5768 Y5.5905
G01 X19.5978 Y5.5461
G01 X19.6214 Y5.5020
G01 X19.6466 Y5.4599
G01 X19.6744 Y5.4183
G01 X19.7037 Y5.3788
G01 X19.7354 Y5.3401
G01 X19.7684 Y5.3038
G01 X19.7856 Y5.2856
G01 X21.4900 Y3.5813
G01 X21.4900 Y2.2500
G01 X21.4907 Y2.2353
G01 X19.9002 Y2.2353
G01 X19.9002 Y2.6500
G01 X19.8996 Y2.6750
G01 X19.8972 Y2.7241
G01 X19.8923 Y2.7739
G01 X19.8851 Y2.8224
G01 X19.8754 Y2.8715
G01 X19.8634 Y2.9191
G01 X19.8489 Y2.9670
G01 X19.8324 Y3.0133
G01 X19.8132 Y3.0595
G01 X19.7922 Y3.1039
G01 X19.7686 Y3.1480
G01 X19.7434 Y3.1901
G01 X19.7156 Y3.2317
G01 X19.6863 Y3.2712
G01 X19.6546 Y3.3099
G01 X19.6216 Y3.3462
G01 X19.6044 Y3.3644
G01 X19.5500 Y3.4187
G01 X19.5500 Y3.7500
G01 X19.5494 Y3.7750
G01 X19.5446 Y3.8730
G01 X19.5397 Y3.9228
G01 X19.5253 Y4.0199
G01 X19.5155 Y4.0690
G01 X19.4917 Y4.1642
G01 X19.4771 Y4.2121
G01 X19.4441 Y4.3045
G01 X19.4249 Y4.3507
G01 X19.3830 Y4.4394
G01 X19.3594 Y4.4836
G01 X19.3089 Y4.5678
G01 X19.2811 Y4.6094
G01 X19.2226 Y4.6882
G01 X19.1909 Y4.7269
G01 X19.1250 Y4.7996
G01 X19.0896 Y4.8350
G01 X19.0169 Y4.9009
G01 X18.9782 Y4.9326
G01 X18.8994 Y4.9911
G01 X18.8578 Y5.0189
G01 X18.7736 Y5.0694
G01 X18.7294 Y5.0930
G01 X18.6407 Y5.1349
G01 X18.5945 Y5.1541
G01 X18.5021 Y5.1871
G01 X18.4542 Y5.2017
G01 X18.3590 Y5.2255
G01 X18.3099 Y5.2353
G01 X18.2128 Y5.2497
G01 X18.1630 Y5.2546
G01 X18.0650 Y5.2594
G01 X18.0150 Y5.2594
G01 X17.9170 Y5.2546
G01 X17.8672 Y5.2497
G01 X17.7701 Y5.2353
G01 X17.7210 Y5.2255
G01 X17.6258 Y5.2017
G01 X17.5779 Y5.1871
G01 X17.4855 Y5.1541
G01 X17.4393 Y5.1349
G01 X17.3506 Y5.0930
G01 X17.3064 Y5.0694
G01 X17.2222 Y5.0189
G01 X17.1806 Y4.9911
G01 X17.1018 Y4.9326
G01 X17.0631 Y4.9009
G01 X17.0009 Y4.8445
G01 X17.0002 Y4.8495
G01 X16.9880 Y4.8980
G01 X16.9712 Y4.9452
G01 X16.9498 Y4.9904
G01 X16.9240 Y5.0333
G01 X16.8942 Y5.0735
G01 X16.8606 Y5.1106
G01 X16.8235 Y5.1442
G01 X16.7833 Y5.1740
G01 X16.7404 Y5.1998
G01 X16.6952 Y5.2212
G01 X16.6480 Y5.2380
G01 X16.5995 Y5.2502
G01 X16.5500 Y5.2575
G01 X16.5103 Y5.2595
G01 X16.5103 Y6.7015
G01 X16.5985 Y6.7897
G01 X16.6700 Y6.7897
G01 X16.6700 Y6.7000
G01 X16.6725 Y6.6500
G01 X16.6798 Y6.6005
G01 X16.6920 Y6.5520
G01 X16.7088 Y6.5048
G01 X16.7302 Y6.4596
G01 X16.7560 Y6.4167
G01 X16.7858 Y6.3765
G01 X16.8194 Y6.3394
G01 X16.8565 Y6.3058
G01 X16.8967 Y6.2760
G01 X16.9396 Y6.2502
G01 X16.9848 Y6.2288
G01 X17.0320 Y6.2120
G01 X17.0805 Y6.1998
G01 X17.1300 Y6.1925
G01 X17.1800 Y6.1900
G01 X18.3800 Y6.1900
G01 X18.4300 Y6.1925
G01 X18.4795 Y6.1998
G01 X18.5280 Y6.2120
G01 X18.5752 Y6.2288
G01 X18.6204 Y6.2502
G01 X18.6633 Y6.2760
G01 X18.7035 Y6.3058
G01 X18.7406 Y6.3394
G01 X18.7742 Y6.3765
G01 X18.8040 Y6.4167
G01 X18.8298 Y6.4596
G01 X18.8512 Y6.5048
G01 X18.8680 Y6.5520
G01 X18.8802 Y6.6005
G01 X18.8875 Y6.6500
G01 X18.8900 Y6.7000
G01 X18.8900 Y8.9000
G01 X18.8875 Y8.9500
G01 X18.8802 Y8.9995
G01 X18.8680 Y9.0480
G01 X18.8512 Y9.0952
G01 X18.8298 Y9.1404
G01 X18.8040 Y9.1833
G01 X18.7742 Y9.2235
G01 X18.7406 Y9.2606
G01 X18.7035 Y9.2942
G01 X18.6633 Y9.3240
G01 X18.6204 Y9.3498
G01 X18.5752 Y9.3712
G01 X18.5280 Y9.3880
G01 X18.4795 Y9.4002
G01 X18.4300 Y9.4075
G01 X18.3800 Y9.4100
G01 X17.1800 Y9.4100
G01 X17.1300 Y9.4075
G01 X17.0805 Y9.4002
G01 X17.0320 Y9.3880
G01 X16.9848 Y9.3712
G01 X16.9396 Y9.3498
G01 X16.8967 Y9.3240
G01 X16.8565 Y9.2942
G01 X16.8194 Y9.2606
G01 X16.7858 Y9.2235
G01 X16.7560 Y9.1833
G01 X16.7302 Y9.1404
G01 X16.7088 Y9.0952
G01 X16.6920 Y9.0480
G01 X16.6798 Y8.9995
G01 X16.6725 Y8.9500
G01 X16.6700 Y8.9000
G01 X16.6700 Y8.8103
G01 X16.1800 Y8.8103
G01 X16.1550 Y8.8096
G01 X16.1059 Y8.8072
G01 X16.0561 Y8.8023
G01 X16.0076 Y8.7951
G01 X15.9585 Y8.7854
G01 X15.9109 Y8.7734
G01 X15.8630 Y8.7589
G01 X15.8167 Y8.7424
G01 X15.7705 Y8.7232
G01 X15.7261 Y8.7022
G01 X15.6820 Y8.6786
G01 X15.6399 Y8.6534
G01 X15.5983 Y8.6256
G01 X15.5588 Y8.5963
G01 X15.5201 Y8.5646
G01 X15.4838 Y8.5316
G01 X15.4656 Y8.5144
G01 X14.7856 Y7.8344
G01 X14.7684 Y7.8162
G01 X14.7354 Y7.7799
G01 X14.7037 Y7.7412
G01 X14.6744 Y7.7017
G01 X14.6466 Y7.6601
G01 X14.6214 Y7.6180
G01 X14.5978 Y7.5739
G01 X14.5768 Y7.5295
G01 X14.5576 Y7.4833
G01 X14.5411 Y7.4370
G01 X14.5266 Y7.3891
G01 X14.5146 Y7.3415
G01 X14.5049 Y7.2924
G01 X14.4977 Y7.2439
G01 X14.4928 Y7.1941
G01 X14.4904 Y7.1450
G01 X14.4897 Y7.1200
G01 X14.4897 Y5.5103
G01 X10.5103 Y5.5103
G01 X10.5103 Y8.0000
G01 X10.5096 Y8.0250
G01 X10.5072 Y8.0741
G01 X10.5023 Y8.1239
G01 X10.4951 Y8.1724
G01 X10.4854 Y8.2215
G01 X10.4734 Y8.2691
G01 X10.4589 Y8.3170
G01 X10.4424 Y8.3633
G01 X10.4232 Y8.4095
G01 X10.4022 Y8.4539
G01 X10.3786 Y8.4980
G01 X10.3534 Y8.5401
G01 X10.3256 Y8.5817
G01 X10.2963 Y8.6212
G01 X10.2646 Y8.6599
G01 X10.2316 Y8.6962
G01 X10.2144 Y8.7144
G01 X9.4781 Y9.4507
G01 X9.4734 Y9.4691
G01 X9.4589 Y9.5170
G01 X9.4424 Y9.5633
G01 X9.4232 Y9.6095
G01 X9.4022 Y9.6539
G01 X9.3848 Y9.6865
G00 Z2.0000
M05
G00 Z2.0000
G00 Z4.00
G00 X0.0 Y0.0

