(G-CODE GENERATED BY FLATCAM v8.991 - www.flatcam.org - Version Date: 2019/12/27)

(Name: 1)
(Type: G-code from Geometry)
(Units: MM)

(Created on Tuesday, 14 April 2020 at 12:46)

(TOOL DIAMETER: 0.3 mm)
(Feedrate: 120.0 mm/min)
(Feedrate_Z: 60.0 mm/min)
(Feedrate rapids 1500.0 mm/min)

(Z_Cut: -0.15 mm)
(Z_Move: 2.0 mm)
(Z Toolchange: 15.0 mm)
(X,Y Toolchange: 0.0000, 0.0000 mm)
(Z Start: None mm)
(Z End: 4.0 mm)
(Steps per circle: 64)
(Preprocessor Geometry: default)

(X range:    3.2502 ...  126.5498  mm)
(Y range:    1.4302 ...   62.4498  mm)

(Spindle Speed: None RPM)
G21
G90
G94




G01 F120.00
G00 Z2.0000

M03
G00 X7.5387 Y5.0820
G01 F60.00
G01 Z-0.1500
G01 F120.00
G01 X7.5402 Y5.0966
G01 X7.5498 Y5.2926
G01 X7.5498 Y5.3074
G01 X7.5402 Y5.5034
G01 X7.5387 Y5.5180
G01 X7.5099 Y5.7122
G01 X7.5071 Y5.7266
G01 X7.4594 Y5.9170
G01 X7.4551 Y5.9311
G01 X7.3890 Y6.1159
G01 X7.3834 Y6.1295
G01 X7.2994 Y6.3069
G01 X7.2925 Y6.3199
G01 X7.1916 Y6.4883
G01 X7.1834 Y6.5005
G01 X7.0665 Y6.6581
G01 X7.0572 Y6.6695
G01 X6.9254 Y6.8149
G01 X6.9149 Y6.8254
G01 X6.7695 Y6.9572
G01 X6.7581 Y6.9665
G01 X6.6005 Y7.0834
G01 X6.5883 Y7.0916
G01 X6.4199 Y7.1925
G01 X6.4069 Y7.1994
G01 X6.2295 Y7.2834
G01 X6.2159 Y7.2890
G01 X6.0311 Y7.3551
G01 X6.0170 Y7.3594
G01 X5.8266 Y7.4071
G01 X5.8122 Y7.4099
G01 X5.6180 Y7.4387
G01 X5.6034 Y7.4402
G01 X5.4074 Y7.4498
G01 X5.3926 Y7.4498
G01 X5.1966 Y7.4402
G01 X5.1820 Y7.4387
G01 X4.9878 Y7.4099
G01 X4.9734 Y7.4071
G01 X4.7830 Y7.3594
G01 X4.7689 Y7.3551
G01 X4.5841 Y7.2890
G01 X4.5705 Y7.2834
G01 X4.3931 Y7.1994
G01 X4.3801 Y7.1925
G01 X4.2117 Y7.0916
G01 X4.1995 Y7.0834
G01 X4.0419 Y6.9665
G01 X4.0305 Y6.9572
G01 X3.8851 Y6.8254
G01 X3.8746 Y6.8149
G01 X3.7428 Y6.6695
G01 X3.7335 Y6.6581
G01 X3.6166 Y6.5005
G01 X3.6084 Y6.4883
G01 X3.5075 Y6.3199
G01 X3.5006 Y6.3069
G01 X3.4166 Y6.1295
G01 X3.4110 Y6.1159
G01 X3.3449 Y5.9311
G01 X3.3406 Y5.9170
G01 X3.2929 Y5.7266
G01 X3.2901 Y5.7122
G01 X3.2613 Y5.5180
G01 X3.2598 Y5.5034
G01 X3.2502 Y5.3074
G01 X3.2502 Y5.2926
G01 X3.2598 Y5.0966
G01 X3.2613 Y5.0820
G01 X3.2901 Y4.8878
G01 X3.2929 Y4.8734
G01 X3.3406 Y4.6830
G01 X3.3449 Y4.6689
G01 X3.4110 Y4.4841
G01 X3.4166 Y4.4705
G01 X3.5006 Y4.2931
G01 X3.5075 Y4.2801
G01 X3.6084 Y4.1117
G01 X3.6166 Y4.0995
G01 X3.7335 Y3.9419
G01 X3.7428 Y3.9305
G01 X3.8746 Y3.7851
G01 X3.8851 Y3.7746
G01 X4.0305 Y3.6428
G01 X4.0419 Y3.6335
G01 X4.1995 Y3.5166
G01 X4.2117 Y3.5084
G01 X4.3801 Y3.4075
G01 X4.3931 Y3.4006
G01 X4.5705 Y3.3166
G01 X4.5841 Y3.3110
G01 X4.7689 Y3.2449
G01 X4.7830 Y3.2406
G01 X4.9734 Y3.1929
G01 X4.9878 Y3.1901
G01 X5.1820 Y3.1613
G01 X5.1966 Y3.1598
G01 X5.3926 Y3.1502
G01 X5.4074 Y3.1502
G01 X5.6034 Y3.1598
G01 X5.6180 Y3.1613
G01 X5.8122 Y3.1901
G01 X5.8266 Y3.1929
G01 X6.0170 Y3.2406
G01 X6.0311 Y3.2449
G01 X6.2159 Y3.3110
G01 X6.2295 Y3.3166
G01 X6.4069 Y3.4006
G01 X6.4199 Y3.4075
G01 X6.5883 Y3.5084
G01 X6.6005 Y3.5166
G01 X6.7581 Y3.6335
G01 X6.7695 Y3.6428
G01 X6.9149 Y3.7746
G01 X6.9254 Y3.7851
G01 X7.0572 Y3.9305
G01 X7.0665 Y3.9419
G01 X7.1834 Y4.0995
G01 X7.1916 Y4.1117
G01 X7.2925 Y4.2801
G01 X7.2994 Y4.2931
G01 X7.3834 Y4.4705
G01 X7.3890 Y4.4841
G01 X7.4551 Y4.6689
G01 X7.4594 Y4.6830
G01 X7.5071 Y4.8734
G01 X7.5099 Y4.8878
G01 X7.5387 Y5.0820
G00 Z2.0000
G00 X19.7650 Y13.7586
G01 F60.00
G01 Z-0.1500
G01 F120.00
G01 X19.7551 Y13.7520
G01 X19.6763 Y13.6935
G01 X19.6649 Y13.6842
G01 X19.5922 Y13.6182
G01 X19.5818 Y13.6078
G01 X19.5158 Y13.5351
G01 X19.5065 Y13.5237
G01 X19.4480 Y13.4449
G01 X19.4399 Y13.4327
G01 X19.3894 Y13.3485
G01 X19.3825 Y13.3355
G01 X19.3405 Y13.2468
G01 X19.3349 Y13.2332
G01 X19.3018 Y13.1408
G01 X19.2976 Y13.1267
G01 X19.2737 Y13.0315
G01 X19.2708 Y13.0171
G01 X19.2564 Y12.9200
G01 X19.2550 Y12.9054
G01 X19.2502 Y12.8074
G01 X19.2502 Y12.7926
G01 X19.2550 Y12.6946
G01 X19.2564 Y12.6800
G01 X19.2708 Y12.5829
G01 X19.2737 Y12.5685
G01 X19.2976 Y12.4733
G01 X19.3018 Y12.4592
G01 X19.3349 Y12.3668
G01 X19.3405 Y12.3532
G01 X19.3825 Y12.2645
G01 X19.3894 Y12.2515
G01 X19.4399 Y12.1673
G01 X19.4480 Y12.1551
G01 X19.5065 Y12.0763
G01 X19.5158 Y12.0649
G01 X19.5818 Y11.9922
G01 X19.5922 Y11.9818
G01 X19.6649 Y11.9158
G01 X19.6763 Y11.9065
G01 X19.7551 Y11.8480
G01 X19.7673 Y11.8399
G01 X19.8515 Y11.7894
G01 X19.8645 Y11.7825
G01 X19.9532 Y11.7405
G01 X19.9668 Y11.7349
G01 X20.0592 Y11.7018
G01 X20.0733 Y11.6976
G01 X20.1685 Y11.6737
G01 X20.1829 Y11.6708
G01 X20.2800 Y11.6564
G01 X20.2946 Y11.6550
G01 X20.3926 Y11.6502
G01 X20.4074 Y11.6502
G01 X20.5054 Y11.6550
G01 X20.5200 Y11.6564
G01 X20.6171 Y11.6708
G01 X20.6315 Y11.6737
G01 X20.7267 Y11.6976
G01 X20.7408 Y11.7018
G01 X20.8332 Y11.7349
G01 X20.8468 Y11.7405
G01 X20.9355 Y11.7825
G01 X20.9485 Y11.7894
G01 X21.0327 Y11.8399
G01 X21.0449 Y11.8480
G01 X21.1237 Y11.9065
G01 X21.1351 Y11.9158
G01 X21.2078 Y11.9818
G01 X21.2182 Y11.9922
G01 X21.2842 Y12.0649
G01 X21.2935 Y12.0763
G01 X21.3520 Y12.1551
G01 X21.3601 Y12.1673
G01 X21.4106 Y12.2515
G01 X21.4175 Y12.2645
G01 X21.4595 Y12.3532
G01 X21.4651 Y12.3668
G01 X21.4982 Y12.4592
G01 X21.5024 Y12.4733
G01 X21.5263 Y12.5685
G01 X21.5292 Y12.5829
G01 X21.5436 Y12.6800
G01 X21.5450 Y12.6946
G01 X21.5498 Y12.7926
G01 X21.5498 Y12.8074
G01 X21.5450 Y12.9054
G01 X21.5436 Y12.9200
G01 X21.5292 Y13.0171
G01 X21.5263 Y13.0315
G01 X21.5024 Y13.1267
G01 X21.4982 Y13.1408
G01 X21.4651 Y13.2332
G01 X21.4595 Y13.2468
G01 X21.4175 Y13.3355
G01 X21.4106 Y13.3485
G01 X21.3601 Y13.4327
G01 X21.3520 Y13.4449
G01 X21.2935 Y13.5237
G01 X21.2842 Y13.5351
G01 X21.2607 Y13.5611
G01 X21.5798 Y13.8802
G01 X21.6178 Y13.9219
G01 X21.6272 Y13.9333
G01 X21.6564 Y13.9727
G01 X21.6646 Y13.9850
G01 X21.6898 Y14.0271
G01 X21.6968 Y14.0401
G01 X21.7178 Y14.0844
G01 X21.7234 Y14.0980
G01 X21.7399 Y14.1443
G01 X21.7442 Y14.1583
G01 X21.7561 Y14.2060
G01 X21.7590 Y14.2204
G01 X21.7662 Y14.2690
G01 X21.7677 Y14.2836
G01 X21.7701 Y14.3326
G01 X21.7703 Y15.3920
G01 X21.8437 Y15.4465
G01 X21.8551 Y15.4558
G01 X21.9278 Y15.5218
G01 X21.9382 Y15.5322
G01 X22.0042 Y15.6049
G01 X22.0135 Y15.6163
G01 X22.0720 Y15.6951
G01 X22.0801 Y15.7073
G01 X22.1306 Y15.7915
G01 X22.1375 Y15.8045
G01 X22.1795 Y15.8932
G01 X22.1851 Y15.9068
G01 X22.2182 Y15.9992
G01 X22.2224 Y16.0133
G01 X22.2463 Y16.1085
G01 X22.2492 Y16.1229
G01 X22.2636 Y16.2200
G01 X22.2650 Y16.2346
G01 X22.2700 Y16.3400
G01 X22.2698 Y17.3474
G01 X22.2650 Y17.4454
G01 X22.2636 Y17.4600
G01 X22.2492 Y17.5571
G01 X22.2463 Y17.5715
G01 X22.2224 Y17.6667
G01 X22.2182 Y17.6808
G01 X22.1851 Y17.7732
G01 X22.1795 Y17.7868
G01 X22.1375 Y17.8755
G01 X22.1306 Y17.8885
G01 X22.0801 Y17.9727
G01 X22.0720 Y17.9849
G01 X22.0135 Y18.0637
G01 X22.0042 Y18.0751
G01 X21.9382 Y18.1478
G01 X21.9278 Y18.1582
G01 X21.8551 Y18.2242
G01 X21.8437 Y18.2335
G01 X21.7649 Y18.2920
G01 X21.7527 Y18.3001
G01 X21.6685 Y18.3506
G01 X21.6555 Y18.3575
G01 X21.5668 Y18.3995
G01 X21.5532 Y18.4051
G01 X21.4608 Y18.4382
G01 X21.4467 Y18.4424
G01 X21.3515 Y18.4663
G01 X21.3371 Y18.4692
G01 X21.2400 Y18.4836
G01 X21.2254 Y18.4850
G01 X21.1274 Y18.4898
G01 X21.1126 Y18.4898
G01 X21.0146 Y18.4850
G01 X21.0000 Y18.4836
G01 X20.9029 Y18.4692
G01 X20.8885 Y18.4663
G01 X20.7933 Y18.4424
G01 X20.7792 Y18.4382
G01 X20.6868 Y18.4051
G01 X20.6732 Y18.3995
G01 X20.5845 Y18.3575
G01 X20.5715 Y18.3506
G01 X20.4873 Y18.3001
G01 X20.4751 Y18.2920
G01 X20.3963 Y18.2335
G01 X20.3849 Y18.2242
G01 X20.3122 Y18.1582
G01 X20.3018 Y18.1478
G01 X20.2358 Y18.0751
G01 X20.2265 Y18.0637
G01 X20.1680 Y17.9849
G01 X20.1599 Y17.9727
G01 X20.1094 Y17.8885
G01 X20.1025 Y17.8755
G01 X20.0605 Y17.7868
G01 X20.0549 Y17.7732
G01 X20.0218 Y17.6808
G01 X20.0176 Y17.6667
G01 X19.9937 Y17.5715
G01 X19.9908 Y17.5571
G01 X19.9764 Y17.4600
G01 X19.9750 Y17.4454
G01 X19.9700 Y17.3400
G01 X19.9700 Y16.3400
G01 X19.9750 Y16.2346
G01 X19.9764 Y16.2200
G01 X19.9908 Y16.1229
G01 X19.9937 Y16.1085
G01 X20.0176 Y16.0133
G01 X20.0218 Y15.9992
G01 X20.0549 Y15.9068
G01 X20.0605 Y15.8932
G01 X20.1025 Y15.8045
G01 X20.1094 Y15.7915
G01 X20.1599 Y15.7073
G01 X20.1680 Y15.6951
G01 X20.2265 Y15.6163
G01 X20.2358 Y15.6049
G01 X20.3018 Y15.5322
G01 X20.3122 Y15.5218
G01 X20.3849 Y15.4558
G01 X20.3963 Y15.4465
G01 X20.4697 Y15.3920
G01 X20.4697 Y14.6093
G01 X19.9402 Y14.0798
G01 X19.9022 Y14.0381
G01 X19.8928 Y14.0267
G01 X19.8636 Y13.9873
G01 X19.8554 Y13.9750
G01 X19.8302 Y13.9329
G01 X19.8232 Y13.9199
G01 X19.8022 Y13.8756
G01 X19.7966 Y13.8620
G01 X19.7801 Y13.8157
G01 X19.7758 Y13.8017
G01 X19.7650 Y13.7586
G00 Z2.0000
G00 X23.0097 Y15.3920
G01 F60.00
G01 Z-0.1500
G01 F120.00
G01 X23.0097 Y14.6093
G01 X22.9402 Y14.5398
G01 X22.9022 Y14.4981
G01 X22.8928 Y14.4867
G01 X22.8636 Y14.4473
G01 X22.8554 Y14.4350
G01 X22.8302 Y14.3929
G01 X22.8232 Y14.3799
G01 X22.8022 Y14.3356
G01 X22.7966 Y14.3220
G01 X22.7801 Y14.2757
G01 X22.7758 Y14.2617
G01 X22.7639 Y14.2140
G01 X22.7610 Y14.1996
G01 X22.7538 Y14.1510
G01 X22.7523 Y14.1364
G01 X22.7499 Y14.0874
G01 X22.7497 Y7.3000
G01 X22.7523 Y7.2436
G01 X22.7538 Y7.2290
G01 X22.7610 Y7.1804
G01 X22.7639 Y7.1660
G01 X22.7758 Y7.1183
G01 X22.7801 Y7.1043
G01 X22.7966 Y7.0580
G01 X22.8022 Y7.0444
G01 X22.8232 Y7.0001
G01 X22.8302 Y6.9871
G01 X22.8554 Y6.9450
G01 X22.8636 Y6.9327
G01 X22.8928 Y6.8933
G01 X22.9022 Y6.8819
G01 X22.9402 Y6.8402
G01 X23.2699 Y6.5105
G01 X23.2564 Y6.4200
G01 X23.2550 Y6.4054
G01 X23.2502 Y6.3074
G01 X23.2502 Y6.2926
G01 X23.2550 Y6.1946
G01 X23.2564 Y6.1800
G01 X23.2708 Y6.0829
G01 X23.2737 Y6.0685
G01 X23.2976 Y5.9733
G01 X23.3018 Y5.9592
G01 X23.3349 Y5.8668
G01 X23.3405 Y5.8532
G01 X23.3825 Y5.7645
G01 X23.3894 Y5.7515
G01 X23.4399 Y5.6673
G01 X23.4480 Y5.6551
G01 X23.5065 Y5.5763
G01 X23.5158 Y5.5649
G01 X23.5818 Y5.4922
G01 X23.5922 Y5.4818
G01 X23.6649 Y5.4158
G01 X23.6763 Y5.4065
G01 X23.7551 Y5.3480
G01 X23.7673 Y5.3399
G01 X23.8515 Y5.2894
G01 X23.8645 Y5.2825
G01 X23.9532 Y5.2405
G01 X23.9668 Y5.2349
G01 X24.0592 Y5.2018
G01 X24.0733 Y5.1976
G01 X24.1685 Y5.1737
G01 X24.1829 Y5.1708
G01 X24.2800 Y5.1564
G01 X24.2946 Y5.1550
G01 X24.3926 Y5.1502
G01 X24.4074 Y5.1502
G01 X24.5054 Y5.1550
G01 X24.5200 Y5.1564
G01 X24.6171 Y5.1708
G01 X24.6315 Y5.1737
G01 X24.7267 Y5.1976
G01 X24.7408 Y5.2018
G01 X24.8332 Y5.2349
G01 X24.8468 Y5.2405
G01 X24.9355 Y5.2825
G01 X24.9485 Y5.2894
G01 X25.0327 Y5.3399
G01 X25.0449 Y5.3480
G01 X25.1237 Y5.4065
G01 X25.1351 Y5.4158
G01 X25.2078 Y5.4818
G01 X25.2182 Y5.4922
G01 X25.2842 Y5.5649
G01 X25.2935 Y5.5763
G01 X25.3520 Y5.6551
G01 X25.3601 Y5.6673
G01 X25.4106 Y5.7515
G01 X25.4175 Y5.7645
G01 X25.4595 Y5.8532
G01 X25.4651 Y5.8668
G01 X25.4982 Y5.9592
G01 X25.5024 Y5.9733
G01 X25.5263 Y6.0685
G01 X25.5292 Y6.0829
G01 X25.5436 Y6.1800
G01 X25.5450 Y6.1946
G01 X25.5498 Y6.2926
G01 X25.5498 Y6.3074
G01 X25.5450 Y6.4054
G01 X25.5436 Y6.4200
G01 X25.5292 Y6.5171
G01 X25.5263 Y6.5315
G01 X25.5024 Y6.6267
G01 X25.4982 Y6.6408
G01 X25.4651 Y6.7332
G01 X25.4595 Y6.7468
G01 X25.4175 Y6.8355
G01 X25.4106 Y6.8485
G01 X25.3601 Y6.9327
G01 X25.3520 Y6.9449
G01 X25.2935 Y7.0237
G01 X25.2842 Y7.0351
G01 X25.2182 Y7.1078
G01 X25.2078 Y7.1182
G01 X25.1351 Y7.1842
G01 X25.1237 Y7.1935
G01 X25.0449 Y7.2520
G01 X25.0327 Y7.2601
G01 X24.9485 Y7.3106
G01 X24.9355 Y7.3175
G01 X24.8468 Y7.3595
G01 X24.8332 Y7.3651
G01 X24.7408 Y7.3982
G01 X24.7267 Y7.4024
G01 X24.6315 Y7.4263
G01 X24.6171 Y7.4292
G01 X24.5200 Y7.4436
G01 X24.5054 Y7.4450
G01 X24.4074 Y7.4498
G01 X24.3926 Y7.4498
G01 X24.2946 Y7.4450
G01 X24.2800 Y7.4436
G01 X24.1895 Y7.4301
G01 X24.0503 Y7.5693
G01 X24.0503 Y13.8107
G01 X24.1198 Y13.8802
G01 X24.1578 Y13.9219
G01 X24.1672 Y13.9333
G01 X24.1964 Y13.9727
G01 X24.2046 Y13.9850
G01 X24.2298 Y14.0271
G01 X24.2368 Y14.0401
G01 X24.2578 Y14.0844
G01 X24.2634 Y14.0980
G01 X24.2799 Y14.1443
G01 X24.2842 Y14.1583
G01 X24.2961 Y14.2060
G01 X24.2990 Y14.2204
G01 X24.3062 Y14.2690
G01 X24.3077 Y14.2836
G01 X24.3103 Y14.3400
G01 X24.3103 Y15.3920
G01 X24.3837 Y15.4465
G01 X24.3951 Y15.4558
G01 X24.4678 Y15.5218
G01 X24.4782 Y15.5322
G01 X24.5442 Y15.6049
G01 X24.5535 Y15.6163
G01 X24.6120 Y15.6951
G01 X24.6201 Y15.7073
G01 X24.6706 Y15.7915
G01 X24.6775 Y15.8045
G01 X24.7195 Y15.8932
G01 X24.7251 Y15.9068
G01 X24.7582 Y15.9992
G01 X24.7624 Y16.0133
G01 X24.7863 Y16.1085
G01 X24.7892 Y16.1229
G01 X24.8036 Y16.2200
G01 X24.8050 Y16.2346
G01 X24.8100 Y16.3400
G01 X24.8100 Y17.3400
G01 X24.8050 Y17.4454
G01 X24.8036 Y17.4600
G01 X24.7892 Y17.5571
G01 X24.7863 Y17.5715
G01 X24.7624 Y17.6667
G01 X24.7582 Y17.6808
G01 X24.7251 Y17.7732
G01 X24.7195 Y17.7868
G01 X24.6775 Y17.8755
G01 X24.6706 Y17.8885
G01 X24.6201 Y17.9727
G01 X24.6120 Y17.9849
G01 X24.5535 Y18.0637
G01 X24.5442 Y18.0751
G01 X24.4782 Y18.1478
G01 X24.4678 Y18.1582
G01 X24.3951 Y18.2242
G01 X24.3837 Y18.2335
G01 X24.3049 Y18.2920
G01 X24.2927 Y18.3001
G01 X24.2085 Y18.3506
G01 X24.1955 Y18.3575
G01 X24.1068 Y18.3995
G01 X24.0932 Y18.4051
G01 X24.0008 Y18.4382
G01 X23.9867 Y18.4424
G01 X23.8915 Y18.4663
G01 X23.8771 Y18.4692
G01 X23.7800 Y18.4836
G01 X23.7654 Y18.4850
G01 X23.6674 Y18.4898
G01 X23.6526 Y18.4898
G01 X23.5546 Y18.4850
G01 X23.5400 Y18.4836
G01 X23.4429 Y18.4692
G01 X23.4285 Y18.4663
G01 X23.3333 Y18.4424
G01 X23.3192 Y18.4382
G01 X23.2268 Y18.4051
G01 X23.2132 Y18.3995
G01 X23.1245 Y18.3575
G01 X23.1115 Y18.3506
G01 X23.0273 Y18.3001
G01 X23.0151 Y18.2920
G01 X22.9363 Y18.2335
G01 X22.9249 Y18.2242
G01 X22.8522 Y18.1582
G01 X22.8418 Y18.1478
G01 X22.7758 Y18.0751
G01 X22.7665 Y18.0637
G01 X22.7080 Y17.9849
G01 X22.6999 Y17.9727
G01 X22.6494 Y17.8885
G01 X22.6425 Y17.8755
G01 X22.6005 Y17.7868
G01 X22.5949 Y17.7732
G01 X22.5618 Y17.6808
G01 X22.5576 Y17.6667
G01 X22.5337 Y17.5715
G01 X22.5308 Y17.5571
G01 X22.5164 Y17.4600
G01 X22.5150 Y17.4454
G01 X22.5100 Y17.3400
G01 X22.5100 Y16.3400
G01 X22.5150 Y16.2346
G01 X22.5164 Y16.2200
G01 X22.5308 Y16.1229
G01 X22.5337 Y16.1085
G01 X22.5576 Y16.0133
G01 X22.5618 Y15.9992
G01 X22.5949 Y15.9068
G01 X22.6005 Y15.8932
G01 X22.6425 Y15.8045
G01 X22.6494 Y15.7915
G01 X22.6999 Y15.7073
G01 X22.7080 Y15.6951
G01 X22.7665 Y15.6163
G01 X22.7758 Y15.6049
G01 X22.8418 Y15.5322
G01 X22.8522 Y15.5218
G01 X22.9249 Y15.4558
G01 X22.9363 Y15.4465
G01 X23.0097 Y15.3920
G00 Z2.0000
G00 X18.5363 Y18.5329
G01 F60.00
G01 Z-0.1500
G01 F120.00
G01 X18.5378 Y18.5476
G01 X18.5498 Y18.7926
G01 X18.5498 Y18.8074
G01 X18.5378 Y19.0524
G01 X18.5363 Y19.0671
G01 X18.5003 Y19.3097
G01 X18.4975 Y19.3242
G01 X18.4379 Y19.5622
G01 X18.4336 Y19.5762
G01 X18.3509 Y19.8072
G01 X18.3453 Y19.8208
G01 X18.2404 Y20.0426
G01 X18.2335 Y20.0556
G01 X18.1073 Y20.2660
G01 X18.0992 Y20.2783
G01 X17.9530 Y20.4753
G01 X17.9437 Y20.4867
G01 X17.7789 Y20.6685
G01 X17.7685 Y20.6789
G01 X17.5867 Y20.8437
G01 X17.5753 Y20.8530
G01 X17.3783 Y20.9992
G01 X17.3660 Y21.0073
G01 X17.1556 Y21.1335
G01 X17.1426 Y21.1404
G01 X16.9208 Y21.2453
G01 X16.9072 Y21.2509
G01 X16.6762 Y21.3336
G01 X16.6622 Y21.3379
G01 X16.4242 Y21.3975
G01 X16.4097 Y21.4003
G01 X16.1671 Y21.4363
G01 X16.1524 Y21.4378
G01 X15.9074 Y21.4498
G01 X15.8926 Y21.4498
G01 X15.6476 Y21.4378
G01 X15.6329 Y21.4363
G01 X15.3903 Y21.4003
G01 X15.3758 Y21.3975
G01 X15.1378 Y21.3379
G01 X15.1238 Y21.3336
G01 X14.8928 Y21.2509
G01 X14.8792 Y21.2453
G01 X14.6574 Y21.1404
G01 X14.6444 Y21.1335
G01 X14.4340 Y21.0073
G01 X14.4217 Y20.9992
G01 X14.2247 Y20.8530
G01 X14.2133 Y20.8437
G01 X14.0315 Y20.6789
G01 X14.0211 Y20.6685
G01 X13.8563 Y20.4867
G01 X13.8470 Y20.4753
G01 X13.7008 Y20.2783
G01 X13.6927 Y20.2660
G01 X13.5665 Y20.0556
G01 X13.5596 Y20.0426
G01 X13.4547 Y19.8208
G01 X13.4491 Y19.8072
G01 X13.3664 Y19.5762
G01 X13.3621 Y19.5622
G01 X13.3025 Y19.3242
G01 X13.2997 Y19.3097
G01 X13.2637 Y19.0671
G01 X13.2622 Y19.0524
G01 X13.2502 Y18.8074
G01 X13.2502 Y18.7926
G01 X13.2622 Y18.5476
G01 X13.2637 Y18.5329
G01 X13.2997 Y18.2903
G01 X13.3025 Y18.2758
G01 X13.3621 Y18.0378
G01 X13.3664 Y18.0238
G01 X13.4491 Y17.7928
G01 X13.4547 Y17.7792
G01 X13.5596 Y17.5574
G01 X13.5665 Y17.5444
G01 X13.6927 Y17.3340
G01 X13.7008 Y17.3217
G01 X13.8470 Y17.1247
G01 X13.8563 Y17.1133
G01 X14.0211 Y16.9315
G01 X14.0315 Y16.9211
G01 X14.2133 Y16.7563
G01 X14.2247 Y16.7470
G01 X14.4217 Y16.6008
G01 X14.4340 Y16.5927
G01 X14.6444 Y16.4665
G01 X14.6574 Y16.4596
G01 X14.8792 Y16.3547
G01 X14.8928 Y16.3491
G01 X15.1238 Y16.2664
G01 X15.1378 Y16.2621
G01 X15.3758 Y16.2025
G01 X15.3903 Y16.1997
G01 X15.6329 Y16.1637
G01 X15.6476 Y16.1622
G01 X15.8926 Y16.1502
G01 X15.9074 Y16.1502
G01 X16.1524 Y16.1622
G01 X16.1671 Y16.1637
G01 X16.4097 Y16.1997
G01 X16.4242 Y16.2025
G01 X16.6622 Y16.2621
G01 X16.6762 Y16.2664
G01 X16.9072 Y16.3491
G01 X16.9208 Y16.3547
G01 X17.1426 Y16.4596
G01 X17.1556 Y16.4665
G01 X17.3660 Y16.5927
G01 X17.3783 Y16.6008
G01 X17.5753 Y16.7470
G01 X17.5867 Y16.7563
G01 X17.7685 Y16.9211
G01 X17.7789 Y16.9315
G01 X17.9437 Y17.1133
G01 X17.9530 Y17.1247
G01 X18.0992 Y17.3217
G01 X18.1073 Y17.3340
G01 X18.2335 Y17.5444
G01 X18.2404 Y17.5574
G01 X18.3453 Y17.7792
G01 X18.3509 Y17.7928
G01 X18.4336 Y18.0238
G01 X18.4379 Y18.0378
G01 X18.4975 Y18.2758
G01 X18.5003 Y18.2903
G01 X18.5363 Y18.5329
G00 Z2.0000
G00 X17.7669 Y24.1097
G01 F60.00
G01 Z-0.1500
G01 F120.00
G01 X17.7708 Y24.0829
G01 X17.7737 Y24.0685
G01 X17.7976 Y23.9733
G01 X17.8018 Y23.9592
G01 X17.8349 Y23.8668
G01 X17.8405 Y23.8532
G01 X17.8825 Y23.7645
G01 X17.8894 Y23.7515
G01 X17.9399 Y23.6673
G01 X17.9480 Y23.6551
G01 X18.0065 Y23.5763
G01 X18.0158 Y23.5649
G01 X18.0818 Y23.4922
G01 X18.0922 Y23.4818
G01 X18.1649 Y23.4158
G01 X18.1763 Y23.4065
G01 X18.2551 Y23.3480
G01 X18.2673 Y23.3399
G01 X18.3515 Y23.2894
G01 X18.3645 Y23.2825
G01 X18.4532 Y23.2405
G01 X18.4668 Y23.2349
G01 X18.5592 Y23.2018
G01 X18.5733 Y23.1976
G01 X18.6685 Y23.1737
G01 X18.6829 Y23.1708
G01 X18.7800 Y23.1564
G01 X18.7946 Y23.1550
G01 X18.8926 Y23.1502
G01 X18.9074 Y23.1502
G01 X19.0054 Y23.1550
G01 X19.0200 Y23.1564
G01 X19.1171 Y23.1708
G01 X19.1315 Y23.1737
G01 X19.2267 Y23.1976
G01 X19.2408 Y23.2018
G01 X19.3332 Y23.2349
G01 X19.3468 Y23.2405
G01 X19.4355 Y23.2825
G01 X19.4485 Y23.2894
G01 X19.5327 Y23.3399
G01 X19.5449 Y23.3480
G01 X19.6237 Y23.4065
G01 X19.6351 Y23.4158
G01 X19.7078 Y23.4818
G01 X19.7182 Y23.4922
G01 X19.7842 Y23.5649
G01 X19.7935 Y23.5763
G01 X19.8520 Y23.6551
G01 X19.8601 Y23.6673
G01 X19.9106 Y23.7515
G01 X19.9175 Y23.7645
G01 X19.9595 Y23.8532
G01 X19.9651 Y23.8668
G01 X19.9982 Y23.9592
G01 X20.0024 Y23.9733
G01 X20.0263 Y24.0685
G01 X20.0292 Y24.0829
G01 X20.0436 Y24.1800
G01 X20.0450 Y24.1946
G01 X20.0498 Y24.2926
G01 X20.0498 Y24.3074
G01 X20.0450 Y24.4054
G01 X20.0436 Y24.4200
G01 X20.0292 Y24.5171
G01 X20.0263 Y24.5315
G01 X20.0024 Y24.6267
G01 X19.9982 Y24.6408
G01 X19.9651 Y24.7332
G01 X19.9595 Y24.7468
G01 X19.9175 Y24.8355
G01 X19.9106 Y24.8485
G01 X19.8601 Y24.9327
G01 X19.8520 Y24.9449
G01 X19.7935 Y25.0237
G01 X19.7842 Y25.0351
G01 X19.7182 Y25.1078
G01 X19.7078 Y25.1182
G01 X19.6351 Y25.1842
G01 X19.6237 Y25.1935
G01 X19.5449 Y25.2520
G01 X19.5327 Y25.2601
G01 X19.4485 Y25.3106
G01 X19.4355 Y25.3175
G01 X19.3468 Y25.3595
G01 X19.3332 Y25.3651
G01 X19.2408 Y25.3982
G01 X19.2267 Y25.4024
G01 X19.1315 Y25.4263
G01 X19.1171 Y25.4292
G01 X19.0200 Y25.4436
G01 X19.0054 Y25.4450
G01 X18.9074 Y25.4498
G01 X18.8926 Y25.4498
G01 X18.7946 Y25.4450
G01 X18.7800 Y25.4436
G01 X18.6829 Y25.4292
G01 X18.6685 Y25.4263
G01 X18.6153 Y25.4130
G01 X18.5957 Y25.4199
G01 X18.5817 Y25.4242
G01 X18.5340 Y25.4361
G01 X18.5196 Y25.4390
G01 X18.4710 Y25.4462
G01 X18.4564 Y25.4477
G01 X18.4074 Y25.4501
G01 X18.3926 Y25.4501
G01 X18.3436 Y25.4477
G01 X18.3290 Y25.4462
G01 X18.2804 Y25.4390
G01 X18.2660 Y25.4361
G01 X18.2183 Y25.4242
G01 X18.2043 Y25.4199
G01 X18.1772 Y25.4103
G01 X17.0500 Y25.4103
G01 X17.0500 Y25.7600
G01 X17.0493 Y25.7747
G01 X17.0471 Y25.7893
G01 X17.0435 Y25.8035
G01 X17.0386 Y25.8174
G01 X17.0323 Y25.8307
G01 X17.0247 Y25.8433
G01 X17.0160 Y25.8552
G01 X17.0061 Y25.8661
G01 X16.9952 Y25.8760
G01 X16.9833 Y25.8847
G01 X16.9707 Y25.8923
G01 X16.9574 Y25.8986
G01 X16.9435 Y25.9035
G01 X16.9293 Y25.9071
G01 X16.9147 Y25.9093
G01 X16.9000 Y25.9100
G01 X14.9000 Y25.9100
G01 X14.8853 Y25.9093
G01 X14.8707 Y25.9071
G01 X14.8565 Y25.9035
G01 X14.8426 Y25.8986
G01 X14.8293 Y25.8923
G01 X14.8167 Y25.8847
G01 X14.8048 Y25.8760
G01 X14.7939 Y25.8661
G01 X14.7840 Y25.8552
G01 X14.7753 Y25.8433
G01 X14.7677 Y25.8307
G01 X14.7614 Y25.8174
G01 X14.7565 Y25.8035
G01 X14.7529 Y25.7893
G01 X14.7507 Y25.7747
G01 X14.7500 Y25.7600
G01 X14.7500 Y23.7600
G01 X14.7507 Y23.7453
G01 X14.7529 Y23.7307
G01 X14.7565 Y23.7165
G01 X14.7614 Y23.7026
G01 X14.7677 Y23.6893
G01 X14.7753 Y23.6767
G01 X14.7840 Y23.6648
G01 X14.7939 Y23.6539
G01 X14.8048 Y23.6440
G01 X14.8167 Y23.6353
G01 X14.8293 Y23.6277
G01 X14.8426 Y23.6214
G01 X14.8565 Y23.6165
G01 X14.8707 Y23.6129
G01 X14.8853 Y23.6107
G01 X14.9000 Y23.6100
G01 X16.9000 Y23.6100
G01 X16.9147 Y23.6107
G01 X16.9293 Y23.6129
G01 X16.9435 Y23.6165
G01 X16.9574 Y23.6214
G01 X16.9707 Y23.6277
G01 X16.9833 Y23.6353
G01 X16.9952 Y23.6440
G01 X17.0061 Y23.6539
G01 X17.0160 Y23.6648
G01 X17.0247 Y23.6767
G01 X17.0323 Y23.6893
G01 X17.0386 Y23.7026
G01 X17.0435 Y23.7165
G01 X17.0471 Y23.7307
G01 X17.0493 Y23.7453
G01 X17.0500 Y23.7600
G01 X17.0500 Y24.1097
G01 X17.7669 Y24.1097
G00 Z2.0000
G00 X14.9911 Y26.6497
G01 F60.00
G01 Z-0.1500
G01 F120.00
G01 X15.0378 Y26.5982
G01 X15.0482 Y26.5878
G01 X15.1100 Y26.5318
G01 X15.1214 Y26.5225
G01 X15.1884 Y26.4728
G01 X15.2006 Y26.4646
G01 X15.2722 Y26.4217
G01 X15.2852 Y26.4148
G01 X15.3606 Y26.3791
G01 X15.3742 Y26.3735
G01 X15.4527 Y26.3454
G01 X15.4668 Y26.3411
G01 X15.5477 Y26.3208
G01 X15.5622 Y26.3180
G01 X15.6447 Y26.3057
G01 X15.6593 Y26.3043
G01 X15.7500 Y26.3000
G01 X16.0500 Y26.3000
G01 X16.1407 Y26.3043
G01 X16.1553 Y26.3057
G01 X16.2378 Y26.3180
G01 X16.2523 Y26.3208
G01 X16.3332 Y26.3411
G01 X16.3473 Y26.3454
G01 X16.4258 Y26.3735
G01 X16.4394 Y26.3791
G01 X16.5148 Y26.4148
G01 X16.5278 Y26.4217
G01 X16.5994 Y26.4646
G01 X16.6116 Y26.4728
G01 X16.6786 Y26.5225
G01 X16.6900 Y26.5318
G01 X16.7518 Y26.5878
G01 X16.7622 Y26.5982
G01 X16.8089 Y26.6497
G01 X21.2497 Y26.6497
G01 X21.2497 Y22.7142
G01 X21.2523 Y22.6578
G01 X21.2538 Y22.6432
G01 X21.2610 Y22.5946
G01 X21.2639 Y22.5802
G01 X21.2758 Y22.5326
G01 X21.2801 Y22.5185
G01 X21.2966 Y22.4722
G01 X21.3022 Y22.4586
G01 X21.3232 Y22.4143
G01 X21.3302 Y22.4013
G01 X21.3554 Y22.3592
G01 X21.3636 Y22.3469
G01 X21.3928 Y22.3075
G01 X21.4022 Y22.2961
G01 X21.4402 Y22.2544
G01 X21.7497 Y21.9449
G01 X21.7497 Y21.7480
G01 X21.6763 Y21.6935
G01 X21.6649 Y21.6842
G01 X21.5922 Y21.6182
G01 X21.5818 Y21.6078
G01 X21.5158 Y21.5351
G01 X21.5065 Y21.5237
G01 X21.4480 Y21.4449
G01 X21.4399 Y21.4327
G01 X21.3894 Y21.3485
G01 X21.3825 Y21.3355
G01 X21.3405 Y21.2468
G01 X21.3349 Y21.2332
G01 X21.3018 Y21.1408
G01 X21.2976 Y21.1267
G01 X21.2737 Y21.0315
G01 X21.2708 Y21.0171
G01 X21.2564 Y20.9200
G01 X21.2550 Y20.9054
G01 X21.2502 Y20.8074
G01 X21.2502 Y20.7926
G01 X21.2550 Y20.6946
G01 X21.2564 Y20.6800
G01 X21.2708 Y20.5829
G01 X21.2737 Y20.5685
G01 X21.2976 Y20.4733
G01 X21.3018 Y20.4592
G01 X21.3349 Y20.3668
G01 X21.3405 Y20.3532
G01 X21.3825 Y20.2645
G01 X21.3894 Y20.2515
G01 X21.4399 Y20.1673
G01 X21.4480 Y20.1551
G01 X21.5065 Y20.0763
G01 X21.5158 Y20.0649
G01 X21.5818 Y19.9922
G01 X21.5922 Y19.9818
G01 X21.6649 Y19.9158
G01 X21.6763 Y19.9065
G01 X21.7551 Y19.8480
G01 X21.7673 Y19.8399
G01 X21.8515 Y19.7894
G01 X21.8645 Y19.7825
G01 X21.9532 Y19.7405
G01 X21.9668 Y19.7349
G01 X22.0592 Y19.7018
G01 X22.0733 Y19.6976
G01 X22.1685 Y19.6737
G01 X22.1829 Y19.6708
G01 X22.2800 Y19.6564
G01 X22.2946 Y19.6550
G01 X22.3926 Y19.6502
G01 X22.4074 Y19.6502
G01 X22.5054 Y19.6550
G01 X22.5200 Y19.6564
G01 X22.6171 Y19.6708
G01 X22.6315 Y19.6737
G01 X22.7267 Y19.6976
G01 X22.7408 Y19.7018
G01 X22.8332 Y19.7349
G01 X22.8468 Y19.7405
G01 X22.9355 Y19.7825
G01 X22.9485 Y19.7894
G01 X23.0327 Y19.8399
G01 X23.0449 Y19.8480
G01 X23.1237 Y19.9065
G01 X23.1351 Y19.9158
G01 X23.2078 Y19.9818
G01 X23.2182 Y19.9922
G01 X23.2842 Y20.0649
G01 X23.2935 Y20.0763
G01 X23.3520 Y20.1551
G01 X23.3601 Y20.1673
G01 X23.4106 Y20.2515
G01 X23.4175 Y20.2645
G01 X23.4595 Y20.3532
G01 X23.4651 Y20.3668
G01 X23.4982 Y20.4592
G01 X23.5024 Y20.4733
G01 X23.5263 Y20.5685
G01 X23.5292 Y20.5829
G01 X23.5436 Y20.6800
G01 X23.5450 Y20.6946
G01 X23.5498 Y20.7926
G01 X23.5498 Y20.8074
G01 X23.5450 Y20.9054
G01 X23.5436 Y20.9200
G01 X23.5292 Y21.0171
G01 X23.5263 Y21.0315
G01 X23.5024 Y21.1267
G01 X23.4982 Y21.1408
G01 X23.4651 Y21.2332
G01 X23.4595 Y21.2468
G01 X23.4175 Y21.3355
G01 X23.4106 Y21.3485
G01 X23.3601 Y21.4327
G01 X23.3520 Y21.4449
G01 X23.2935 Y21.5237
G01 X23.2842 Y21.5351
G01 X23.2182 Y21.6078
G01 X23.2078 Y21.6182
G01 X23.1351 Y21.6842
G01 X23.1237 Y21.6935
G01 X23.0503 Y21.7480
G01 X23.0503 Y22.2142
G01 X23.0477 Y22.2706
G01 X23.0462 Y22.2853
G01 X23.0390 Y22.3338
G01 X23.0361 Y22.3483
G01 X23.0242 Y22.3959
G01 X23.0199 Y22.4100
G01 X23.0034 Y22.4562
G01 X22.9978 Y22.4698
G01 X22.9768 Y22.5142
G01 X22.9698 Y22.5271
G01 X22.9446 Y22.5693
G01 X22.9364 Y22.5815
G01 X22.9072 Y22.6209
G01 X22.8978 Y22.6323
G01 X22.8598 Y22.6740
G01 X22.5503 Y22.9836
G01 X22.5503 Y31.5307
G01 X22.8598 Y31.8402
G01 X22.8978 Y31.8819
G01 X22.9072 Y31.8933
G01 X22.9364 Y31.9327
G01 X22.9446 Y31.9450
G01 X22.9698 Y31.9871
G01 X22.9768 Y32.0001
G01 X22.9978 Y32.0444
G01 X23.0034 Y32.0580
G01 X23.0199 Y32.1043
G01 X23.0242 Y32.1183
G01 X23.0361 Y32.1660
G01 X23.0390 Y32.1804
G01 X23.0462 Y32.2290
G01 X23.0477 Y32.2436
G01 X23.0503 Y32.3000
G01 X23.0503 Y34.0307
G01 X26.1693 Y37.1497
G01 X39.7497 Y37.1497
G01 X39.7497 Y36.8000
G01 X39.7523 Y36.7436
G01 X39.7538 Y36.7290
G01 X39.7610 Y36.6804
G01 X39.7639 Y36.6660
G01 X39.7758 Y36.6183
G01 X39.7801 Y36.6043
G01 X39.7966 Y36.5580
G01 X39.8022 Y36.5444
G01 X39.8232 Y36.5001
G01 X39.8302 Y36.4871
G01 X39.8554 Y36.4450
G01 X39.8636 Y36.4327
G01 X39.8928 Y36.3933
G01 X39.9022 Y36.3819
G01 X39.9402 Y36.3402
G01 X40.9455 Y35.3351
G01 X40.9819 Y35.3022
G01 X40.9933 Y35.2928
G01 X41.0327 Y35.2636
G01 X41.0450 Y35.2554
G01 X41.0871 Y35.2302
G01 X41.1001 Y35.2232
G01 X41.1444 Y35.2022
G01 X41.1580 Y35.1966
G01 X41.2043 Y35.1801
G01 X41.2183 Y35.1758
G01 X41.2660 Y35.1639
G01 X41.2804 Y35.1610
G01 X41.3290 Y35.1538
G01 X41.3436 Y35.1523
G01 X41.4000 Y35.1497
G01 X45.9552 Y35.1497
G01 X45.9846 Y35.1006
G01 X45.9928 Y35.0884
G01 X46.0425 Y35.0214
G01 X46.0518 Y35.0100
G01 X46.1078 Y34.9482
G01 X46.1182 Y34.9378
G01 X46.1697 Y34.8911
G01 X46.1697 Y24.8800
G01 X46.1723 Y24.8236
G01 X46.1738 Y24.8090
G01 X46.1810 Y24.7604
G01 X46.1839 Y24.7460
G01 X46.1958 Y24.6983
G01 X46.2001 Y24.6843
G01 X46.2166 Y24.6380
G01 X46.2222 Y24.6244
G01 X46.2432 Y24.5801
G01 X46.2502 Y24.5671
G01 X46.2754 Y24.5250
G01 X46.2836 Y24.5127
G01 X46.3128 Y24.4733
G01 X46.3222 Y24.4619
G01 X46.3602 Y24.4202
G01 X49.9402 Y20.8402
G01 X49.9819 Y20.8022
G01 X49.9933 Y20.7928
G01 X50.0327 Y20.7636
G01 X50.0450 Y20.7554
G01 X50.0871 Y20.7302
G01 X50.1001 Y20.7232
G01 X50.1444 Y20.7022
G01 X50.1580 Y20.6966
G01 X50.2043 Y20.6801
G01 X50.2183 Y20.6758
G01 X50.2660 Y20.6639
G01 X50.2804 Y20.6610
G01 X50.3290 Y20.6538
G01 X50.3436 Y20.6523
G01 X50.4000 Y20.6497
G01 X54.1907 Y20.6497
G01 X55.0897 Y19.7507
G01 X55.0897 Y18.9289
G01 X55.0382 Y18.8822
G01 X55.0278 Y18.8718
G01 X54.9718 Y18.8100
G01 X54.9625 Y18.7986
G01 X54.9128 Y18.7316
G01 X54.9046 Y18.7194
G01 X54.8617 Y18.6478
G01 X54.8548 Y18.6348
G01 X54.8191 Y18.5594
G01 X54.8135 Y18.5458
G01 X54.7854 Y18.4673
G01 X54.7811 Y18.4532
G01 X54.7608 Y18.3723
G01 X54.7580 Y18.3578
G01 X54.7457 Y18.2753
G01 X54.7443 Y18.2607
G01 X54.7400 Y18.1700
G01 X54.7400 Y17.6700
G01 X54.7443 Y17.5793
G01 X54.7457 Y17.5647
G01 X54.7580 Y17.4822
G01 X54.7608 Y17.4677
G01 X54.7811 Y17.3868
G01 X54.7854 Y17.3727
G01 X54.8135 Y17.2942
G01 X54.8191 Y17.2806
G01 X54.8548 Y17.2052
G01 X54.8617 Y17.1922
G01 X54.9046 Y17.1206
G01 X54.9128 Y17.1084
G01 X54.9625 Y17.0414
G01 X54.9718 Y17.0300
G01 X55.0278 Y16.9682
G01 X55.0382 Y16.9578
G01 X55.1000 Y16.9018
G01 X55.1114 Y16.8925
G01 X55.1784 Y16.8428
G01 X55.1906 Y16.8346
G01 X55.2622 Y16.7917
G01 X55.2752 Y16.7848
G01 X55.3506 Y16.7491
G01 X55.3642 Y16.7435
G01 X55.4427 Y16.7154
G01 X55.4568 Y16.7111
G01 X55.5377 Y16.6908
G01 X55.5522 Y16.6880
G01 X55.6347 Y16.6757
G01 X55.6493 Y16.6743
G01 X55.7326 Y16.6702
G01 X55.7474 Y16.6702
G01 X55.8307 Y16.6743
G01 X55.8453 Y16.6757
G01 X55.9278 Y16.6880
G01 X55.9423 Y16.6908
G01 X56.0232 Y16.7111
G01 X56.0373 Y16.7154
G01 X56.1158 Y16.7435
G01 X56.1294 Y16.7491
G01 X56.2048 Y16.7848
G01 X56.2178 Y16.7917
G01 X56.2894 Y16.8346
G01 X56.3016 Y16.8428
G01 X56.3686 Y16.8925
G01 X56.3800 Y16.9018
G01 X56.4418 Y16.9578
G01 X56.4522 Y16.9682
G01 X56.5082 Y17.0300
G01 X56.5175 Y17.0414
G01 X56.5672 Y17.1084
G01 X56.5754 Y17.1206
G01 X56.6183 Y17.1922
G01 X56.6252 Y17.2052
G01 X56.6609 Y17.2806
G01 X56.6665 Y17.2942
G01 X56.6946 Y17.3727
G01 X56.6989 Y17.3868
G01 X56.7192 Y17.4677
G01 X56.7220 Y17.4822
G01 X56.7343 Y17.5647
G01 X56.7357 Y17.5793
G01 X56.7398 Y17.6626
G01 X56.7400 Y18.1700
G01 X56.7357 Y18.2607
G01 X56.7343 Y18.2753
G01 X56.7220 Y18.3578
G01 X56.7192 Y18.3723
G01 X56.6989 Y18.4532
G01 X56.6946 Y18.4673
G01 X56.6665 Y18.5458
G01 X56.6609 Y18.5594
G01 X56.6252 Y18.6348
G01 X56.6183 Y18.6478
G01 X56.5754 Y18.7194
G01 X56.5672 Y18.7316
G01 X56.5175 Y18.7986
G01 X56.5082 Y18.8100
G01 X56.4522 Y18.8718
G01 X56.4418 Y18.8822
G01 X56.3903 Y18.9289
G01 X56.3903 Y20.0200
G01 X56.3877 Y20.0764
G01 X56.3862 Y20.0910
G01 X56.3790 Y20.1396
G01 X56.3761 Y20.1540
G01 X56.3642 Y20.2017
G01 X56.3599 Y20.2157
G01 X56.3434 Y20.2620
G01 X56.3378 Y20.2756
G01 X56.3168 Y20.3199
G01 X56.3098 Y20.3329
G01 X56.2846 Y20.3750
G01 X56.2764 Y20.3873
G01 X56.2472 Y20.4267
G01 X56.2378 Y20.4381
G01 X56.2049 Y20.4745
G01 X54.9198 Y21.7598
G01 X54.8781 Y21.7978
G01 X54.8667 Y21.8072
G01 X54.8273 Y21.8364
G01 X54.8150 Y21.8446
G01 X54.7729 Y21.8698
G01 X54.7599 Y21.8768
G01 X54.7156 Y21.8978
G01 X54.7020 Y21.9034
G01 X54.6557 Y21.9199
G01 X54.6417 Y21.9242
G01 X54.5940 Y21.9361
G01 X54.5796 Y21.9390
G01 X54.5310 Y21.9462
G01 X54.5164 Y21.9477
G01 X54.4674 Y21.9501
G01 X50.6693 Y21.9503
G01 X47.4703 Y25.1493
G01 X47.4703 Y34.8911
G01 X47.5218 Y34.9378
G01 X47.5322 Y34.9482
G01 X47.5882 Y35.0100
G01 X47.5975 Y35.0214
G01 X47.6472 Y35.0884
G01 X47.6554 Y35.1006
G01 X47.6983 Y35.1722
G01 X47.7052 Y35.1852
G01 X47.7409 Y35.2606
G01 X47.7465 Y35.2742
G01 X47.7746 Y35.3527
G01 X47.7789 Y35.3668
G01 X47.7992 Y35.4477
G01 X47.8020 Y35.4622
G01 X47.8143 Y35.5447
G01 X47.8157 Y35.5593
G01 X47.8200 Y35.6500
G01 X47.8200 Y35.9500
G01 X47.8157 Y36.0407
G01 X47.8143 Y36.0553
G01 X47.8020 Y36.1378
G01 X47.7992 Y36.1523
G01 X47.7789 Y36.2332
G01 X47.7746 Y36.2473
G01 X47.7465 Y36.3258
G01 X47.7409 Y36.3394
G01 X47.7052 Y36.4148
G01 X47.6983 Y36.4278
G01 X47.6554 Y36.4994
G01 X47.6472 Y36.5116
G01 X47.5975 Y36.5786
G01 X47.5882 Y36.5900
G01 X47.5322 Y36.6518
G01 X47.5218 Y36.6622
G01 X47.4703 Y36.7089
G01 X47.4703 Y38.8911
G01 X47.5218 Y38.9378
G01 X47.5322 Y38.9482
G01 X47.5882 Y39.0100
G01 X47.5975 Y39.0214
G01 X47.6472 Y39.0884
G01 X47.6554 Y39.1006
G01 X47.6983 Y39.1722
G01 X47.7052 Y39.1852
G01 X47.7409 Y39.2606
G01 X47.7465 Y39.2742
G01 X47.7746 Y39.3527
G01 X47.7789 Y39.3668
G01 X47.7992 Y39.4477
G01 X47.8020 Y39.4622
G01 X47.8143 Y39.5447
G01 X47.8157 Y39.5593
G01 X47.8200 Y39.6500
G01 X47.8200 Y39.9500
G01 X47.8157 Y40.0407
G01 X47.8143 Y40.0553
G01 X47.8020 Y40.1378
G01 X47.7992 Y40.1523
G01 X47.7789 Y40.2332
G01 X47.7746 Y40.2473
G01 X47.7465 Y40.3258
G01 X47.7409 Y40.3394
G01 X47.7052 Y40.4148
G01 X47.6983 Y40.4278
G01 X47.6554 Y40.4994
G01 X47.6472 Y40.5116
G01 X47.5975 Y40.5786
G01 X47.5882 Y40.5900
G01 X47.5322 Y40.6518
G01 X47.5218 Y40.6622
G01 X47.4703 Y40.7089
G01 X47.4703 Y42.8911
G01 X47.5218 Y42.9378
G01 X47.5322 Y42.9482
G01 X47.5882 Y43.0100
G01 X47.5975 Y43.0214
G01 X47.6472 Y43.0884
G01 X47.6554 Y43.1006
G01 X47.6983 Y43.1722
G01 X47.7052 Y43.1852
G01 X47.7409 Y43.2606
G01 X47.7465 Y43.2742
G01 X47.7746 Y43.3527
G01 X47.7789 Y43.3668
G01 X47.7992 Y43.4477
G01 X47.8020 Y43.4622
G01 X47.8143 Y43.5447
G01 X47.8157 Y43.5593
G01 X47.8198 Y43.6426
G01 X47.8198 Y43.9574
G01 X47.8157 Y44.0407
G01 X47.8143 Y44.0553
G01 X47.8020 Y44.1378
G01 X47.7992 Y44.1523
G01 X47.7789 Y44.2332
G01 X47.7746 Y44.2473
G01 X47.7465 Y44.3258
G01 X47.7409 Y44.3394
G01 X47.7052 Y44.4148
G01 X47.6983 Y44.4278
G01 X47.6554 Y44.4994
G01 X47.6472 Y44.5116
G01 X47.5975 Y44.5786
G01 X47.5882 Y44.5900
G01 X47.5322 Y44.6518
G01 X47.5218 Y44.6622
G01 X47.4703 Y44.7089
G01 X47.4701 Y44.8874
G01 X47.4677 Y44.9364
G01 X47.4662 Y44.9510
G01 X47.4590 Y44.9996
G01 X47.4561 Y45.0140
G01 X47.4442 Y45.0617
G01 X47.4399 Y45.0757
G01 X47.4234 Y45.1220
G01 X47.4178 Y45.1356
G01 X47.3968 Y45.1799
G01 X47.3898 Y45.1929
G01 X47.3646 Y45.2350
G01 X47.3564 Y45.2473
G01 X47.3272 Y45.2867
G01 X47.3178 Y45.2981
G01 X47.2798 Y45.3398
G01 X46.3598 Y46.2598
G01 X46.3181 Y46.2978
G01 X46.3067 Y46.3072
G01 X46.2673 Y46.3364
G01 X46.2550 Y46.3446
G01 X46.2129 Y46.3698
G01 X46.1999 Y46.3768
G01 X46.1556 Y46.3978
G01 X46.1420 Y46.4034
G01 X46.0957 Y46.4199
G01 X46.0817 Y46.4242
G01 X46.0340 Y46.4361
G01 X46.0196 Y46.4390
G01 X45.9710 Y46.4462
G01 X45.9564 Y46.4477
G01 X45.9000 Y46.4503
G01 X42.1693 Y46.4503
G01 X39.5503 Y49.0693
G01 X39.5503 Y53.0307
G01 X39.6693 Y53.1497
G01 X43.4520 Y53.1497
G01 X43.5065 Y53.0763
G01 X43.5158 Y53.0649
G01 X43.5818 Y52.9922
G01 X43.5922 Y52.9818
G01 X43.6649 Y52.9158
G01 X43.6763 Y52.9065
G01 X43.7551 Y52.8480
G01 X43.7673 Y52.8399
G01 X43.8515 Y52.7894
G01 X43.8645 Y52.7825
G01 X43.9532 Y52.7405
G01 X43.9668 Y52.7349
G01 X44.0592 Y52.7018
G01 X44.0733 Y52.6976
G01 X44.1685 Y52.6737
G01 X44.1829 Y52.6708
G01 X44.2800 Y52.6564
G01 X44.2946 Y52.6550
G01 X44.3926 Y52.6502
G01 X44.4074 Y52.6502
G01 X44.5054 Y52.6550
G01 X44.5200 Y52.6564
G01 X44.6171 Y52.6708
G01 X44.6315 Y52.6737
G01 X44.7267 Y52.6976
G01 X44.7408 Y52.7018
G01 X44.8332 Y52.7349
G01 X44.8468 Y52.7405
G01 X44.9355 Y52.7825
G01 X44.9485 Y52.7894
G01 X45.0327 Y52.8399
G01 X45.0449 Y52.8480
G01 X45.1237 Y52.9065
G01 X45.1351 Y52.9158
G01 X45.2078 Y52.9818
G01 X45.2182 Y52.9922
G01 X45.2842 Y53.0649
G01 X45.2935 Y53.0763
G01 X45.3480 Y53.1497
G01 X46.9520 Y53.1497
G01 X47.0065 Y53.0763
G01 X47.0158 Y53.0649
G01 X47.0818 Y52.9922
G01 X47.0922 Y52.9818
G01 X47.1649 Y52.9158
G01 X47.1763 Y52.9065
G01 X47.2551 Y52.8480
G01 X47.2673 Y52.8399
G01 X47.3515 Y52.7894
G01 X47.3645 Y52.7825
G01 X47.4532 Y52.7405
G01 X47.4668 Y52.7349
G01 X47.5592 Y52.7018
G01 X47.5733 Y52.6976
G01 X47.6685 Y52.6737
G01 X47.6829 Y52.6708
G01 X47.7800 Y52.6564
G01 X47.7946 Y52.6550
G01 X47.8926 Y52.6502
G01 X47.9074 Y52.6502
G01 X48.0054 Y52.6550
G01 X48.0200 Y52.6564
G01 X48.1171 Y52.6708
G01 X48.1315 Y52.6737
G01 X48.2267 Y52.6976
G01 X48.2408 Y52.7018
G01 X48.3332 Y52.7349
G01 X48.3468 Y52.7405
G01 X48.4355 Y52.7825
G01 X48.4485 Y52.7894
G01 X48.5327 Y52.8399
G01 X48.5449 Y52.8480
G01 X48.6237 Y52.9065
G01 X48.6351 Y52.9158
G01 X48.7078 Y52.9818
G01 X48.7182 Y52.9922
G01 X48.7842 Y53.0649
G01 X48.7935 Y53.0763
G01 X48.8480 Y53.1497
G01 X50.4520 Y53.1497
G01 X50.5065 Y53.0763
G01 X50.5158 Y53.0649
G01 X50.5818 Y52.9922
G01 X50.5922 Y52.9818
G01 X50.6649 Y52.9158
G01 X50.6763 Y52.9065
G01 X50.7551 Y52.8480
G01 X50.7673 Y52.8399
G01 X50.8515 Y52.7894
G01 X50.8645 Y52.7825
G01 X50.9532 Y52.7405
G01 X50.9668 Y52.7349
G01 X51.0592 Y52.7018
G01 X51.0733 Y52.6976
G01 X51.1685 Y52.6737
G01 X51.1829 Y52.6708
G01 X51.2800 Y52.6564
G01 X51.2946 Y52.6550
G01 X51.3926 Y52.6502
G01 X51.4074 Y52.6502
G01 X51.5054 Y52.6550
G01 X51.5200 Y52.6564
G01 X51.6171 Y52.6708
G01 X51.6315 Y52.6737
G01 X51.7267 Y52.6976
G01 X51.7408 Y52.7018
G01 X51.8332 Y52.7349
G01 X51.8468 Y52.7405
G01 X51.9355 Y52.7825
G01 X51.9485 Y52.7894
G01 X52.0327 Y52.8399
G01 X52.0449 Y52.8480
G01 X52.1237 Y52.9065
G01 X52.1351 Y52.9158
G01 X52.2078 Y52.9818
G01 X52.2182 Y52.9922
G01 X52.2842 Y53.0649
G01 X52.2935 Y53.0763
G01 X52.3480 Y53.1497
G01 X70.9000 Y53.1497
G01 X70.9564 Y53.1523
G01 X70.9710 Y53.1538
G01 X71.0196 Y53.1610
G01 X71.0340 Y53.1639
G01 X71.0817 Y53.1758
G01 X71.0957 Y53.1801
G01 X71.1420 Y53.1966
G01 X71.1556 Y53.2022
G01 X71.1999 Y53.2232
G01 X71.2129 Y53.2302
G01 X71.2550 Y53.2554
G01 X71.2673 Y53.2636
G01 X71.3067 Y53.2928
G01 X71.3181 Y53.3022
G01 X71.3598 Y53.3402
G01 X76.1693 Y58.1497
G01 X80.6307 Y58.1497
G01 X85.4402 Y53.3402
G01 X85.4819 Y53.3022
G01 X85.4933 Y53.2928
G01 X85.5327 Y53.2636
G01 X85.5450 Y53.2554
G01 X85.5871 Y53.2302
G01 X85.6001 Y53.2232
G01 X85.6444 Y53.2022
G01 X85.6580 Y53.1966
G01 X85.7043 Y53.1801
G01 X85.7183 Y53.1758
G01 X85.7660 Y53.1639
G01 X85.7804 Y53.1610
G01 X85.8290 Y53.1538
G01 X85.8436 Y53.1523
G01 X85.8926 Y53.1499
G01 X88.2497 Y53.1497
G01 X88.2497 Y48.2480
G01 X88.1763 Y48.1935
G01 X88.1649 Y48.1842
G01 X88.0922 Y48.1182
G01 X88.0818 Y48.1078
G01 X88.0158 Y48.0351
G01 X88.0065 Y48.0237
G01 X87.9480 Y47.9449
G01 X87.9399 Y47.9327
G01 X87.8894 Y47.8485
G01 X87.8825 Y47.8355
G01 X87.8405 Y47.7468
G01 X87.8349 Y47.7332
G01 X87.8018 Y47.6408
G01 X87.7976 Y47.6267
G01 X87.7737 Y47.5315
G01 X87.7708 Y47.5171
G01 X87.7564 Y47.4200
G01 X87.7550 Y47.4054
G01 X87.7502 Y47.3074
G01 X87.7502 Y47.2926
G01 X87.7550 Y47.1946
G01 X87.7564 Y47.1800
G01 X87.7708 Y47.0829
G01 X87.7737 Y47.0685
G01 X87.7976 Y46.9733
G01 X87.8018 Y46.9592
G01 X87.8349 Y46.8668
G01 X87.8405 Y46.8532
G01 X87.8825 Y46.7645
G01 X87.8894 Y46.7515
G01 X87.9399 Y46.6673
G01 X87.9480 Y46.6551
G01 X88.0065 Y46.5763
G01 X88.0158 Y46.5649
G01 X88.0818 Y46.4922
G01 X88.0922 Y46.4818
G01 X88.1649 Y46.4158
G01 X88.1763 Y46.4065
G01 X88.2497 Y46.3520
G01 X88.2497 Y44.7480
G01 X88.1763 Y44.6935
G01 X88.1649 Y44.6842
G01 X88.0922 Y44.6182
G01 X88.0818 Y44.6078
G01 X88.0158 Y44.5351
G01 X88.0065 Y44.5237
G01 X87.9480 Y44.4449
G01 X87.9399 Y44.4327
G01 X87.8894 Y44.3485
G01 X87.8825 Y44.3355
G01 X87.8405 Y44.2468
G01 X87.8349 Y44.2332
G01 X87.8018 Y44.1408
G01 X87.7976 Y44.1267
G01 X87.7737 Y44.0315
G01 X87.7708 Y44.0171
G01 X87.7564 Y43.9200
G01 X87.7550 Y43.9054
G01 X87.7502 Y43.8074
G01 X87.7502 Y43.7926
G01 X87.7550 Y43.6946
G01 X87.7564 Y43.6800
G01 X87.7708 Y43.5829
G01 X87.7737 Y43.5685
G01 X87.7976 Y43.4733
G01 X87.8018 Y43.4592
G01 X87.8349 Y43.3668
G01 X87.8405 Y43.3532
G01 X87.8825 Y43.2645
G01 X87.8894 Y43.2515
G01 X87.9399 Y43.1673
G01 X87.9480 Y43.1551
G01 X88.0065 Y43.0763
G01 X88.0158 Y43.0649
G01 X88.0818 Y42.9922
G01 X88.0922 Y42.9818
G01 X88.1649 Y42.9158
G01 X88.1763 Y42.9065
G01 X88.2497 Y42.8520
G01 X88.2497 Y41.7480
G01 X88.1763 Y41.6935
G01 X88.1649 Y41.6842
G01 X88.0922 Y41.6182
G01 X88.0818 Y41.6078
G01 X88.0158 Y41.5351
G01 X88.0065 Y41.5237
G01 X87.9480 Y41.4449
G01 X87.9399 Y41.4327
G01 X87.8894 Y41.3485
G01 X87.8825 Y41.3355
G01 X87.8405 Y41.2468
G01 X87.8349 Y41.2332
G01 X87.8018 Y41.1408
G01 X87.7976 Y41.1267
G01 X87.7737 Y41.0315
G01 X87.7708 Y41.0171
G01 X87.7564 Y40.9200
G01 X87.7550 Y40.9054
G01 X87.7502 Y40.8074
G01 X87.7502 Y40.7926
G01 X87.7550 Y40.6946
G01 X87.7564 Y40.6800
G01 X87.7708 Y40.5829
G01 X87.7737 Y40.5685
G01 X87.7976 Y40.4733
G01 X87.8018 Y40.4592
G01 X87.8349 Y40.3668
G01 X87.8405 Y40.3532
G01 X87.8825 Y40.2645
G01 X87.8894 Y40.2515
G01 X87.9399 Y40.1673
G01 X87.9480 Y40.1551
G01 X88.0065 Y40.0763
G01 X88.0158 Y40.0649
G01 X88.0818 Y39.9922
G01 X88.0922 Y39.9818
G01 X88.1649 Y39.9158
G01 X88.1763 Y39.9065
G01 X88.2551 Y39.8480
G01 X88.2673 Y39.8399
G01 X88.3515 Y39.7894
G01 X88.3645 Y39.7825
G01 X88.4532 Y39.7405
G01 X88.4668 Y39.7349
G01 X88.5592 Y39.7018
G01 X88.5733 Y39.6976
G01 X88.6685 Y39.6737
G01 X88.6829 Y39.6708
G01 X88.7800 Y39.6564
G01 X88.7946 Y39.6550
G01 X88.8926 Y39.6502
G01 X88.9074 Y39.6502
G01 X89.0054 Y39.6550
G01 X89.0200 Y39.6564
G01 X89.1171 Y39.6708
G01 X89.1315 Y39.6737
G01 X89.2267 Y39.6976
G01 X89.2408 Y39.7018
G01 X89.3332 Y39.7349
G01 X89.3468 Y39.7405
G01 X89.4355 Y39.7825
G01 X89.4485 Y39.7894
G01 X89.5327 Y39.8399
G01 X89.5449 Y39.8480
G01 X89.6237 Y39.9065
G01 X89.6351 Y39.9158
G01 X89.7078 Y39.9818
G01 X89.7182 Y39.9922
G01 X89.7842 Y40.0649
G01 X89.7935 Y40.0763
G01 X89.8520 Y40.1551
G01 X89.8601 Y40.1673
G01 X89.9106 Y40.2515
G01 X89.9175 Y40.2645
G01 X89.9595 Y40.3532
G01 X89.9651 Y40.3668
G01 X89.9982 Y40.4592
G01 X90.0024 Y40.4733
G01 X90.0263 Y40.5685
G01 X90.0292 Y40.5829
G01 X90.0436 Y40.6800
G01 X90.0450 Y40.6946
G01 X90.0498 Y40.7926
G01 X90.0498 Y40.8074
G01 X90.0450 Y40.9054
G01 X90.0436 Y40.9200
G01 X90.0292 Y41.0171
G01 X90.0263 Y41.0315
G01 X90.0024 Y41.1267
G01 X89.9982 Y41.1408
G01 X89.9651 Y41.2332
G01 X89.9595 Y41.2468
G01 X89.9175 Y41.3355
G01 X89.9106 Y41.3485
G01 X89.8601 Y41.4327
G01 X89.8520 Y41.4449
G01 X89.7935 Y41.5237
G01 X89.7842 Y41.5351
G01 X89.7182 Y41.6078
G01 X89.7078 Y41.6182
G01 X89.6351 Y41.6842
G01 X89.6237 Y41.6935
G01 X89.5503 Y41.7480
G01 X89.5503 Y42.2302
G01 X90.4402 Y41.3402
G01 X90.4819 Y41.3022
G01 X90.4933 Y41.2928
G01 X90.5327 Y41.2636
G01 X90.5450 Y41.2554
G01 X90.5871 Y41.2302
G01 X90.6001 Y41.2232
G01 X90.6444 Y41.2022
G01 X90.6580 Y41.1966
G01 X90.7043 Y41.1801
G01 X90.7183 Y41.1758
G01 X90.7660 Y41.1639
G01 X90.7804 Y41.1610
G01 X90.8290 Y41.1538
G01 X90.8436 Y41.1523
G01 X90.9000 Y41.1497
G01 X91.6307 Y41.1497
G01 X94.9402 Y37.8402
G01 X94.9819 Y37.8022
G01 X94.9933 Y37.7928
G01 X95.0327 Y37.7636
G01 X95.0450 Y37.7554
G01 X95.0871 Y37.7302
G01 X95.1001 Y37.7232
G01 X95.1444 Y37.7022
G01 X95.1580 Y37.6966
G01 X95.2043 Y37.6801
G01 X95.2183 Y37.6758
G01 X95.2660 Y37.6639
G01 X95.2804 Y37.6610
G01 X95.3290 Y37.6538
G01 X95.3436 Y37.6523
G01 X95.4000 Y37.6497
G01 X100.6307 Y37.6497
G01 X105.2497 Y33.0307
G01 X105.2497 Y29.5693
G01 X104.5907 Y28.9103
G01 X101.8089 Y28.9103
G01 X101.7622 Y28.9618
G01 X101.7518 Y28.9722
G01 X101.6900 Y29.0282
G01 X101.6786 Y29.0375
G01 X101.6116 Y29.0872
G01 X101.5994 Y29.0954
G01 X101.5278 Y29.1383
G01 X101.5148 Y29.1452
G01 X101.4394 Y29.1809
G01 X101.4258 Y29.1865
G01 X101.3473 Y29.2146
G01 X101.3332 Y29.2189
G01 X101.2523 Y29.2392
G01 X101.2378 Y29.2420
G01 X101.1553 Y29.2543
G01 X101.1407 Y29.2557
G01 X101.0500 Y29.2600
G01 X100.7500 Y29.2600
G01 X100.6593 Y29.2557
G01 X100.6447 Y29.2543
G01 X100.5622 Y29.2420
G01 X100.5477 Y29.2392
G01 X100.4668 Y29.2189
G01 X100.4527 Y29.2146
G01 X100.3742 Y29.1865
G01 X100.3606 Y29.1809
G01 X100.2852 Y29.1452
G01 X100.2722 Y29.1383
G01 X100.2006 Y29.0954
G01 X100.1884 Y29.0872
G01 X100.1214 Y29.0375
G01 X100.1100 Y29.0282
G01 X100.0482 Y28.9722
G01 X100.0378 Y28.9618
G01 X99.9911 Y28.9103
G01 X98.3526 Y28.9101
G01 X98.3036 Y28.9077
G01 X98.2890 Y28.9062
G01 X98.2404 Y28.8990
G01 X98.2260 Y28.8961
G01 X98.1783 Y28.8842
G01 X98.1643 Y28.8799
G01 X98.1180 Y28.8634
G01 X98.1044 Y28.8578
G01 X98.0601 Y28.8368
G01 X98.0471 Y28.8298
G01 X98.0050 Y28.8046
G01 X97.9927 Y28.7964
G01 X97.9533 Y28.7672
G01 X97.9419 Y28.7578
G01 X97.9002 Y28.7198
G01 X96.6307 Y27.4503
G01 X89.9000 Y27.4503
G01 X89.8436 Y27.4477
G01 X89.8290 Y27.4462
G01 X89.7804 Y27.4390
G01 X89.7660 Y27.4361
G01 X89.7183 Y27.4242
G01 X89.7043 Y27.4199
G01 X89.6580 Y27.4034
G01 X89.6444 Y27.3978
G01 X89.6001 Y27.3768
G01 X89.5871 Y27.3698
G01 X89.5450 Y27.3446
G01 X89.5327 Y27.3364
G01 X89.4933 Y27.3072
G01 X89.4819 Y27.2978
G01 X89.4402 Y27.2598
G01 X88.6105 Y26.4301
G01 X88.5200 Y26.4436
G01 X88.5054 Y26.4450
G01 X88.4074 Y26.4498
G01 X88.3926 Y26.4498
G01 X88.2946 Y26.4450
G01 X88.2800 Y26.4436
G01 X88.1829 Y26.4292
G01 X88.1685 Y26.4263
G01 X88.0733 Y26.4024
G01 X88.0592 Y26.3982
G01 X87.9668 Y26.3651
G01 X87.9532 Y26.3595
G01 X87.8645 Y26.3175
G01 X87.8515 Y26.3106
G01 X87.7673 Y26.2601
G01 X87.7551 Y26.2520
G01 X87.6763 Y26.1935
G01 X87.6649 Y26.1842
G01 X87.5922 Y26.1182
G01 X87.5818 Y26.1078
G01 X87.5158 Y26.0351
G01 X87.5065 Y26.0237
G01 X87.4480 Y25.9449
G01 X87.4399 Y25.9327
G01 X87.3894 Y25.8485
G01 X87.3825 Y25.8355
G01 X87.3405 Y25.7468
G01 X87.3349 Y25.7332
G01 X87.3018 Y25.6408
G01 X87.2976 Y25.6267
G01 X87.2737 Y25.5315
G01 X87.2708 Y25.5171
G01 X87.2564 Y25.4200
G01 X87.2550 Y25.4054
G01 X87.2502 Y25.3074
G01 X87.2502 Y25.2926
G01 X87.2550 Y25.1946
G01 X87.2564 Y25.1800
G01 X87.2708 Y25.0829
G01 X87.2737 Y25.0685
G01 X87.2976 Y24.9733
G01 X87.3018 Y24.9592
G01 X87.3349 Y24.8668
G01 X87.3405 Y24.8532
G01 X87.3825 Y24.7645
G01 X87.3894 Y24.7515
G01 X87.4399 Y24.6673
G01 X87.4480 Y24.6551
G01 X87.5065 Y24.5763
G01 X87.5158 Y24.5649
G01 X87.5818 Y24.4922
G01 X87.5922 Y24.4818
G01 X87.6649 Y24.4158
G01 X87.6763 Y24.4065
G01 X87.7551 Y24.3480
G01 X87.7673 Y24.3399
G01 X87.8515 Y24.2894
G01 X87.8645 Y24.2825
G01 X87.9532 Y24.2405
G01 X87.9668 Y24.2349
G01 X88.0592 Y24.2018
G01 X88.0733 Y24.1976
G01 X88.1685 Y24.1737
G01 X88.1829 Y24.1708
G01 X88.2800 Y24.1564
G01 X88.2946 Y24.1550
G01 X88.3926 Y24.1502
G01 X88.4074 Y24.1502
G01 X88.5054 Y24.1550
G01 X88.5200 Y24.1564
G01 X88.6171 Y24.1708
G01 X88.6315 Y24.1737
G01 X88.7267 Y24.1976
G01 X88.7408 Y24.2018
G01 X88.8332 Y24.2349
G01 X88.8468 Y24.2405
G01 X88.9355 Y24.2825
G01 X88.9485 Y24.2894
G01 X89.0327 Y24.3399
G01 X89.0449 Y24.3480
G01 X89.1237 Y24.4065
G01 X89.1351 Y24.4158
G01 X89.2078 Y24.4818
G01 X89.2182 Y24.4922
G01 X89.2842 Y24.5649
G01 X89.2935 Y24.5763
G01 X89.3520 Y24.6551
G01 X89.3601 Y24.6673
G01 X89.4106 Y24.7515
G01 X89.4175 Y24.7645
G01 X89.4595 Y24.8532
G01 X89.4651 Y24.8668
G01 X89.4982 Y24.9592
G01 X89.5024 Y24.9733
G01 X89.5263 Y25.0685
G01 X89.5292 Y25.0829
G01 X89.5436 Y25.1800
G01 X89.5450 Y25.1946
G01 X89.5498 Y25.2926
G01 X89.5498 Y25.3074
G01 X89.5450 Y25.4054
G01 X89.5436 Y25.4200
G01 X89.5301 Y25.5105
G01 X90.1693 Y26.1497
G01 X96.9000 Y26.1497
G01 X96.9564 Y26.1523
G01 X96.9710 Y26.1538
G01 X97.0196 Y26.1610
G01 X97.0340 Y26.1639
G01 X97.0817 Y26.1758
G01 X97.0957 Y26.1801
G01 X97.1420 Y26.1966
G01 X97.1556 Y26.2022
G01 X97.1999 Y26.2232
G01 X97.2129 Y26.2302
G01 X97.2550 Y26.2554
G01 X97.2673 Y26.2636
G01 X97.3067 Y26.2928
G01 X97.3181 Y26.3022
G01 X97.3598 Y26.3402
G01 X98.6293 Y27.6097
G01 X99.9911 Y27.6097
G01 X100.0378 Y27.5582
G01 X100.0482 Y27.5478
G01 X100.1100 Y27.4918
G01 X100.1214 Y27.4825
G01 X100.1884 Y27.4328
G01 X100.2006 Y27.4246
G01 X100.2722 Y27.3817
G01 X100.2852 Y27.3748
G01 X100.3606 Y27.3391
G01 X100.3742 Y27.3335
G01 X100.4527 Y27.3054
G01 X100.4668 Y27.3011
G01 X100.5477 Y27.2808
G01 X100.5622 Y27.2780
G01 X100.6447 Y27.2657
G01 X100.6593 Y27.2643
G01 X100.7500 Y27.2600
G01 X101.0500 Y27.2600
G01 X101.1407 Y27.2643
G01 X101.1553 Y27.2657
G01 X101.2378 Y27.2780
G01 X101.2523 Y27.2808
G01 X101.3332 Y27.3011
G01 X101.3473 Y27.3054
G01 X101.4258 Y27.3335
G01 X101.4394 Y27.3391
G01 X101.5148 Y27.3748
G01 X101.5278 Y27.3817
G01 X101.5994 Y27.4246
G01 X101.6116 Y27.4328
G01 X101.6786 Y27.4825
G01 X101.6900 Y27.4918
G01 X101.7518 Y27.5478
G01 X101.7622 Y27.5582
G01 X101.8089 Y27.6097
G01 X104.8600 Y27.6097
G01 X104.9164 Y27.6123
G01 X104.9310 Y27.6138
G01 X104.9796 Y27.6210
G01 X104.9940 Y27.6239
G01 X105.0417 Y27.6358
G01 X105.0557 Y27.6401
G01 X105.1020 Y27.6566
G01 X105.1156 Y27.6622
G01 X105.1599 Y27.6832
G01 X105.1729 Y27.6902
G01 X105.2150 Y27.7154
G01 X105.2273 Y27.7236
G01 X105.2667 Y27.7528
G01 X105.2781 Y27.7622
G01 X105.3198 Y27.8002
G01 X106.6293 Y29.1097
G01 X108.4911 Y29.1097
G01 X108.5378 Y29.0582
G01 X108.5482 Y29.0478
G01 X108.6100 Y28.9918
G01 X108.6214 Y28.9825
G01 X108.6884 Y28.9328
G01 X108.7006 Y28.9246
G01 X108.7497 Y28.8952
G01 X108.7499 Y26.2926
G01 X108.7523 Y26.2436
G01 X108.7538 Y26.2290
G01 X108.7610 Y26.1804
G01 X108.7639 Y26.1660
G01 X108.7758 Y26.1183
G01 X108.7801 Y26.1043
G01 X108.7966 Y26.0580
G01 X108.8022 Y26.0444
G01 X108.8232 Y26.0001
G01 X108.8302 Y25.9871
G01 X108.8554 Y25.9450
G01 X108.8636 Y25.9327
G01 X108.8928 Y25.8933
G01 X108.9022 Y25.8819
G01 X108.9402 Y25.8402
G01 X111.2497 Y23.5307
G01 X111.2497 Y18.4500
G01 X110.9000 Y18.4500
G01 X110.8853 Y18.4493
G01 X110.8707 Y18.4471
G01 X110.8565 Y18.4435
G01 X110.8426 Y18.4386
G01 X110.8293 Y18.4323
G01 X110.8167 Y18.4247
G01 X110.8048 Y18.4160
G01 X110.7939 Y18.4061
G01 X110.7840 Y18.3952
G01 X110.7753 Y18.3833
G01 X110.7677 Y18.3707
G01 X110.7614 Y18.3574
G01 X110.7565 Y18.3435
G01 X110.7529 Y18.3293
G01 X110.7507 Y18.3147
G01 X110.7500 Y18.3000
G01 X110.7500 Y15.3000
G01 X110.7507 Y15.2853
G01 X110.7529 Y15.2707
G01 X110.7565 Y15.2565
G01 X110.7614 Y15.2426
G01 X110.7677 Y15.2293
G01 X110.7753 Y15.2167
G01 X110.7840 Y15.2048
G01 X110.7939 Y15.1939
G01 X110.8048 Y15.1840
G01 X110.8167 Y15.1753
G01 X110.8293 Y15.1677
G01 X110.8426 Y15.1614
G01 X110.8565 Y15.1565
G01 X110.8707 Y15.1529
G01 X110.8853 Y15.1507
G01 X110.9000 Y15.1500
G01 X111.2497 Y15.1500
G01 X111.2497 Y13.5693
G01 X110.1307 Y12.4503
G01 X108.3600 Y12.4503
G01 X108.3036 Y12.4477
G01 X108.2890 Y12.4462
G01 X108.2404 Y12.4390
G01 X108.2260 Y12.4361
G01 X108.1783 Y12.4242
G01 X108.1643 Y12.4199
G01 X108.1180 Y12.4034
G01 X108.1044 Y12.3978
G01 X108.0601 Y12.3768
G01 X108.0471 Y12.3698
G01 X108.0050 Y12.3446
G01 X107.9927 Y12.3364
G01 X107.9533 Y12.3072
G01 X107.9419 Y12.2978
G01 X107.9002 Y12.2598
G01 X105.9002 Y10.2598
G01 X105.8622 Y10.2181
G01 X105.8528 Y10.2067
G01 X105.8236 Y10.1673
G01 X105.8154 Y10.1550
G01 X105.7902 Y10.1129
G01 X105.7832 Y10.0999
G01 X105.7622 Y10.0556
G01 X105.7566 Y10.0420
G01 X105.7401 Y9.9957
G01 X105.7358 Y9.9817
G01 X105.7239 Y9.9340
G01 X105.7210 Y9.9196
G01 X105.7138 Y9.8710
G01 X105.7123 Y9.8564
G01 X105.7097 Y9.8000
G01 X105.7097 Y8.7089
G01 X105.6582 Y8.6622
G01 X105.6478 Y8.6518
G01 X105.5918 Y8.5900
G01 X105.5825 Y8.5786
G01 X105.5328 Y8.5116
G01 X105.5246 Y8.4994
G01 X105.4952 Y8.4503
G01 X102.2648 Y8.4503
G01 X102.2354 Y8.4994
G01 X102.2272 Y8.5116
G01 X102.1775 Y8.5786
G01 X102.1682 Y8.5900
G01 X102.1122 Y8.6518
G01 X102.1018 Y8.6622
G01 X102.0400 Y8.7182
G01 X102.0286 Y8.7275
G01 X101.9616 Y8.7772
G01 X101.9494 Y8.7854
G01 X101.8778 Y8.8283
G01 X101.8648 Y8.8352
G01 X101.7894 Y8.8709
G01 X101.7758 Y8.8765
G01 X101.6973 Y8.9046
G01 X101.6832 Y8.9089
G01 X101.6023 Y8.9292
G01 X101.5878 Y8.9320
G01 X101.5053 Y8.9443
G01 X101.4907 Y8.9457
G01 X101.4074 Y8.9498
G01 X101.3926 Y8.9498
G01 X101.3093 Y8.9457
G01 X101.2947 Y8.9443
G01 X101.2122 Y8.9320
G01 X101.1977 Y8.9292
G01 X101.1168 Y8.9089
G01 X101.1027 Y8.9046
G01 X101.0242 Y8.8765
G01 X101.0106 Y8.8709
G01 X100.9352 Y8.8352
G01 X100.9222 Y8.8283
G01 X100.8506 Y8.7854
G01 X100.8384 Y8.7772
G01 X100.7714 Y8.7275
G01 X100.7600 Y8.7182
G01 X100.6982 Y8.6622
G01 X100.6878 Y8.6518
G01 X100.6318 Y8.5900
G01 X100.6225 Y8.5786
G01 X100.5728 Y8.5116
G01 X100.5646 Y8.4994
G01 X100.5217 Y8.4278
G01 X100.5148 Y8.4148
G01 X100.4791 Y8.3394
G01 X100.4735 Y8.3258
G01 X100.4454 Y8.2473
G01 X100.4411 Y8.2332
G01 X100.4208 Y8.1523
G01 X100.4180 Y8.1378
G01 X100.4057 Y8.0553
G01 X100.4043 Y8.0407
G01 X100.4000 Y7.9500
G01 X100.4002 Y7.6426
G01 X100.4043 Y7.5593
G01 X100.4057 Y7.5447
G01 X100.4180 Y7.4622
G01 X100.4208 Y7.4477
G01 X100.4411 Y7.3668
G01 X100.4454 Y7.3527
G01 X100.4735 Y7.2742
G01 X100.4791 Y7.2606
G01 X100.5148 Y7.1852
G01 X100.5217 Y7.1722
G01 X100.5646 Y7.1006
G01 X100.5728 Y7.0884
G01 X100.6225 Y7.0214
G01 X100.6318 Y7.0100
G01 X100.6878 Y6.9482
G01 X100.6982 Y6.9378
G01 X100.7600 Y6.8818
G01 X100.7714 Y6.8725
G01 X100.8384 Y6.8228
G01 X100.8506 Y6.8146
G01 X100.9222 Y6.7717
G01 X100.9352 Y6.7648
G01 X101.0106 Y6.7291
G01 X101.0242 Y6.7235
G01 X101.1027 Y6.6954
G01 X101.1168 Y6.6911
G01 X101.1977 Y6.6708
G01 X101.2122 Y6.6680
G01 X101.2947 Y6.6557
G01 X101.3093 Y6.6543
G01 X101.3926 Y6.6502
G01 X101.4074 Y6.6502
G01 X101.4907 Y6.6543
G01 X101.5053 Y6.6557
G01 X101.5878 Y6.6680
G01 X101.6023 Y6.6708
G01 X101.6832 Y6.6911
G01 X101.6973 Y6.6954
G01 X101.7758 Y6.7235
G01 X101.7894 Y6.7291
G01 X101.8648 Y6.7648
G01 X101.8778 Y6.7717
G01 X101.9494 Y6.8146
G01 X101.9616 Y6.8228
G01 X102.0286 Y6.8725
G01 X102.0400 Y6.8818
G01 X102.1018 Y6.9378
G01 X102.1122 Y6.9482
G01 X102.1682 Y7.0100
G01 X102.1775 Y7.0214
G01 X102.2272 Y7.0884
G01 X102.2354 Y7.1006
G01 X102.2648 Y7.1497
G01 X105.4952 Y7.1497
G01 X105.5246 Y7.1006
G01 X105.5328 Y7.0884
G01 X105.5825 Y7.0214
G01 X105.5918 Y7.0100
G01 X105.6478 Y6.9482
G01 X105.6582 Y6.9378
G01 X105.7200 Y6.8818
G01 X105.7314 Y6.8725
G01 X105.7984 Y6.8228
G01 X105.8106 Y6.8146
G01 X105.8822 Y6.7717
G01 X105.8952 Y6.7648
G01 X105.9706 Y6.7291
G01 X105.9842 Y6.7235
G01 X106.0627 Y6.6954
G01 X106.0768 Y6.6911
G01 X106.1577 Y6.6708
G01 X106.1722 Y6.6680
G01 X106.2547 Y6.6557
G01 X106.2693 Y6.6543
G01 X106.3526 Y6.6502
G01 X106.3674 Y6.6502
G01 X106.4507 Y6.6543
G01 X106.4653 Y6.6557
G01 X106.5478 Y6.6680
G01 X106.5623 Y6.6708
G01 X106.6432 Y6.6911
G01 X106.6573 Y6.6954
G01 X106.7358 Y6.7235
G01 X106.7494 Y6.7291
G01 X106.8248 Y6.7648
G01 X106.8378 Y6.7717
G01 X106.9094 Y6.8146
G01 X106.9216 Y6.8228
G01 X106.9886 Y6.8725
G01 X107.0000 Y6.8818
G01 X107.0618 Y6.9378
G01 X107.0722 Y6.9482
G01 X107.1282 Y7.0100
G01 X107.1375 Y7.0214
G01 X107.1872 Y7.0884
G01 X107.1954 Y7.1006
G01 X107.2383 Y7.1722
G01 X107.2452 Y7.1852
G01 X107.2809 Y7.2606
G01 X107.2865 Y7.2742
G01 X107.3146 Y7.3527
G01 X107.3189 Y7.3668
G01 X107.3392 Y7.4477
G01 X107.3420 Y7.4622
G01 X107.3543 Y7.5447
G01 X107.3557 Y7.5593
G01 X107.3598 Y7.6426
G01 X107.3600 Y7.9500
G01 X107.3557 Y8.0407
G01 X107.3543 Y8.0553
G01 X107.3420 Y8.1378
G01 X107.3392 Y8.1523
G01 X107.3189 Y8.2332
G01 X107.3146 Y8.2473
G01 X107.2865 Y8.3258
G01 X107.2809 Y8.3394
G01 X107.2452 Y8.4148
G01 X107.2383 Y8.4278
G01 X107.1954 Y8.4994
G01 X107.1872 Y8.5116
G01 X107.1375 Y8.5786
G01 X107.1282 Y8.5900
G01 X107.0722 Y8.6518
G01 X107.0618 Y8.6622
G01 X107.0103 Y8.7089
G01 X107.0103 Y9.5307
G01 X108.6293 Y11.1497
G01 X110.4000 Y11.1497
G01 X110.4564 Y11.1523
G01 X110.4710 Y11.1538
G01 X110.5196 Y11.1610
G01 X110.5340 Y11.1639
G01 X110.5817 Y11.1758
G01 X110.5957 Y11.1801
G01 X110.6420 Y11.1966
G01 X110.6556 Y11.2022
G01 X110.6999 Y11.2232
G01 X110.7129 Y11.2302
G01 X110.7550 Y11.2554
G01 X110.7673 Y11.2636
G01 X110.8067 Y11.2928
G01 X110.8181 Y11.3022
G01 X110.8598 Y11.3402
G01 X112.3598 Y12.8402
G01 X112.3978 Y12.8819
G01 X112.4072 Y12.8933
G01 X112.4364 Y12.9327
G01 X112.4446 Y12.9450
G01 X112.4698 Y12.9871
G01 X112.4768 Y13.0001
G01 X112.4978 Y13.0444
G01 X112.5034 Y13.0580
G01 X112.5199 Y13.1043
G01 X112.5242 Y13.1183
G01 X112.5361 Y13.1660
G01 X112.5390 Y13.1804
G01 X112.5462 Y13.2290
G01 X112.5477 Y13.2436
G01 X112.5501 Y13.2926
G01 X112.5503 Y15.1500
G01 X112.9000 Y15.1500
G01 X112.9147 Y15.1507
G01 X112.9293 Y15.1529
G01 X112.9435 Y15.1565
G01 X112.9574 Y15.1614
G01 X112.9707 Y15.1677
G01 X112.9833 Y15.1753
G01 X112.9952 Y15.1840
G01 X113.0061 Y15.1939
G01 X113.0160 Y15.2048
G01 X113.0247 Y15.2167
G01 X113.0323 Y15.2293
G01 X113.0386 Y15.2426
G01 X113.0435 Y15.2565
G01 X113.0471 Y15.2707
G01 X113.0493 Y15.2853
G01 X113.0500 Y15.3000
G01 X113.0500 Y18.3000
G01 X113.0493 Y18.3147
G01 X113.0471 Y18.3293
G01 X113.0435 Y18.3435
G01 X113.0386 Y18.3574
G01 X113.0323 Y18.3707
G01 X113.0247 Y18.3833
G01 X113.0160 Y18.3952
G01 X113.0061 Y18.4061
G01 X112.9952 Y18.4160
G01 X112.9833 Y18.4247
G01 X112.9707 Y18.4323
G01 X112.9574 Y18.4386
G01 X112.9435 Y18.4435
G01 X112.9293 Y18.4471
G01 X112.9147 Y18.4493
G01 X112.9000 Y18.4500
G01 X112.5503 Y18.4500
G01 X112.5503 Y23.8000
G01 X112.5477 Y23.8564
G01 X112.5462 Y23.8710
G01 X112.5390 Y23.9196
G01 X112.5361 Y23.9340
G01 X112.5242 Y23.9817
G01 X112.5199 Y23.9957
G01 X112.5034 Y24.0420
G01 X112.4978 Y24.0556
G01 X112.4768 Y24.0999
G01 X112.4698 Y24.1129
G01 X112.4446 Y24.1550
G01 X112.4364 Y24.1673
G01 X112.4072 Y24.2067
G01 X112.3978 Y24.2181
G01 X112.3649 Y24.2545
G01 X110.0503 Y26.5693
G01 X110.0503 Y28.8952
G01 X110.0994 Y28.9246
G01 X110.1116 Y28.9328
G01 X110.1786 Y28.9825
G01 X110.1900 Y28.9918
G01 X110.2518 Y29.0478
G01 X110.2622 Y29.0582
G01 X110.3182 Y29.1200
G01 X110.3275 Y29.1314
G01 X110.3772 Y29.1984
G01 X110.3854 Y29.2106
G01 X110.4283 Y29.2822
G01 X110.4352 Y29.2952
G01 X110.4709 Y29.3706
G01 X110.4765 Y29.3842
G01 X110.5046 Y29.4627
G01 X110.5089 Y29.4768
G01 X110.5292 Y29.5577
G01 X110.5320 Y29.5722
G01 X110.5443 Y29.6547
G01 X110.5457 Y29.6693
G01 X110.5498 Y29.7526
G01 X110.5498 Y29.7674
G01 X110.5457 Y29.8507
G01 X110.5443 Y29.8653
G01 X110.5320 Y29.9478
G01 X110.5292 Y29.9623
G01 X110.5089 Y30.0432
G01 X110.5046 Y30.0573
G01 X110.4765 Y30.1358
G01 X110.4709 Y30.1494
G01 X110.4352 Y30.2248
G01 X110.4283 Y30.2378
G01 X110.3854 Y30.3094
G01 X110.3772 Y30.3216
G01 X110.3275 Y30.3886
G01 X110.3182 Y30.4000
G01 X110.2622 Y30.4618
G01 X110.2518 Y30.4722
G01 X110.1900 Y30.5282
G01 X110.1786 Y30.5375
G01 X110.1116 Y30.5872
G01 X110.0994 Y30.5954
G01 X110.0278 Y30.6383
G01 X110.0148 Y30.6452
G01 X109.9394 Y30.6809
G01 X109.9258 Y30.6865
G01 X109.8473 Y30.7146
G01 X109.8332 Y30.7189
G01 X109.7523 Y30.7392
G01 X109.7378 Y30.7420
G01 X109.6553 Y30.7543
G01 X109.6407 Y30.7557
G01 X109.5500 Y30.7600
G01 X109.2500 Y30.7600
G01 X109.1593 Y30.7557
G01 X109.1447 Y30.7543
G01 X109.0622 Y30.7420
G01 X109.0477 Y30.7392
G01 X108.9668 Y30.7189
G01 X108.9527 Y30.7146
G01 X108.8742 Y30.6865
G01 X108.8606 Y30.6809
G01 X108.7852 Y30.6452
G01 X108.7722 Y30.6383
G01 X108.7006 Y30.5954
G01 X108.6884 Y30.5872
G01 X108.6214 Y30.5375
G01 X108.6100 Y30.5282
G01 X108.5482 Y30.4722
G01 X108.5378 Y30.4618
G01 X108.4911 Y30.4103
G01 X106.5503 Y30.4103
G01 X106.5501 Y33.3074
G01 X106.5477 Y33.3564
G01 X106.5462 Y33.3710
G01 X106.5390 Y33.4196
G01 X106.5361 Y33.4340
G01 X106.5242 Y33.4817
G01 X106.5199 Y33.4957
G01 X106.5034 Y33.5420
G01 X106.4978 Y33.5556
G01 X106.4768 Y33.5999
G01 X106.4698 Y33.6129
G01 X106.4446 Y33.6550
G01 X106.4364 Y33.6673
G01 X106.4072 Y33.7067
G01 X106.3978 Y33.7181
G01 X106.3598 Y33.7598
G01 X101.3598 Y38.7598
G01 X101.3181 Y38.7978
G01 X101.3067 Y38.8072
G01 X101.2673 Y38.8364
G01 X101.2550 Y38.8446
G01 X101.2129 Y38.8698
G01 X101.1999 Y38.8768
G01 X101.1556 Y38.8978
G01 X101.1420 Y38.9034
G01 X101.0957 Y38.9199
G01 X101.0817 Y38.9242
G01 X101.0340 Y38.9361
G01 X101.0196 Y38.9390
G01 X100.9710 Y38.9462
G01 X100.9564 Y38.9477
G01 X100.9000 Y38.9503
G01 X95.6693 Y38.9503
G01 X92.3598 Y42.2598
G01 X92.3181 Y42.2978
G01 X92.3067 Y42.3072
G01 X92.2673 Y42.3364
G01 X92.2550 Y42.3446
G01 X92.2129 Y42.3698
G01 X92.1999 Y42.3768
G01 X92.1556 Y42.3978
G01 X92.1420 Y42.4034
G01 X92.0957 Y42.4199
G01 X92.0817 Y42.4242
G01 X92.0340 Y42.4361
G01 X92.0196 Y42.4390
G01 X91.9710 Y42.4462
G01 X91.9564 Y42.4477
G01 X91.9000 Y42.4503
G01 X91.1693 Y42.4503
G01 X90.0301 Y43.5895
G01 X90.0436 Y43.6800
G01 X90.0450 Y43.6946
G01 X90.0498 Y43.7926
G01 X90.0498 Y43.8074
G01 X90.0450 Y43.9054
G01 X90.0436 Y43.9200
G01 X90.0292 Y44.0171
G01 X90.0263 Y44.0315
G01 X90.0024 Y44.1267
G01 X89.9982 Y44.1408
G01 X89.9651 Y44.2332
G01 X89.9595 Y44.2468
G01 X89.9175 Y44.3355
G01 X89.9106 Y44.3485
G01 X89.8601 Y44.4327
G01 X89.8520 Y44.4449
G01 X89.7935 Y44.5237
G01 X89.7842 Y44.5351
G01 X89.7182 Y44.6078
G01 X89.7078 Y44.6182
G01 X89.6351 Y44.6842
G01 X89.6237 Y44.6935
G01 X89.5503 Y44.7480
G01 X89.5503 Y46.3520
G01 X89.6237 Y46.4065
G01 X89.6351 Y46.4158
G01 X89.7078 Y46.4818
G01 X89.7182 Y46.4922
G01 X89.7842 Y46.5649
G01 X89.7935 Y46.5763
G01 X89.8520 Y46.6551
G01 X89.8601 Y46.6673
G01 X89.9106 Y46.7515
G01 X89.9175 Y46.7645
G01 X89.9595 Y46.8532
G01 X89.9651 Y46.8668
G01 X89.9982 Y46.9592
G01 X90.0024 Y46.9733
G01 X90.0263 Y47.0685
G01 X90.0292 Y47.0829
G01 X90.0436 Y47.1800
G01 X90.0450 Y47.1946
G01 X90.0498 Y47.2926
G01 X90.0498 Y47.3074
G01 X90.0450 Y47.4054
G01 X90.0436 Y47.4200
G01 X90.0292 Y47.5171
G01 X90.0263 Y47.5315
G01 X90.0024 Y47.6267
G01 X89.9982 Y47.6408
G01 X89.9651 Y47.7332
G01 X89.9595 Y47.7468
G01 X89.9175 Y47.8355
G01 X89.9106 Y47.8485
G01 X89.8601 Y47.9327
G01 X89.8520 Y47.9449
G01 X89.7935 Y48.0237
G01 X89.7842 Y48.0351
G01 X89.7182 Y48.1078
G01 X89.7078 Y48.1182
G01 X89.6351 Y48.1842
G01 X89.6237 Y48.1935
G01 X89.5503 Y48.2480
G01 X89.5503 Y55.3520
G01 X89.6237 Y55.4065
G01 X89.6351 Y55.4158
G01 X89.7078 Y55.4818
G01 X89.7182 Y55.4922
G01 X89.7842 Y55.5649
G01 X89.7935 Y55.5763
G01 X89.8520 Y55.6551
G01 X89.8601 Y55.6673
G01 X89.9106 Y55.7515
G01 X89.9175 Y55.7645
G01 X89.9595 Y55.8532
G01 X89.9651 Y55.8668
G01 X89.9982 Y55.9592
G01 X90.0024 Y55.9733
G01 X90.0263 Y56.0685
G01 X90.0292 Y56.0829
G01 X90.0436 Y56.1800
G01 X90.0450 Y56.1946
G01 X90.0498 Y56.2926
G01 X90.0498 Y56.3074
G01 X90.0450 Y56.4054
G01 X90.0436 Y56.4200
G01 X90.0292 Y56.5171
G01 X90.0263 Y56.5315
G01 X90.0024 Y56.6267
G01 X89.9982 Y56.6408
G01 X89.9651 Y56.7332
G01 X89.9595 Y56.7468
G01 X89.9175 Y56.8355
G01 X89.9106 Y56.8485
G01 X89.8601 Y56.9327
G01 X89.8520 Y56.9449
G01 X89.7935 Y57.0237
G01 X89.7842 Y57.0351
G01 X89.7182 Y57.1078
G01 X89.7078 Y57.1182
G01 X89.6351 Y57.1842
G01 X89.6237 Y57.1935
G01 X89.5449 Y57.2520
G01 X89.5327 Y57.2601
G01 X89.4485 Y57.3106
G01 X89.4355 Y57.3175
G01 X89.3468 Y57.3595
G01 X89.3332 Y57.3651
G01 X89.2408 Y57.3982
G01 X89.2267 Y57.4024
G01 X89.1315 Y57.4263
G01 X89.1171 Y57.4292
G01 X89.0200 Y57.4436
G01 X89.0054 Y57.4450
G01 X88.9074 Y57.4498
G01 X88.8926 Y57.4498
G01 X88.7946 Y57.4450
G01 X88.7800 Y57.4436
G01 X88.6829 Y57.4292
G01 X88.6685 Y57.4263
G01 X88.5733 Y57.4024
G01 X88.5592 Y57.3982
G01 X88.4668 Y57.3651
G01 X88.4532 Y57.3595
G01 X88.3645 Y57.3175
G01 X88.3515 Y57.3106
G01 X88.2673 Y57.2601
G01 X88.2551 Y57.2520
G01 X88.1763 Y57.1935
G01 X88.1649 Y57.1842
G01 X88.0922 Y57.1182
G01 X88.0818 Y57.1078
G01 X88.0158 Y57.0351
G01 X88.0065 Y57.0237
G01 X87.9480 Y56.9449
G01 X87.9399 Y56.9327
G01 X87.8894 Y56.8485
G01 X87.8825 Y56.8355
G01 X87.8405 Y56.7468
G01 X87.8349 Y56.7332
G01 X87.8018 Y56.6408
G01 X87.7976 Y56.6267
G01 X87.7737 Y56.5315
G01 X87.7708 Y56.5171
G01 X87.7564 Y56.4200
G01 X87.7550 Y56.4054
G01 X87.7502 Y56.3074
G01 X87.7502 Y56.2926
G01 X87.7550 Y56.1946
G01 X87.7564 Y56.1800
G01 X87.7708 Y56.0829
G01 X87.7737 Y56.0685
G01 X87.7976 Y55.9733
G01 X87.8018 Y55.9592
G01 X87.8349 Y55.8668
G01 X87.8405 Y55.8532
G01 X87.8825 Y55.7645
G01 X87.8894 Y55.7515
G01 X87.9399 Y55.6673
G01 X87.9480 Y55.6551
G01 X88.0065 Y55.5763
G01 X88.0158 Y55.5649
G01 X88.0818 Y55.4922
G01 X88.0922 Y55.4818
G01 X88.1649 Y55.4158
G01 X88.1763 Y55.4065
G01 X88.2497 Y55.3520
G01 X88.2497 Y55.1551
G01 X87.9402 Y54.8456
G01 X87.9022 Y54.8039
G01 X87.8928 Y54.7925
G01 X87.8636 Y54.7531
G01 X87.8554 Y54.7408
G01 X87.8302 Y54.6987
G01 X87.8232 Y54.6857
G01 X87.8022 Y54.6414
G01 X87.7966 Y54.6278
G01 X87.7801 Y54.5815
G01 X87.7758 Y54.5674
G01 X87.7639 Y54.5198
G01 X87.7610 Y54.5054
G01 X87.7538 Y54.4568
G01 X87.7531 Y54.4503
G01 X86.1693 Y54.4503
G01 X81.3598 Y59.2598
G01 X81.3181 Y59.2978
G01 X81.3067 Y59.3072
G01 X81.2673 Y59.3364
G01 X81.2550 Y59.3446
G01 X81.2129 Y59.3698
G01 X81.1999 Y59.3768
G01 X81.1556 Y59.3978
G01 X81.1420 Y59.4034
G01 X81.0957 Y59.4199
G01 X81.0817 Y59.4242
G01 X81.0340 Y59.4361
G01 X81.0196 Y59.4390
G01 X80.9710 Y59.4462
G01 X80.9564 Y59.4477
G01 X80.9000 Y59.4503
G01 X75.9000 Y59.4503
G01 X75.8436 Y59.4477
G01 X75.8290 Y59.4462
G01 X75.7804 Y59.4390
G01 X75.7660 Y59.4361
G01 X75.7183 Y59.4242
G01 X75.7043 Y59.4199
G01 X75.6580 Y59.4034
G01 X75.6444 Y59.3978
G01 X75.6001 Y59.3768
G01 X75.5871 Y59.3698
G01 X75.5450 Y59.3446
G01 X75.5327 Y59.3364
G01 X75.4933 Y59.3072
G01 X75.4819 Y59.2978
G01 X75.4402 Y59.2598
G01 X70.6307 Y54.4503
G01 X52.3480 Y54.4503
G01 X52.2935 Y54.5237
G01 X52.2842 Y54.5351
G01 X52.2182 Y54.6078
G01 X52.2078 Y54.6182
G01 X52.1351 Y54.6842
G01 X52.1237 Y54.6935
G01 X52.0449 Y54.7520
G01 X52.0327 Y54.7601
G01 X51.9485 Y54.8106
G01 X51.9355 Y54.8175
G01 X51.8468 Y54.8595
G01 X51.8332 Y54.8651
G01 X51.7408 Y54.8982
G01 X51.7267 Y54.9024
G01 X51.6315 Y54.9263
G01 X51.6171 Y54.9292
G01 X51.5200 Y54.9436
G01 X51.5054 Y54.9450
G01 X51.4074 Y54.9498
G01 X51.3926 Y54.9498
G01 X51.2946 Y54.9450
G01 X51.2800 Y54.9436
G01 X51.1829 Y54.9292
G01 X51.1685 Y54.9263
G01 X51.0733 Y54.9024
G01 X51.0592 Y54.8982
G01 X50.9668 Y54.8651
G01 X50.9532 Y54.8595
G01 X50.8645 Y54.8175
G01 X50.8515 Y54.8106
G01 X50.7673 Y54.7601
G01 X50.7551 Y54.7520
G01 X50.6763 Y54.6935
G01 X50.6649 Y54.6842
G01 X50.5922 Y54.6182
G01 X50.5818 Y54.6078
G01 X50.5158 Y54.5351
G01 X50.5065 Y54.5237
G01 X50.4520 Y54.4503
G01 X48.8480 Y54.4503
G01 X48.7935 Y54.5237
G01 X48.7842 Y54.5351
G01 X48.7182 Y54.6078
G01 X48.7078 Y54.6182
G01 X48.6351 Y54.6842
G01 X48.6237 Y54.6935
G01 X48.5449 Y54.7520
G01 X48.5327 Y54.7601
G01 X48.4485 Y54.8106
G01 X48.4355 Y54.8175
G01 X48.3468 Y54.8595
G01 X48.3332 Y54.8651
G01 X48.2408 Y54.8982
G01 X48.2267 Y54.9024
G01 X48.1315 Y54.9263
G01 X48.1171 Y54.9292
G01 X48.0200 Y54.9436
G01 X48.0054 Y54.9450
G01 X47.9074 Y54.9498
G01 X47.8926 Y54.9498
G01 X47.7946 Y54.9450
G01 X47.7800 Y54.9436
G01 X47.6829 Y54.9292
G01 X47.6685 Y54.9263
G01 X47.5733 Y54.9024
G01 X47.5592 Y54.8982
G01 X47.4668 Y54.8651
G01 X47.4532 Y54.8595
G01 X47.3645 Y54.8175
G01 X47.3515 Y54.8106
G01 X47.2673 Y54.7601
G01 X47.2551 Y54.7520
G01 X47.1763 Y54.6935
G01 X47.1649 Y54.6842
G01 X47.0922 Y54.6182
G01 X47.0818 Y54.6078
G01 X47.0158 Y54.5351
G01 X47.0065 Y54.5237
G01 X46.9520 Y54.4503
G01 X45.3480 Y54.4503
G01 X45.2935 Y54.5237
G01 X45.2842 Y54.5351
G01 X45.2182 Y54.6078
G01 X45.2078 Y54.6182
G01 X45.1351 Y54.6842
G01 X45.1237 Y54.6935
G01 X45.0449 Y54.7520
G01 X45.0327 Y54.7601
G01 X44.9485 Y54.8106
G01 X44.9355 Y54.8175
G01 X44.8468 Y54.8595
G01 X44.8332 Y54.8651
G01 X44.7408 Y54.8982
G01 X44.7267 Y54.9024
G01 X44.6315 Y54.9263
G01 X44.6171 Y54.9292
G01 X44.5200 Y54.9436
G01 X44.5054 Y54.9450
G01 X44.4074 Y54.9498
G01 X44.3926 Y54.9498
G01 X44.2946 Y54.9450
G01 X44.2800 Y54.9436
G01 X44.1829 Y54.9292
G01 X44.1685 Y54.9263
G01 X44.0733 Y54.9024
G01 X44.0592 Y54.8982
G01 X43.9668 Y54.8651
G01 X43.9532 Y54.8595
G01 X43.8645 Y54.8175
G01 X43.8515 Y54.8106
G01 X43.7673 Y54.7601
G01 X43.7551 Y54.7520
G01 X43.6763 Y54.6935
G01 X43.6649 Y54.6842
G01 X43.5922 Y54.6182
G01 X43.5818 Y54.6078
G01 X43.5158 Y54.5351
G01 X43.5065 Y54.5237
G01 X43.4520 Y54.4503
G01 X39.4000 Y54.4503
G01 X39.3436 Y54.4477
G01 X39.3290 Y54.4462
G01 X39.2804 Y54.4390
G01 X39.2660 Y54.4361
G01 X39.2183 Y54.4242
G01 X39.2043 Y54.4199
G01 X39.1580 Y54.4034
G01 X39.1444 Y54.3978
G01 X39.1001 Y54.3768
G01 X39.0871 Y54.3698
G01 X39.0450 Y54.3446
G01 X39.0327 Y54.3364
G01 X38.9933 Y54.3072
G01 X38.9819 Y54.2978
G01 X38.9455 Y54.2649
G01 X38.4402 Y53.7598
G01 X38.4022 Y53.7181
G01 X38.3928 Y53.7067
G01 X38.3636 Y53.6673
G01 X38.3554 Y53.6550
G01 X38.3302 Y53.6129
G01 X38.3232 Y53.5999
G01 X38.3022 Y53.5556
G01 X38.2966 Y53.5420
G01 X38.2801 Y53.4957
G01 X38.2758 Y53.4817
G01 X38.2639 Y53.4340
G01 X38.2610 Y53.4196
G01 X38.2538 Y53.3710
G01 X38.2523 Y53.3564
G01 X38.2497 Y53.3000
G01 X38.2497 Y48.8000
G01 X38.2523 Y48.7436
G01 X38.2538 Y48.7290
G01 X38.2610 Y48.6804
G01 X38.2639 Y48.6660
G01 X38.2758 Y48.6183
G01 X38.2801 Y48.6043
G01 X38.2966 Y48.5580
G01 X38.3022 Y48.5444
G01 X38.3232 Y48.5001
G01 X38.3302 Y48.4871
G01 X38.3554 Y48.4450
G01 X38.3636 Y48.4327
G01 X38.3928 Y48.3933
G01 X38.4022 Y48.3819
G01 X38.4402 Y48.3402
G01 X41.4402 Y45.3402
G01 X41.4819 Y45.3022
G01 X41.4933 Y45.2928
G01 X41.5327 Y45.2636
G01 X41.5450 Y45.2554
G01 X41.5871 Y45.2302
G01 X41.6001 Y45.2232
G01 X41.6444 Y45.2022
G01 X41.6580 Y45.1966
G01 X41.7043 Y45.1801
G01 X41.7183 Y45.1758
G01 X41.7660 Y45.1639
G01 X41.7804 Y45.1610
G01 X41.8290 Y45.1538
G01 X41.8436 Y45.1523
G01 X41.9000 Y45.1497
G01 X45.6307 Y45.1497
G01 X46.1182 Y44.6622
G01 X46.1078 Y44.6518
G01 X46.0518 Y44.5900
G01 X46.0425 Y44.5786
G01 X45.9928 Y44.5116
G01 X45.9846 Y44.4994
G01 X45.9417 Y44.4278
G01 X45.9348 Y44.4148
G01 X45.8991 Y44.3394
G01 X45.8935 Y44.3258
G01 X45.8654 Y44.2473
G01 X45.8611 Y44.2332
G01 X45.8408 Y44.1523
G01 X45.8380 Y44.1378
G01 X45.8257 Y44.0553
G01 X45.8243 Y44.0407
G01 X45.8200 Y43.9500
G01 X45.8200 Y43.6500
G01 X45.8243 Y43.5593
G01 X45.8257 Y43.5447
G01 X45.8380 Y43.4622
G01 X45.8408 Y43.4477
G01 X45.8611 Y43.3668
G01 X45.8654 Y43.3527
G01 X45.8935 Y43.2742
G01 X45.8991 Y43.2606
G01 X45.9348 Y43.1852
G01 X45.9417 Y43.1722
G01 X45.9846 Y43.1006
G01 X45.9928 Y43.0884
G01 X46.0425 Y43.0214
G01 X46.0518 Y43.0100
G01 X46.1078 Y42.9482
G01 X46.1182 Y42.9378
G01 X46.1697 Y42.8911
G01 X46.1697 Y40.7089
G01 X46.1182 Y40.6622
G01 X46.1078 Y40.6518
G01 X46.0518 Y40.5900
G01 X46.0425 Y40.5786
G01 X45.9928 Y40.5116
G01 X45.9846 Y40.4994
G01 X45.9417 Y40.4278
G01 X45.9348 Y40.4148
G01 X45.8991 Y40.3394
G01 X45.8935 Y40.3258
G01 X45.8654 Y40.2473
G01 X45.8611 Y40.2332
G01 X45.8408 Y40.1523
G01 X45.8380 Y40.1378
G01 X45.8257 Y40.0553
G01 X45.8243 Y40.0407
G01 X45.8202 Y39.9574
G01 X45.8200 Y39.6500
G01 X45.8243 Y39.5593
G01 X45.8257 Y39.5447
G01 X45.8380 Y39.4622
G01 X45.8408 Y39.4477
G01 X45.8611 Y39.3668
G01 X45.8654 Y39.3527
G01 X45.8935 Y39.2742
G01 X45.8991 Y39.2606
G01 X45.9348 Y39.1852
G01 X45.9417 Y39.1722
G01 X45.9846 Y39.1006
G01 X45.9928 Y39.0884
G01 X46.0425 Y39.0214
G01 X46.0518 Y39.0100
G01 X46.1078 Y38.9482
G01 X46.1182 Y38.9378
G01 X46.1697 Y38.8911
G01 X46.1697 Y36.7089
G01 X46.1182 Y36.6622
G01 X46.1078 Y36.6518
G01 X46.0518 Y36.5900
G01 X46.0425 Y36.5786
G01 X45.9928 Y36.5116
G01 X45.9846 Y36.4994
G01 X45.9552 Y36.4503
G01 X41.6693 Y36.4503
G01 X41.0503 Y37.0693
G01 X41.0503 Y37.8000
G01 X41.0477 Y37.8564
G01 X41.0462 Y37.8710
G01 X41.0390 Y37.9196
G01 X41.0361 Y37.9340
G01 X41.0242 Y37.9817
G01 X41.0199 Y37.9957
G01 X41.0034 Y38.0420
G01 X40.9978 Y38.0556
G01 X40.9768 Y38.0999
G01 X40.9698 Y38.1129
G01 X40.9446 Y38.1550
G01 X40.9364 Y38.1673
G01 X40.9072 Y38.2067
G01 X40.8978 Y38.2181
G01 X40.8649 Y38.2545
G01 X40.8545 Y38.2649
G01 X40.8181 Y38.2978
G01 X40.8067 Y38.3072
G01 X40.7673 Y38.3364
G01 X40.7550 Y38.3446
G01 X40.7129 Y38.3698
G01 X40.6999 Y38.3768
G01 X40.6556 Y38.3978
G01 X40.6420 Y38.4034
G01 X40.5957 Y38.4199
G01 X40.5817 Y38.4242
G01 X40.5340 Y38.4361
G01 X40.5196 Y38.4390
G01 X40.4710 Y38.4462
G01 X40.4564 Y38.4477
G01 X40.4000 Y38.4503
G01 X25.9000 Y38.4503
G01 X25.8436 Y38.4477
G01 X25.8290 Y38.4462
G01 X25.7804 Y38.4390
G01 X25.7660 Y38.4361
G01 X25.7183 Y38.4242
G01 X25.7043 Y38.4199
G01 X25.6580 Y38.4034
G01 X25.6444 Y38.3978
G01 X25.6001 Y38.3768
G01 X25.5871 Y38.3698
G01 X25.5450 Y38.3446
G01 X25.5327 Y38.3364
G01 X25.4933 Y38.3072
G01 X25.4819 Y38.2978
G01 X25.4402 Y38.2598
G01 X21.9402 Y34.7598
G01 X21.9022 Y34.7181
G01 X21.8928 Y34.7067
G01 X21.8636 Y34.6673
G01 X21.8554 Y34.6550
G01 X21.8302 Y34.6129
G01 X21.8232 Y34.5999
G01 X21.8022 Y34.5556
G01 X21.7966 Y34.5420
G01 X21.7801 Y34.4957
G01 X21.7758 Y34.4817
G01 X21.7639 Y34.4340
G01 X21.7610 Y34.4196
G01 X21.7538 Y34.3710
G01 X21.7523 Y34.3564
G01 X21.7499 Y34.3074
G01 X21.7497 Y32.5693
G01 X21.4402 Y32.2598
G01 X21.4022 Y32.2181
G01 X21.3928 Y32.2067
G01 X21.3636 Y32.1673
G01 X21.3554 Y32.1550
G01 X21.3302 Y32.1129
G01 X21.3232 Y32.0999
G01 X21.3022 Y32.0556
G01 X21.2966 Y32.0420
G01 X21.2801 Y31.9957
G01 X21.2758 Y31.9817
G01 X21.2639 Y31.9340
G01 X21.2610 Y31.9196
G01 X21.2538 Y31.8710
G01 X21.2523 Y31.8564
G01 X21.2497 Y31.8000
G01 X21.2497 Y27.9503
G01 X16.8089 Y27.9503
G01 X16.7622 Y28.0018
G01 X16.7518 Y28.0122
G01 X16.6900 Y28.0682
G01 X16.6786 Y28.0775
G01 X16.6116 Y28.1272
G01 X16.5994 Y28.1354
G01 X16.5278 Y28.1783
G01 X16.5148 Y28.1852
G01 X16.4394 Y28.2209
G01 X16.4258 Y28.2265
G01 X16.3473 Y28.2546
G01 X16.3332 Y28.2589
G01 X16.2523 Y28.2792
G01 X16.2378 Y28.2820
G01 X16.1553 Y28.2943
G01 X16.1407 Y28.2957
G01 X16.0500 Y28.3000
G01 X15.7500 Y28.3000
G01 X15.6593 Y28.2957
G01 X15.6447 Y28.2943
G01 X15.5622 Y28.2820
G01 X15.5477 Y28.2792
G01 X15.4668 Y28.2589
G01 X15.4527 Y28.2546
G01 X15.3742 Y28.2265
G01 X15.3606 Y28.2209
G01 X15.2852 Y28.1852
G01 X15.2722 Y28.1783
G01 X15.2006 Y28.1354
G01 X15.1884 Y28.1272
G01 X15.1214 Y28.0775
G01 X15.1100 Y28.0682
G01 X15.0482 Y28.0122
G01 X15.0378 Y28.0018
G01 X14.9911 Y27.9503
G01 X14.1693 Y27.9503
G01 X12.5503 Y29.5693
G01 X12.5503 Y36.5307
G01 X12.6693 Y36.6497
G01 X15.0207 Y36.6497
G01 X15.2497 Y36.4207
G01 X15.2497 Y35.7048
G01 X15.2006 Y35.6754
G01 X15.1884 Y35.6672
G01 X15.1214 Y35.6175
G01 X15.1100 Y35.6082
G01 X15.0482 Y35.5522
G01 X15.0378 Y35.5418
G01 X14.9818 Y35.4800
G01 X14.9725 Y35.4686
G01 X14.9228 Y35.4016
G01 X14.9146 Y35.3894
G01 X14.8717 Y35.3178
G01 X14.8648 Y35.3048
G01 X14.8291 Y35.2294
G01 X14.8235 Y35.2158
G01 X14.7954 Y35.1373
G01 X14.7911 Y35.1232
G01 X14.7708 Y35.0423
G01 X14.7680 Y35.0278
G01 X14.7557 Y34.9453
G01 X14.7543 Y34.9307
G01 X14.7502 Y34.8474
G01 X14.7502 Y34.8326
G01 X14.7543 Y34.7493
G01 X14.7557 Y34.7347
G01 X14.7680 Y34.6522
G01 X14.7708 Y34.6377
G01 X14.7911 Y34.5568
G01 X14.7954 Y34.5427
G01 X14.8235 Y34.4642
G01 X14.8291 Y34.4506
G01 X14.8648 Y34.3752
G01 X14.8717 Y34.3622
G01 X14.9146 Y34.2906
G01 X14.9228 Y34.2784
G01 X14.9725 Y34.2114
G01 X14.9818 Y34.2000
G01 X15.0378 Y34.1382
G01 X15.0482 Y34.1278
G01 X15.1100 Y34.0718
G01 X15.1214 Y34.0625
G01 X15.1884 Y34.0128
G01 X15.2006 Y34.0046
G01 X15.2722 Y33.9617
G01 X15.2852 Y33.9548
G01 X15.3606 Y33.9191
G01 X15.3742 Y33.9135
G01 X15.4527 Y33.8854
G01 X15.4668 Y33.8811
G01 X15.5477 Y33.8608
G01 X15.5622 Y33.8580
G01 X15.6447 Y33.8457
G01 X15.6593 Y33.8443
G01 X15.7500 Y33.8400
G01 X16.0500 Y33.8400
G01 X16.1407 Y33.8443
G01 X16.1553 Y33.8457
G01 X16.2378 Y33.8580
G01 X16.2523 Y33.8608
G01 X16.3332 Y33.8811
G01 X16.3473 Y33.8854
G01 X16.4258 Y33.9135
G01 X16.4394 Y33.9191
G01 X16.5148 Y33.9548
G01 X16.5278 Y33.9617
G01 X16.5994 Y34.0046
G01 X16.6116 Y34.0128
G01 X16.6786 Y34.0625
G01 X16.6900 Y34.0718
G01 X16.7518 Y34.1278
G01 X16.7622 Y34.1382
G01 X16.8182 Y34.2000
G01 X16.8275 Y34.2114
G01 X16.8772 Y34.2784
G01 X16.8854 Y34.2906
G01 X16.9283 Y34.3622
G01 X16.9352 Y34.3752
G01 X16.9709 Y34.4506
G01 X16.9765 Y34.4642
G01 X17.0046 Y34.5427
G01 X17.0089 Y34.5568
G01 X17.0292 Y34.6377
G01 X17.0320 Y34.6522
G01 X17.0443 Y34.7347
G01 X17.0457 Y34.7493
G01 X17.0498 Y34.8326
G01 X17.0498 Y34.8474
G01 X17.0457 Y34.9307
G01 X17.0443 Y34.9453
G01 X17.0320 Y35.0278
G01 X17.0292 Y35.0423
G01 X17.0089 Y35.1232
G01 X17.0046 Y35.1373
G01 X16.9765 Y35.2158
G01 X16.9709 Y35.2294
G01 X16.9352 Y35.3048
G01 X16.9283 Y35.3178
G01 X16.8854 Y35.3894
G01 X16.8772 Y35.4016
G01 X16.8275 Y35.4686
G01 X16.8182 Y35.4800
G01 X16.7622 Y35.5418
G01 X16.7518 Y35.5522
G01 X16.6900 Y35.6082
G01 X16.6786 Y35.6175
G01 X16.6116 Y35.6672
G01 X16.5994 Y35.6754
G01 X16.5503 Y35.7048
G01 X16.5503 Y36.6900
G01 X16.5477 Y36.7464
G01 X16.5462 Y36.7610
G01 X16.5390 Y36.8096
G01 X16.5361 Y36.8240
G01 X16.5242 Y36.8717
G01 X16.5199 Y36.8857
G01 X16.5034 Y36.9320
G01 X16.4978 Y36.9456
G01 X16.4768 Y36.9899
G01 X16.4698 Y37.0029
G01 X16.4446 Y37.0450
G01 X16.4364 Y37.0573
G01 X16.4072 Y37.0967
G01 X16.3978 Y37.1081
G01 X16.3598 Y37.1498
G01 X15.7445 Y37.7649
G01 X15.7081 Y37.7978
G01 X15.6967 Y37.8072
G01 X15.6573 Y37.8364
G01 X15.6450 Y37.8446
G01 X15.6029 Y37.8698
G01 X15.5899 Y37.8768
G01 X15.5456 Y37.8978
G01 X15.5320 Y37.9034
G01 X15.4857 Y37.9199
G01 X15.4717 Y37.9242
G01 X15.4240 Y37.9361
G01 X15.4096 Y37.9390
G01 X15.3610 Y37.9462
G01 X15.3464 Y37.9477
G01 X15.2900 Y37.9503
G01 X12.4000 Y37.9503
G01 X12.3436 Y37.9477
G01 X12.3290 Y37.9462
G01 X12.2804 Y37.9390
G01 X12.2660 Y37.9361
G01 X12.2183 Y37.9242
G01 X12.2043 Y37.9199
G01 X12.1580 Y37.9034
G01 X12.1444 Y37.8978
G01 X12.1001 Y37.8768
G01 X12.0871 Y37.8698
G01 X12.0450 Y37.8446
G01 X12.0327 Y37.8364
G01 X11.9933 Y37.8072
G01 X11.9819 Y37.7978
G01 X11.9402 Y37.7598
G01 X11.4402 Y37.2598
G01 X11.4022 Y37.2181
G01 X11.3928 Y37.2067
G01 X11.3636 Y37.1673
G01 X11.3554 Y37.1550
G01 X11.3302 Y37.1129
G01 X11.3232 Y37.0999
G01 X11.3022 Y37.0556
G01 X11.2966 Y37.0420
G01 X11.2801 Y36.9957
G01 X11.2758 Y36.9817
G01 X11.2639 Y36.9340
G01 X11.2610 Y36.9196
G01 X11.2538 Y36.8710
G01 X11.2523 Y36.8564
G01 X11.2497 Y36.8000
G01 X11.2497 Y29.3000
G01 X11.2523 Y29.2436
G01 X11.2538 Y29.2290
G01 X11.2610 Y29.1804
G01 X11.2639 Y29.1660
G01 X11.2758 Y29.1183
G01 X11.2801 Y29.1043
G01 X11.2966 Y29.0580
G01 X11.3022 Y29.0444
G01 X11.3232 Y29.0001
G01 X11.3302 Y28.9871
G01 X11.3554 Y28.9450
G01 X11.3636 Y28.9327
G01 X11.3928 Y28.8933
G01 X11.4022 Y28.8819
G01 X11.4351 Y28.8455
G01 X13.4402 Y26.8402
G01 X13.4819 Y26.8022
G01 X13.4933 Y26.7928
G01 X13.5327 Y26.7636
G01 X13.5450 Y26.7554
G01 X13.5871 Y26.7302
G01 X13.6001 Y26.7232
G01 X13.6444 Y26.7022
G01 X13.6580 Y26.6966
G01 X13.7043 Y26.6801
G01 X13.7183 Y26.6758
G01 X13.7660 Y26.6639
G01 X13.7804 Y26.6610
G01 X13.8290 Y26.6538
G01 X13.8436 Y26.6523
G01 X13.9000 Y26.6497
G01 X14.9911 Y26.6497
G00 Z2.0000
G00 X23.7497 Y24.7480
G01 F60.00
G01 Z-0.1500
G01 F120.00
G01 X23.6763 Y24.6935
G01 X23.6649 Y24.6842
G01 X23.5922 Y24.6182
G01 X23.5818 Y24.6078
G01 X23.5158 Y24.5351
G01 X23.5065 Y24.5237
G01 X23.4480 Y24.4449
G01 X23.4399 Y24.4327
G01 X23.3894 Y24.3485
G01 X23.3825 Y24.3355
G01 X23.3405 Y24.2468
G01 X23.3349 Y24.2332
G01 X23.3018 Y24.1408
G01 X23.2976 Y24.1267
G01 X23.2737 Y24.0315
G01 X23.2708 Y24.0171
G01 X23.2564 Y23.9200
G01 X23.2550 Y23.9054
G01 X23.2502 Y23.8074
G01 X23.2502 Y23.7926
G01 X23.2550 Y23.6946
G01 X23.2564 Y23.6800
G01 X23.2708 Y23.5829
G01 X23.2737 Y23.5685
G01 X23.2976 Y23.4733
G01 X23.3018 Y23.4592
G01 X23.3349 Y23.3668
G01 X23.3405 Y23.3532
G01 X23.3825 Y23.2645
G01 X23.3894 Y23.2515
G01 X23.4399 Y23.1673
G01 X23.4480 Y23.1551
G01 X23.5065 Y23.0763
G01 X23.5158 Y23.0649
G01 X23.5818 Y22.9922
G01 X23.5922 Y22.9818
G01 X23.6649 Y22.9158
G01 X23.6763 Y22.9065
G01 X23.7551 Y22.8480
G01 X23.7673 Y22.8399
G01 X23.8515 Y22.7894
G01 X23.8645 Y22.7825
G01 X23.9532 Y22.7405
G01 X23.9668 Y22.7349
G01 X24.0592 Y22.7018
G01 X24.0733 Y22.6976
G01 X24.0861 Y22.6944
G01 X25.4402 Y21.3402
G01 X25.4819 Y21.3022
G01 X25.4933 Y21.2928
G01 X25.5327 Y21.2636
G01 X25.5450 Y21.2554
G01 X25.5871 Y21.2302
G01 X25.6001 Y21.2232
G01 X25.6444 Y21.2022
G01 X25.6580 Y21.1966
G01 X25.7043 Y21.1801
G01 X25.7183 Y21.1758
G01 X25.7660 Y21.1639
G01 X25.7804 Y21.1610
G01 X25.8290 Y21.1538
G01 X25.8436 Y21.1523
G01 X25.9000 Y21.1497
G01 X27.1307 Y21.1497
G01 X28.0897 Y20.1907
G01 X28.0897 Y18.2880
G01 X28.0163 Y18.2335
G01 X28.0049 Y18.2242
G01 X27.9322 Y18.1582
G01 X27.9218 Y18.1478
G01 X27.8558 Y18.0751
G01 X27.8465 Y18.0637
G01 X27.7880 Y17.9849
G01 X27.7799 Y17.9727
G01 X27.7294 Y17.8885
G01 X27.7225 Y17.8755
G01 X27.6805 Y17.7868
G01 X27.6749 Y17.7732
G01 X27.6418 Y17.6808
G01 X27.6376 Y17.6667
G01 X27.6137 Y17.5715
G01 X27.6108 Y17.5571
G01 X27.5964 Y17.4600
G01 X27.5950 Y17.4454
G01 X27.5902 Y17.3474
G01 X27.5900 Y16.3400
G01 X27.5950 Y16.2346
G01 X27.5964 Y16.2200
G01 X27.6108 Y16.1229
G01 X27.6137 Y16.1085
G01 X27.6376 Y16.0133
G01 X27.6418 Y15.9992
G01 X27.6749 Y15.9068
G01 X27.6805 Y15.8932
G01 X27.7225 Y15.8045
G01 X27.7294 Y15.7915
G01 X27.7799 Y15.7073
G01 X27.7880 Y15.6951
G01 X27.8465 Y15.6163
G01 X27.8558 Y15.6049
G01 X27.9218 Y15.5322
G01 X27.9322 Y15.5218
G01 X28.0049 Y15.4558
G01 X28.0163 Y15.4465
G01 X28.0897 Y15.3920
G01 X28.0899 Y3.4526
G01 X28.0923 Y3.4036
G01 X28.0938 Y3.3890
G01 X28.1010 Y3.3404
G01 X28.1039 Y3.3260
G01 X28.1158 Y3.2783
G01 X28.1201 Y3.2643
G01 X28.1366 Y3.2180
G01 X28.1422 Y3.2044
G01 X28.1632 Y3.1601
G01 X28.1702 Y3.1471
G01 X28.1954 Y3.1050
G01 X28.2036 Y3.0927
G01 X28.2328 Y3.0533
G01 X28.2422 Y3.0419
G01 X28.2802 Y3.0002
G01 X28.9455 Y2.3351
G01 X28.9819 Y2.3022
G01 X28.9933 Y2.2928
G01 X29.0327 Y2.2636
G01 X29.0450 Y2.2554
G01 X29.0871 Y2.2302
G01 X29.1001 Y2.2232
G01 X29.1444 Y2.2022
G01 X29.1580 Y2.1966
G01 X29.2043 Y2.1801
G01 X29.2183 Y2.1758
G01 X29.2660 Y2.1639
G01 X29.2804 Y2.1610
G01 X29.3290 Y2.1538
G01 X29.3436 Y2.1523
G01 X29.4000 Y2.1497
G01 X45.8944 Y2.1497
G01 X45.9027 Y2.1436
G01 X45.9150 Y2.1354
G01 X45.9571 Y2.1102
G01 X45.9701 Y2.1032
G01 X46.0144 Y2.0822
G01 X46.0280 Y2.0766
G01 X46.0743 Y2.0601
G01 X46.0883 Y2.0558
G01 X46.1360 Y2.0439
G01 X46.1504 Y2.0410
G01 X46.1990 Y2.0338
G01 X46.2136 Y2.0323
G01 X46.2700 Y2.0297
G01 X47.2042 Y2.0297
G01 X47.2348 Y1.9652
G01 X47.2417 Y1.9522
G01 X47.2846 Y1.8806
G01 X47.2928 Y1.8684
G01 X47.3425 Y1.8014
G01 X47.3518 Y1.7900
G01 X47.4078 Y1.7282
G01 X47.4182 Y1.7178
G01 X47.4800 Y1.6618
G01 X47.4914 Y1.6525
G01 X47.5584 Y1.6028
G01 X47.5706 Y1.5946
G01 X47.6422 Y1.5517
G01 X47.6552 Y1.5448
G01 X47.7306 Y1.5091
G01 X47.7442 Y1.5035
G01 X47.8227 Y1.4754
G01 X47.8368 Y1.4711
G01 X47.9177 Y1.4508
G01 X47.9322 Y1.4480
G01 X48.0147 Y1.4357
G01 X48.0293 Y1.4343
G01 X48.1126 Y1.4302
G01 X48.1274 Y1.4302
G01 X48.2107 Y1.4343
G01 X48.2253 Y1.4357
G01 X48.3078 Y1.4480
G01 X48.3223 Y1.4508
G01 X48.4032 Y1.4711
G01 X48.4173 Y1.4754
G01 X48.4958 Y1.5035
G01 X48.5094 Y1.5091
G01 X48.5848 Y1.5448
G01 X48.5978 Y1.5517
G01 X48.6694 Y1.5946
G01 X48.6816 Y1.6028
G01 X48.7486 Y1.6525
G01 X48.7600 Y1.6618
G01 X48.8218 Y1.7178
G01 X48.8322 Y1.7282
G01 X48.8882 Y1.7900
G01 X48.8975 Y1.8014
G01 X48.9472 Y1.8684
G01 X48.9554 Y1.8806
G01 X48.9983 Y1.9522
G01 X49.0052 Y1.9652
G01 X49.0409 Y2.0406
G01 X49.0465 Y2.0542
G01 X49.0746 Y2.1327
G01 X49.0789 Y2.1468
G01 X49.0992 Y2.2277
G01 X49.1020 Y2.2422
G01 X49.1143 Y2.3247
G01 X49.1157 Y2.3393
G01 X49.1198 Y2.4226
G01 X49.1200 Y2.9300
G01 X49.1157 Y3.0207
G01 X49.1143 Y3.0353
G01 X49.1020 Y3.1178
G01 X49.0992 Y3.1323
G01 X49.0789 Y3.2132
G01 X49.0746 Y3.2273
G01 X49.0465 Y3.3058
G01 X49.0409 Y3.3194
G01 X49.0052 Y3.3948
G01 X48.9983 Y3.4078
G01 X48.9554 Y3.4794
G01 X48.9472 Y3.4916
G01 X48.8975 Y3.5586
G01 X48.8882 Y3.5700
G01 X48.8322 Y3.6318
G01 X48.8218 Y3.6422
G01 X48.7600 Y3.6982
G01 X48.7486 Y3.7075
G01 X48.6816 Y3.7572
G01 X48.6694 Y3.7654
G01 X48.5978 Y3.8083
G01 X48.5848 Y3.8152
G01 X48.5094 Y3.8509
G01 X48.4958 Y3.8565
G01 X48.4173 Y3.8846
G01 X48.4032 Y3.8889
G01 X48.3223 Y3.9092
G01 X48.3078 Y3.9120
G01 X48.2253 Y3.9243
G01 X48.2107 Y3.9257
G01 X48.1274 Y3.9298
G01 X48.1126 Y3.9298
G01 X48.0293 Y3.9257
G01 X48.0147 Y3.9243
G01 X47.9322 Y3.9120
G01 X47.9177 Y3.9092
G01 X47.8368 Y3.8889
G01 X47.8227 Y3.8846
G01 X47.7442 Y3.8565
G01 X47.7306 Y3.8509
G01 X47.6552 Y3.8152
G01 X47.6422 Y3.8083
G01 X47.5706 Y3.7654
G01 X47.5584 Y3.7572
G01 X47.4914 Y3.7075
G01 X47.4800 Y3.6982
G01 X47.4182 Y3.6422
G01 X47.4078 Y3.6318
G01 X47.3518 Y3.5700
G01 X47.3425 Y3.5586
G01 X47.2928 Y3.4916
G01 X47.2846 Y3.4794
G01 X47.2417 Y3.4078
G01 X47.2348 Y3.3948
G01 X47.2042 Y3.3303
G01 X46.5256 Y3.3303
G01 X46.5173 Y3.3364
G01 X46.5050 Y3.3446
G01 X46.4629 Y3.3698
G01 X46.4499 Y3.3768
G01 X46.4056 Y3.3978
G01 X46.3920 Y3.4034
G01 X46.3457 Y3.4199
G01 X46.3317 Y3.4242
G01 X46.2840 Y3.4361
G01 X46.2696 Y3.4390
G01 X46.2210 Y3.4462
G01 X46.2064 Y3.4477
G01 X46.1500 Y3.4503
G01 X29.6693 Y3.4503
G01 X29.3903 Y3.7293
G01 X29.3903 Y15.3920
G01 X29.4637 Y15.4465
G01 X29.4751 Y15.4558
G01 X29.5478 Y15.5218
G01 X29.5582 Y15.5322
G01 X29.6242 Y15.6049
G01 X29.6335 Y15.6163
G01 X29.6920 Y15.6951
G01 X29.7001 Y15.7073
G01 X29.7506 Y15.7915
G01 X29.7575 Y15.8045
G01 X29.7995 Y15.8932
G01 X29.8051 Y15.9068
G01 X29.8382 Y15.9992
G01 X29.8424 Y16.0133
G01 X29.8663 Y16.1085
G01 X29.8692 Y16.1229
G01 X29.8836 Y16.2200
G01 X29.8850 Y16.2346
G01 X29.8898 Y16.3326
G01 X29.8900 Y17.3400
G01 X29.8850 Y17.4454
G01 X29.8836 Y17.4600
G01 X29.8692 Y17.5571
G01 X29.8663 Y17.5715
G01 X29.8424 Y17.6667
G01 X29.8382 Y17.6808
G01 X29.8051 Y17.7732
G01 X29.7995 Y17.7868
G01 X29.7575 Y17.8755
G01 X29.7506 Y17.8885
G01 X29.7001 Y17.9727
G01 X29.6920 Y17.9849
G01 X29.6335 Y18.0637
G01 X29.6242 Y18.0751
G01 X29.5582 Y18.1478
G01 X29.5478 Y18.1582
G01 X29.4751 Y18.2242
G01 X29.4637 Y18.2335
G01 X29.3903 Y18.2880
G01 X29.3903 Y20.4600
G01 X29.3877 Y20.5164
G01 X29.3862 Y20.5310
G01 X29.3790 Y20.5796
G01 X29.3761 Y20.5940
G01 X29.3642 Y20.6417
G01 X29.3599 Y20.6557
G01 X29.3434 Y20.7020
G01 X29.3378 Y20.7156
G01 X29.3168 Y20.7599
G01 X29.3098 Y20.7729
G01 X29.2846 Y20.8150
G01 X29.2764 Y20.8273
G01 X29.2472 Y20.8667
G01 X29.2378 Y20.8781
G01 X29.2049 Y20.9145
G01 X27.8598 Y22.2598
G01 X27.8181 Y22.2978
G01 X27.8067 Y22.3072
G01 X27.7673 Y22.3364
G01 X27.7550 Y22.3446
G01 X27.7129 Y22.3698
G01 X27.6999 Y22.3768
G01 X27.6556 Y22.3978
G01 X27.6420 Y22.4034
G01 X27.5957 Y22.4199
G01 X27.5817 Y22.4242
G01 X27.5340 Y22.4361
G01 X27.5196 Y22.4390
G01 X27.4710 Y22.4462
G01 X27.4564 Y22.4477
G01 X27.4000 Y22.4503
G01 X26.1693 Y22.4503
G01 X25.3947 Y23.2249
G01 X25.4106 Y23.2515
G01 X25.4175 Y23.2645
G01 X25.4595 Y23.3532
G01 X25.4651 Y23.3668
G01 X25.4982 Y23.4592
G01 X25.5024 Y23.4733
G01 X25.5263 Y23.5685
G01 X25.5292 Y23.5829
G01 X25.5436 Y23.6800
G01 X25.5450 Y23.6946
G01 X25.5498 Y23.7926
G01 X25.5498 Y23.8074
G01 X25.5450 Y23.9054
G01 X25.5436 Y23.9200
G01 X25.5292 Y24.0171
G01 X25.5263 Y24.0315
G01 X25.5024 Y24.1267
G01 X25.4982 Y24.1408
G01 X25.4651 Y24.2332
G01 X25.4595 Y24.2468
G01 X25.4175 Y24.3355
G01 X25.4106 Y24.3485
G01 X25.3601 Y24.4327
G01 X25.3520 Y24.4449
G01 X25.2935 Y24.5237
G01 X25.2842 Y24.5351
G01 X25.2182 Y24.6078
G01 X25.2078 Y24.6182
G01 X25.1351 Y24.6842
G01 X25.1237 Y24.6935
G01 X25.0503 Y24.7480
G01 X25.0503 Y33.0307
G01 X25.9193 Y33.8997
G01 X31.2020 Y33.8997
G01 X31.2565 Y33.8263
G01 X31.2658 Y33.8149
G01 X31.3318 Y33.7422
G01 X31.3422 Y33.7318
G01 X31.4149 Y33.6658
G01 X31.4263 Y33.6565
G01 X31.5051 Y33.5980
G01 X31.5173 Y33.5899
G01 X31.6015 Y33.5394
G01 X31.6145 Y33.5325
G01 X31.7032 Y33.4905
G01 X31.7168 Y33.4849
G01 X31.8092 Y33.4518
G01 X31.8233 Y33.4476
G01 X31.9185 Y33.4237
G01 X31.9329 Y33.4208
G01 X32.0300 Y33.4064
G01 X32.0446 Y33.4050
G01 X32.1426 Y33.4002
G01 X32.1574 Y33.4002
G01 X32.2554 Y33.4050
G01 X32.2700 Y33.4064
G01 X32.3671 Y33.4208
G01 X32.3815 Y33.4237
G01 X32.4767 Y33.4476
G01 X32.4908 Y33.4518
G01 X32.5832 Y33.4849
G01 X32.5968 Y33.4905
G01 X32.6855 Y33.5325
G01 X32.6985 Y33.5394
G01 X32.7827 Y33.5899
G01 X32.7949 Y33.5980
G01 X32.8737 Y33.6565
G01 X32.8851 Y33.6658
G01 X32.9578 Y33.7318
G01 X32.9682 Y33.7422
G01 X33.0342 Y33.8149
G01 X33.0435 Y33.8263
G01 X33.0980 Y33.8997
G01 X40.0464 Y33.8997
G01 X41.5660 Y32.3802
G01 X41.6077 Y32.3422
G01 X41.6191 Y32.3328
G01 X41.6585 Y32.3036
G01 X41.6707 Y32.2954
G01 X41.7129 Y32.2702
G01 X41.7258 Y32.2632
G01 X41.7702 Y32.2422
G01 X41.7838 Y32.2366
G01 X41.8300 Y32.2201
G01 X41.8441 Y32.2158
G01 X41.8917 Y32.2039
G01 X41.9062 Y32.2010
G01 X41.9547 Y32.1938
G01 X41.9694 Y32.1923
G01 X42.0258 Y32.1897
G01 X42.4920 Y32.1897
G01 X42.5465 Y32.1163
G01 X42.5558 Y32.1049
G01 X42.6218 Y32.0322
G01 X42.6322 Y32.0218
G01 X42.7049 Y31.9558
G01 X42.7163 Y31.9465
G01 X42.7951 Y31.8880
G01 X42.8073 Y31.8799
G01 X42.8915 Y31.8294
G01 X42.9045 Y31.8225
G01 X42.9932 Y31.7805
G01 X43.0068 Y31.7749
G01 X43.0992 Y31.7418
G01 X43.1133 Y31.7376
G01 X43.2085 Y31.7137
G01 X43.2229 Y31.7108
G01 X43.3200 Y31.6964
G01 X43.3346 Y31.6950
G01 X43.4326 Y31.6902
G01 X43.4474 Y31.6902
G01 X43.5454 Y31.6950
G01 X43.5600 Y31.6964
G01 X43.6571 Y31.7108
G01 X43.6715 Y31.7137
G01 X43.7667 Y31.7376
G01 X43.7808 Y31.7418
G01 X43.8732 Y31.7749
G01 X43.8868 Y31.7805
G01 X43.9755 Y31.8225
G01 X43.9885 Y31.8294
G01 X44.0727 Y31.8799
G01 X44.0849 Y31.8880
G01 X44.1637 Y31.9465
G01 X44.1751 Y31.9558
G01 X44.2478 Y32.0218
G01 X44.2582 Y32.0322
G01 X44.3242 Y32.1049
G01 X44.3335 Y32.1163
G01 X44.3920 Y32.1951
G01 X44.4001 Y32.2073
G01 X44.4506 Y32.2915
G01 X44.4575 Y32.3045
G01 X44.4995 Y32.3932
G01 X44.5051 Y32.4068
G01 X44.5382 Y32.4992
G01 X44.5424 Y32.5133
G01 X44.5663 Y32.6085
G01 X44.5692 Y32.6229
G01 X44.5836 Y32.7200
G01 X44.5850 Y32.7346
G01 X44.5898 Y32.8326
G01 X44.5898 Y32.8474
G01 X44.5850 Y32.9454
G01 X44.5836 Y32.9600
G01 X44.5692 Y33.0571
G01 X44.5663 Y33.0715
G01 X44.5424 Y33.1667
G01 X44.5382 Y33.1808
G01 X44.5051 Y33.2732
G01 X44.4995 Y33.2868
G01 X44.4575 Y33.3755
G01 X44.4506 Y33.3885
G01 X44.4001 Y33.4727
G01 X44.3920 Y33.4849
G01 X44.3335 Y33.5637
G01 X44.3242 Y33.5751
G01 X44.2582 Y33.6478
G01 X44.2478 Y33.6582
G01 X44.1751 Y33.7242
G01 X44.1637 Y33.7335
G01 X44.0849 Y33.7920
G01 X44.0727 Y33.8001
G01 X43.9885 Y33.8506
G01 X43.9755 Y33.8575
G01 X43.8868 Y33.8995
G01 X43.8732 Y33.9051
G01 X43.7808 Y33.9382
G01 X43.7667 Y33.9424
G01 X43.6715 Y33.9663
G01 X43.6571 Y33.9692
G01 X43.5600 Y33.9836
G01 X43.5454 Y33.9850
G01 X43.4474 Y33.9898
G01 X43.4326 Y33.9898
G01 X43.3346 Y33.9850
G01 X43.3200 Y33.9836
G01 X43.2229 Y33.9692
G01 X43.2085 Y33.9663
G01 X43.1133 Y33.9424
G01 X43.0992 Y33.9382
G01 X43.0068 Y33.9051
G01 X42.9932 Y33.8995
G01 X42.9045 Y33.8575
G01 X42.8915 Y33.8506
G01 X42.8073 Y33.8001
G01 X42.7951 Y33.7920
G01 X42.7163 Y33.7335
G01 X42.7049 Y33.7242
G01 X42.6322 Y33.6582
G01 X42.6218 Y33.6478
G01 X42.5558 Y33.5751
G01 X42.5465 Y33.5637
G01 X42.4920 Y33.4903
G01 X42.2951 Y33.4903
G01 X40.7756 Y35.0098
G01 X40.7339 Y35.0478
G01 X40.7225 Y35.0572
G01 X40.6831 Y35.0864
G01 X40.6708 Y35.0946
G01 X40.6287 Y35.1198
G01 X40.6157 Y35.1268
G01 X40.5714 Y35.1478
G01 X40.5578 Y35.1534
G01 X40.5115 Y35.1699
G01 X40.4974 Y35.1742
G01 X40.4498 Y35.1861
G01 X40.4354 Y35.1890
G01 X40.3868 Y35.1962
G01 X40.3722 Y35.1977
G01 X40.3158 Y35.2003
G01 X33.0980 Y35.2003
G01 X33.0435 Y35.2737
G01 X33.0342 Y35.2851
G01 X32.9682 Y35.3578
G01 X32.9578 Y35.3682
G01 X32.8851 Y35.4342
G01 X32.8737 Y35.4435
G01 X32.7949 Y35.5020
G01 X32.7827 Y35.5101
G01 X32.6985 Y35.5606
G01 X32.6855 Y35.5675
G01 X32.5968 Y35.6095
G01 X32.5832 Y35.6151
G01 X32.4908 Y35.6482
G01 X32.4767 Y35.6524
G01 X32.3815 Y35.6763
G01 X32.3671 Y35.6792
G01 X32.2700 Y35.6936
G01 X32.2554 Y35.6950
G01 X32.1574 Y35.6998
G01 X32.1426 Y35.6998
G01 X32.0446 Y35.6950
G01 X32.0300 Y35.6936
G01 X31.9329 Y35.6792
G01 X31.9185 Y35.6763
G01 X31.8233 Y35.6524
G01 X31.8092 Y35.6482
G01 X31.7168 Y35.6151
G01 X31.7032 Y35.6095
G01 X31.6145 Y35.5675
G01 X31.6015 Y35.5606
G01 X31.5173 Y35.5101
G01 X31.5051 Y35.5020
G01 X31.4263 Y35.4435
G01 X31.4149 Y35.4342
G01 X31.3422 Y35.3682
G01 X31.3318 Y35.3578
G01 X31.2658 Y35.2851
G01 X31.2565 Y35.2737
G01 X31.2020 Y35.2003
G01 X25.6500 Y35.2003
G01 X25.5936 Y35.1977
G01 X25.5790 Y35.1962
G01 X25.5304 Y35.1890
G01 X25.5160 Y35.1861
G01 X25.4683 Y35.1742
G01 X25.4543 Y35.1699
G01 X25.4080 Y35.1534
G01 X25.3944 Y35.1478
G01 X25.3501 Y35.1268
G01 X25.3371 Y35.1198
G01 X25.2950 Y35.0946
G01 X25.2827 Y35.0864
G01 X25.2433 Y35.0572
G01 X25.2319 Y35.0478
G01 X25.1902 Y35.0098
G01 X23.9351 Y33.7545
G01 X23.9022 Y33.7181
G01 X23.8928 Y33.7067
G01 X23.8636 Y33.6673
G01 X23.8554 Y33.6550
G01 X23.8302 Y33.6129
G01 X23.8232 Y33.5999
G01 X23.8022 Y33.5556
G01 X23.7966 Y33.5420
G01 X23.7801 Y33.4957
G01 X23.7758 Y33.4817
G01 X23.7639 Y33.4340
G01 X23.7610 Y33.4196
G01 X23.7538 Y33.3710
G01 X23.7523 Y33.3564
G01 X23.7497 Y33.3000
G01 X23.7497 Y24.7480
G00 Z2.0000
G00 X28.3089 Y27.6097
G01 F60.00
G01 Z-0.1500
G01 F120.00
G01 X29.1307 Y27.6097
G01 X32.9002 Y23.8402
G01 X32.9419 Y23.8022
G01 X32.9533 Y23.7928
G01 X32.9927 Y23.7636
G01 X33.0050 Y23.7554
G01 X33.0471 Y23.7302
G01 X33.0601 Y23.7232
G01 X33.1044 Y23.7022
G01 X33.1180 Y23.6966
G01 X33.1643 Y23.6801
G01 X33.1783 Y23.6758
G01 X33.2260 Y23.6639
G01 X33.2404 Y23.6610
G01 X33.2890 Y23.6538
G01 X33.3036 Y23.6523
G01 X33.3600 Y23.6497
G01 X38.1307 Y23.6497
G01 X40.7497 Y21.0307
G01 X40.7497 Y8.3000
G01 X40.7523 Y8.2436
G01 X40.7538 Y8.2290
G01 X40.7610 Y8.1804
G01 X40.7639 Y8.1660
G01 X40.7758 Y8.1183
G01 X40.7801 Y8.1043
G01 X40.7966 Y8.0580
G01 X40.8022 Y8.0444
G01 X40.8232 Y8.0001
G01 X40.8302 Y7.9871
G01 X40.8554 Y7.9450
G01 X40.8636 Y7.9327
G01 X40.8928 Y7.8933
G01 X40.9022 Y7.8819
G01 X40.9351 Y7.8455
G01 X40.9455 Y7.8351
G01 X40.9819 Y7.8022
G01 X40.9933 Y7.7928
G01 X41.0327 Y7.7636
G01 X41.0450 Y7.7554
G01 X41.0871 Y7.7302
G01 X41.1001 Y7.7232
G01 X41.1444 Y7.7022
G01 X41.1580 Y7.6966
G01 X41.2043 Y7.6801
G01 X41.2183 Y7.6758
G01 X41.2660 Y7.6639
G01 X41.2804 Y7.6610
G01 X41.3290 Y7.6538
G01 X41.3436 Y7.6523
G01 X41.4000 Y7.6497
G01 X59.6307 Y7.6497
G01 X62.7097 Y4.5707
G01 X62.7097 Y3.6889
G01 X62.6582 Y3.6422
G01 X62.6478 Y3.6318
G01 X62.5918 Y3.5700
G01 X62.5825 Y3.5586
G01 X62.5328 Y3.4916
G01 X62.5246 Y3.4794
G01 X62.4817 Y3.4078
G01 X62.4748 Y3.3948
G01 X62.4391 Y3.3194
G01 X62.4335 Y3.3058
G01 X62.4054 Y3.2273
G01 X62.4011 Y3.2132
G01 X62.3808 Y3.1323
G01 X62.3780 Y3.1178
G01 X62.3657 Y3.0353
G01 X62.3643 Y3.0207
G01 X62.3602 Y2.9374
G01 X62.3602 Y2.4226
G01 X62.3643 Y2.3393
G01 X62.3657 Y2.3247
G01 X62.3780 Y2.2422
G01 X62.3808 Y2.2277
G01 X62.4011 Y2.1468
G01 X62.4054 Y2.1327
G01 X62.4335 Y2.0542
G01 X62.4391 Y2.0406
G01 X62.4748 Y1.9652
G01 X62.4817 Y1.9522
G01 X62.5246 Y1.8806
G01 X62.5328 Y1.8684
G01 X62.5825 Y1.8014
G01 X62.5918 Y1.7900
G01 X62.6478 Y1.7282
G01 X62.6582 Y1.7178
G01 X62.7200 Y1.6618
G01 X62.7314 Y1.6525
G01 X62.7984 Y1.6028
G01 X62.8106 Y1.5946
G01 X62.8822 Y1.5517
G01 X62.8952 Y1.5448
G01 X62.9706 Y1.5091
G01 X62.9842 Y1.5035
G01 X63.0627 Y1.4754
G01 X63.0768 Y1.4711
G01 X63.1577 Y1.4508
G01 X63.1722 Y1.4480
G01 X63.2547 Y1.4357
G01 X63.2693 Y1.4343
G01 X63.3526 Y1.4302
G01 X63.3674 Y1.4302
G01 X63.4507 Y1.4343
G01 X63.4653 Y1.4357
G01 X63.5478 Y1.4480
G01 X63.5623 Y1.4508
G01 X63.6432 Y1.4711
G01 X63.6573 Y1.4754
G01 X63.7358 Y1.5035
G01 X63.7494 Y1.5091
G01 X63.8248 Y1.5448
G01 X63.8378 Y1.5517
G01 X63.9094 Y1.5946
G01 X63.9216 Y1.6028
G01 X63.9886 Y1.6525
G01 X64.0000 Y1.6618
G01 X64.0618 Y1.7178
G01 X64.0722 Y1.7282
G01 X64.1282 Y1.7900
G01 X64.1375 Y1.8014
G01 X64.1872 Y1.8684
G01 X64.1954 Y1.8806
G01 X64.2383 Y1.9522
G01 X64.2452 Y1.9652
G01 X64.2809 Y2.0406
G01 X64.2865 Y2.0542
G01 X64.3146 Y2.1327
G01 X64.3189 Y2.1468
G01 X64.3392 Y2.2277
G01 X64.3420 Y2.2422
G01 X64.3543 Y2.3247
G01 X64.3557 Y2.3393
G01 X64.3600 Y2.4300
G01 X64.3600 Y2.9300
G01 X64.3557 Y3.0207
G01 X64.3543 Y3.0353
G01 X64.3420 Y3.1178
G01 X64.3392 Y3.1323
G01 X64.3189 Y3.2132
G01 X64.3146 Y3.2273
G01 X64.2865 Y3.3058
G01 X64.2809 Y3.3194
G01 X64.2452 Y3.3948
G01 X64.2383 Y3.4078
G01 X64.1954 Y3.4794
G01 X64.1872 Y3.4916
G01 X64.1375 Y3.5586
G01 X64.1282 Y3.5700
G01 X64.0722 Y3.6318
G01 X64.0618 Y3.6422
G01 X64.0103 Y3.6889
G01 X64.0103 Y4.8400
G01 X64.0077 Y4.8964
G01 X64.0062 Y4.9110
G01 X63.9990 Y4.9596
G01 X63.9961 Y4.9740
G01 X63.9842 Y5.0217
G01 X63.9799 Y5.0357
G01 X63.9634 Y5.0820
G01 X63.9578 Y5.0956
G01 X63.9368 Y5.1399
G01 X63.9298 Y5.1529
G01 X63.9046 Y5.1950
G01 X63.8964 Y5.2073
G01 X63.8672 Y5.2467
G01 X63.8578 Y5.2581
G01 X63.8198 Y5.2998
G01 X60.3598 Y8.7598
G01 X60.3181 Y8.7978
G01 X60.3067 Y8.8072
G01 X60.2673 Y8.8364
G01 X60.2550 Y8.8446
G01 X60.2129 Y8.8698
G01 X60.1999 Y8.8768
G01 X60.1556 Y8.8978
G01 X60.1420 Y8.9034
G01 X60.0957 Y8.9199
G01 X60.0817 Y8.9242
G01 X60.0340 Y8.9361
G01 X60.0196 Y8.9390
G01 X59.9710 Y8.9462
G01 X59.9564 Y8.9477
G01 X59.9000 Y8.9503
G01 X42.0503 Y8.9503
G01 X42.0503 Y21.3000
G01 X42.0477 Y21.3564
G01 X42.0462 Y21.3710
G01 X42.0390 Y21.4196
G01 X42.0361 Y21.4340
G01 X42.0242 Y21.4817
G01 X42.0199 Y21.4957
G01 X42.0034 Y21.5420
G01 X41.9978 Y21.5556
G01 X41.9768 Y21.5999
G01 X41.9698 Y21.6129
G01 X41.9446 Y21.6550
G01 X41.9364 Y21.6673
G01 X41.9072 Y21.7067
G01 X41.8978 Y21.7181
G01 X41.8598 Y21.7598
G01 X38.8598 Y24.7598
G01 X38.8181 Y24.7978
G01 X38.8067 Y24.8072
G01 X38.7673 Y24.8364
G01 X38.7550 Y24.8446
G01 X38.7129 Y24.8698
G01 X38.6999 Y24.8768
G01 X38.6556 Y24.8978
G01 X38.6420 Y24.9034
G01 X38.5957 Y24.9199
G01 X38.5817 Y24.9242
G01 X38.5340 Y24.9361
G01 X38.5196 Y24.9390
G01 X38.4710 Y24.9462
G01 X38.4564 Y24.9477
G01 X38.4000 Y24.9503
G01 X33.6293 Y24.9503
G01 X29.8598 Y28.7198
G01 X29.8181 Y28.7578
G01 X29.8067 Y28.7672
G01 X29.7673 Y28.7964
G01 X29.7550 Y28.8046
G01 X29.7129 Y28.8298
G01 X29.6999 Y28.8368
G01 X29.6556 Y28.8578
G01 X29.6420 Y28.8634
G01 X29.5957 Y28.8799
G01 X29.5817 Y28.8842
G01 X29.5340 Y28.8961
G01 X29.5196 Y28.8990
G01 X29.4710 Y28.9062
G01 X29.4564 Y28.9077
G01 X29.4000 Y28.9103
G01 X28.3089 Y28.9103
G01 X28.2622 Y28.9618
G01 X28.2518 Y28.9722
G01 X28.1900 Y29.0282
G01 X28.1786 Y29.0375
G01 X28.1116 Y29.0872
G01 X28.0994 Y29.0954
G01 X28.0278 Y29.1383
G01 X28.0148 Y29.1452
G01 X27.9394 Y29.1809
G01 X27.9258 Y29.1865
G01 X27.8473 Y29.2146
G01 X27.8332 Y29.2189
G01 X27.7523 Y29.2392
G01 X27.7378 Y29.2420
G01 X27.6553 Y29.2543
G01 X27.6407 Y29.2557
G01 X27.5500 Y29.2600
G01 X27.2500 Y29.2600
G01 X27.1593 Y29.2557
G01 X27.1447 Y29.2543
G01 X27.0622 Y29.2420
G01 X27.0477 Y29.2392
G01 X26.9668 Y29.2189
G01 X26.9527 Y29.2146
G01 X26.8742 Y29.1865
G01 X26.8606 Y29.1809
G01 X26.7852 Y29.1452
G01 X26.7722 Y29.1383
G01 X26.7006 Y29.0954
G01 X26.6884 Y29.0872
G01 X26.6214 Y29.0375
G01 X26.6100 Y29.0282
G01 X26.5482 Y28.9722
G01 X26.5378 Y28.9618
G01 X26.4818 Y28.9000
G01 X26.4725 Y28.8886
G01 X26.4228 Y28.8216
G01 X26.4146 Y28.8094
G01 X26.3717 Y28.7378
G01 X26.3648 Y28.7248
G01 X26.3291 Y28.6494
G01 X26.3235 Y28.6358
G01 X26.2954 Y28.5573
G01 X26.2911 Y28.5432
G01 X26.2708 Y28.4623
G01 X26.2680 Y28.4478
G01 X26.2557 Y28.3653
G01 X26.2543 Y28.3507
G01 X26.2502 Y28.2674
G01 X26.2502 Y28.2526
G01 X26.2543 Y28.1693
G01 X26.2557 Y28.1547
G01 X26.2680 Y28.0722
G01 X26.2708 Y28.0577
G01 X26.2911 Y27.9768
G01 X26.2954 Y27.9627
G01 X26.3235 Y27.8842
G01 X26.3291 Y27.8706
G01 X26.3648 Y27.7952
G01 X26.3717 Y27.7822
G01 X26.4146 Y27.7106
G01 X26.4228 Y27.6984
G01 X26.4725 Y27.6314
G01 X26.4818 Y27.6200
G01 X26.5378 Y27.5582
G01 X26.5482 Y27.5478
G01 X26.6100 Y27.4918
G01 X26.6214 Y27.4825
G01 X26.6884 Y27.4328
G01 X26.7006 Y27.4246
G01 X26.7722 Y27.3817
G01 X26.7852 Y27.3748
G01 X26.8606 Y27.3391
G01 X26.8742 Y27.3335
G01 X26.9527 Y27.3054
G01 X26.9668 Y27.3011
G01 X27.0477 Y27.2808
G01 X27.0622 Y27.2780
G01 X27.1447 Y27.2657
G01 X27.1593 Y27.2643
G01 X27.2500 Y27.2600
G01 X27.5500 Y27.2600
G01 X27.6407 Y27.2643
G01 X27.6553 Y27.2657
G01 X27.7378 Y27.2780
G01 X27.7523 Y27.2808
G01 X27.8332 Y27.3011
G01 X27.8473 Y27.3054
G01 X27.9258 Y27.3335
G01 X27.9394 Y27.3391
G01 X28.0148 Y27.3748
G01 X28.0278 Y27.3817
G01 X28.0994 Y27.4246
G01 X28.1116 Y27.4328
G01 X28.1786 Y27.4825
G01 X28.1900 Y27.4918
G01 X28.2518 Y27.5478
G01 X28.2622 Y27.5582
G01 X28.3089 Y27.6097
G00 Z2.0000
G00 X30.7497 Y19.3520
G01 F60.00
G01 Z-0.1500
G01 F120.00
G01 X30.7497 Y18.4500
G01 X30.4000 Y18.4500
G01 X30.3853 Y18.4493
G01 X30.3707 Y18.4471
G01 X30.3565 Y18.4435
G01 X30.3426 Y18.4386
G01 X30.3293 Y18.4323
G01 X30.3167 Y18.4247
G01 X30.3048 Y18.4160
G01 X30.2939 Y18.4061
G01 X30.2840 Y18.3952
G01 X30.2753 Y18.3833
G01 X30.2677 Y18.3707
G01 X30.2614 Y18.3574
G01 X30.2565 Y18.3435
G01 X30.2529 Y18.3293
G01 X30.2507 Y18.3147
G01 X30.2500 Y18.3000
G01 X30.2500 Y15.3000
G01 X30.2507 Y15.2853
G01 X30.2529 Y15.2707
G01 X30.2565 Y15.2565
G01 X30.2614 Y15.2426
G01 X30.2677 Y15.2293
G01 X30.2753 Y15.2167
G01 X30.2840 Y15.2048
G01 X30.2939 Y15.1939
G01 X30.3048 Y15.1840
G01 X30.3167 Y15.1753
G01 X30.3293 Y15.1677
G01 X30.3426 Y15.1614
G01 X30.3565 Y15.1565
G01 X30.3707 Y15.1529
G01 X30.3853 Y15.1507
G01 X30.4000 Y15.1500
G01 X30.7497 Y15.1500
G01 X30.7497 Y5.3000
G01 X30.7523 Y5.2436
G01 X30.7538 Y5.2290
G01 X30.7610 Y5.1804
G01 X30.7639 Y5.1660
G01 X30.7758 Y5.1183
G01 X30.7801 Y5.1043
G01 X30.7966 Y5.0580
G01 X30.8022 Y5.0444
G01 X30.8232 Y5.0001
G01 X30.8302 Y4.9871
G01 X30.8554 Y4.9450
G01 X30.8636 Y4.9327
G01 X30.8928 Y4.8933
G01 X30.9022 Y4.8819
G01 X30.9402 Y4.8402
G01 X31.4402 Y4.3402
G01 X31.4819 Y4.3022
G01 X31.4933 Y4.2928
G01 X31.5327 Y4.2636
G01 X31.5450 Y4.2554
G01 X31.5871 Y4.2302
G01 X31.6001 Y4.2232
G01 X31.6444 Y4.2022
G01 X31.6580 Y4.1966
G01 X31.7043 Y4.1801
G01 X31.7183 Y4.1758
G01 X31.7660 Y4.1639
G01 X31.7804 Y4.1610
G01 X31.8290 Y4.1538
G01 X31.8436 Y4.1523
G01 X31.9000 Y4.1497
G01 X48.5207 Y4.1497
G01 X49.6636 Y3.0068
G01 X49.6600 Y2.9300
G01 X49.6602 Y2.4226
G01 X49.6643 Y2.3393
G01 X49.6657 Y2.3247
G01 X49.6780 Y2.2422
G01 X49.6808 Y2.2277
G01 X49.7011 Y2.1468
G01 X49.7054 Y2.1327
G01 X49.7335 Y2.0542
G01 X49.7391 Y2.0406
G01 X49.7748 Y1.9652
G01 X49.7817 Y1.9522
G01 X49.8246 Y1.8806
G01 X49.8328 Y1.8684
G01 X49.8825 Y1.8014
G01 X49.8918 Y1.7900
G01 X49.9478 Y1.7282
G01 X49.9582 Y1.7178
G01 X50.0200 Y1.6618
G01 X50.0314 Y1.6525
G01 X50.0984 Y1.6028
G01 X50.1106 Y1.5946
G01 X50.1822 Y1.5517
G01 X50.1952 Y1.5448
G01 X50.2706 Y1.5091
G01 X50.2842 Y1.5035
G01 X50.3627 Y1.4754
G01 X50.3768 Y1.4711
G01 X50.4577 Y1.4508
G01 X50.4722 Y1.4480
G01 X50.5547 Y1.4357
G01 X50.5693 Y1.4343
G01 X50.6526 Y1.4302
G01 X50.6674 Y1.4302
G01 X50.7507 Y1.4343
G01 X50.7653 Y1.4357
G01 X50.8478 Y1.4480
G01 X50.8623 Y1.4508
G01 X50.9432 Y1.4711
G01 X50.9573 Y1.4754
G01 X51.0358 Y1.5035
G01 X51.0494 Y1.5091
G01 X51.1248 Y1.5448
G01 X51.1378 Y1.5517
G01 X51.2094 Y1.5946
G01 X51.2216 Y1.6028
G01 X51.2886 Y1.6525
G01 X51.3000 Y1.6618
G01 X51.3618 Y1.7178
G01 X51.3722 Y1.7282
G01 X51.4282 Y1.7900
G01 X51.4375 Y1.8014
G01 X51.4872 Y1.8684
G01 X51.4954 Y1.8806
G01 X51.5383 Y1.9522
G01 X51.5452 Y1.9652
G01 X51.5809 Y2.0406
G01 X51.5865 Y2.0542
G01 X51.6146 Y2.1327
G01 X51.6189 Y2.1468
G01 X51.6392 Y2.2277
