(G-CODE GENERATED BY FLATCAM v8.991 - www.flatcam.org - Version Date: 2019/12/27)

(Name: 2)
(Type: G-code from Geometry)
(Units: MM)

(Created on Tuesday, 14 April 2020 at 12:45)

(TOOL DIAMETER: 0.3 mm)
(Feedrate: 120.0 mm/min)
(Feedrate_Z: 60.0 mm/min)
(Feedrate rapids 1500.0 mm/min)

(Z_Cut: -0.15 mm)
(Z_Move: 2.0 mm)
(Z Toolchange: 15.0 mm)
(X,Y Toolchange: 0.0000, 0.0000 mm)
(Z Start: None mm)
(Z End: 4.0 mm)
(Steps per circle: 64)
(Preprocessor Geometry: default)

(X range:    3.1303 ...  126.6697  mm)
(Y range:    1.3103 ...   62.5697  mm)

(Spindle Speed: None RPM)
G21
G90
G94




G01 F120.00
G00 Z2.0000

M03
G00 X7.6574 Y5.0643
G01 F60.00
G01 Z-0.1500
G01 F120.00
G01 X7.6600 Y5.0907
G01 X7.6697 Y5.2868
G01 X7.6697 Y5.3132
G01 X7.6600 Y5.5093
G01 X7.6574 Y5.5357
G01 X7.6286 Y5.7298
G01 X7.6235 Y5.7558
G01 X7.5758 Y5.9462
G01 X7.5681 Y5.9715
G01 X7.5020 Y6.1563
G01 X7.4918 Y6.1808
G01 X7.4079 Y6.3582
G01 X7.3954 Y6.3816
G01 X7.2945 Y6.5499
G01 X7.2798 Y6.5720
G01 X7.1629 Y6.7296
G01 X7.1461 Y6.7501
G01 X7.0143 Y6.8955
G01 X6.9955 Y6.9143
G01 X6.8501 Y7.0461
G01 X6.8296 Y7.0629
G01 X6.6720 Y7.1798
G01 X6.6499 Y7.1945
G01 X6.4816 Y7.2954
G01 X6.4582 Y7.3079
G01 X6.2808 Y7.3918
G01 X6.2563 Y7.4020
G01 X6.0715 Y7.4681
G01 X6.0462 Y7.4758
G01 X5.8558 Y7.5235
G01 X5.8298 Y7.5286
G01 X5.6357 Y7.5574
G01 X5.6093 Y7.5600
G01 X5.4132 Y7.5697
G01 X5.3868 Y7.5697
G01 X5.1907 Y7.5600
G01 X5.1643 Y7.5574
G01 X4.9702 Y7.5286
G01 X4.9442 Y7.5235
G01 X4.7538 Y7.4758
G01 X4.7285 Y7.4681
G01 X4.5437 Y7.4020
G01 X4.5192 Y7.3918
G01 X4.3418 Y7.3079
G01 X4.3184 Y7.2954
G01 X4.1501 Y7.1945
G01 X4.1280 Y7.1798
G01 X3.9704 Y7.0629
G01 X3.9499 Y7.0461
G01 X3.8045 Y6.9143
G01 X3.7857 Y6.8955
G01 X3.6539 Y6.7501
G01 X3.6371 Y6.7296
G01 X3.5202 Y6.5720
G01 X3.5055 Y6.5499
G01 X3.4046 Y6.3816
G01 X3.3921 Y6.3582
G01 X3.3082 Y6.1808
G01 X3.2980 Y6.1563
G01 X3.2319 Y5.9715
G01 X3.2242 Y5.9462
G01 X3.1765 Y5.7558
G01 X3.1714 Y5.7298
G01 X3.1426 Y5.5357
G01 X3.1400 Y5.5093
G01 X3.1303 Y5.3132
G01 X3.1303 Y5.2868
G01 X3.1400 Y5.0907
G01 X3.1426 Y5.0643
G01 X3.1714 Y4.8702
G01 X3.1765 Y4.8442
G01 X3.2242 Y4.6538
G01 X3.2319 Y4.6285
G01 X3.2980 Y4.4437
G01 X3.3082 Y4.4192
G01 X3.3921 Y4.2418
G01 X3.4046 Y4.2184
G01 X3.5055 Y4.0501
G01 X3.5202 Y4.0280
G01 X3.6371 Y3.8704
G01 X3.6539 Y3.8499
G01 X3.7857 Y3.7045
G01 X3.8045 Y3.6857
G01 X3.9499 Y3.5539
G01 X3.9704 Y3.5371
G01 X4.1280 Y3.4202
G01 X4.1501 Y3.4055
G01 X4.3184 Y3.3046
G01 X4.3418 Y3.2921
G01 X4.5192 Y3.2082
G01 X4.5437 Y3.1980
G01 X4.7285 Y3.1319
G01 X4.7538 Y3.1242
G01 X4.9442 Y3.0765
G01 X4.9702 Y3.0714
G01 X5.1643 Y3.0426
G01 X5.1907 Y3.0400
G01 X5.3868 Y3.0303
G01 X5.4132 Y3.0303
G01 X5.6093 Y3.0400
G01 X5.6357 Y3.0426
G01 X5.8298 Y3.0714
G01 X5.8558 Y3.0765
G01 X6.0462 Y3.1242
G01 X6.0715 Y3.1319
G01 X6.2563 Y3.1980
G01 X6.2808 Y3.2082
G01 X6.4582 Y3.2921
G01 X6.4816 Y3.3046
G01 X6.6499 Y3.4055
G01 X6.6720 Y3.4202
G01 X6.8296 Y3.5371
G01 X6.8501 Y3.5539
G01 X6.9955 Y3.6857
G01 X7.0143 Y3.7045
G01 X7.1461 Y3.8499
G01 X7.1629 Y3.8704
G01 X7.2798 Y4.0280
G01 X7.2945 Y4.0501
G01 X7.3954 Y4.2184
G01 X7.4079 Y4.2418
G01 X7.4918 Y4.4192
G01 X7.5020 Y4.4437
G01 X7.5681 Y4.6285
G01 X7.5758 Y4.6538
G01 X7.6235 Y4.8442
G01 X7.6286 Y4.8702
G01 X7.6574 Y5.0643
G00 Z2.0000
G00 X19.6592 Y13.8303
G01 F60.00
G01 Z-0.1500
G01 F120.00
G01 X19.6048 Y13.7899
G01 X19.5843 Y13.7731
G01 X19.5116 Y13.7072
G01 X19.4928 Y13.6884
G01 X19.4269 Y13.6157
G01 X19.4101 Y13.5952
G01 X19.3517 Y13.5164
G01 X19.3369 Y13.4944
G01 X19.2865 Y13.4102
G01 X19.2740 Y13.3868
G01 X19.2320 Y13.2981
G01 X19.2219 Y13.2736
G01 X19.1888 Y13.1812
G01 X19.1812 Y13.1559
G01 X19.1573 Y13.0607
G01 X19.1521 Y13.0347
G01 X19.1377 Y12.9376
G01 X19.1351 Y12.9113
G01 X19.1303 Y12.8132
G01 X19.1303 Y12.7868
G01 X19.1351 Y12.6887
G01 X19.1377 Y12.6624
G01 X19.1521 Y12.5653
G01 X19.1573 Y12.5393
G01 X19.1812 Y12.4441
G01 X19.1888 Y12.4188
G01 X19.2219 Y12.3264
G01 X19.2320 Y12.3019
G01 X19.2740 Y12.2132
G01 X19.2865 Y12.1898
G01 X19.3369 Y12.1056
G01 X19.3517 Y12.0836
G01 X19.4101 Y12.0048
G01 X19.4269 Y11.9843
G01 X19.4928 Y11.9116
G01 X19.5116 Y11.8928
G01 X19.5843 Y11.8269
G01 X19.6048 Y11.8101
G01 X19.6836 Y11.7517
G01 X19.7056 Y11.7369
G01 X19.7898 Y11.6865
G01 X19.8132 Y11.6740
G01 X19.9019 Y11.6320
G01 X19.9264 Y11.6219
G01 X20.0188 Y11.5888
G01 X20.0441 Y11.5812
G01 X20.1393 Y11.5573
G01 X20.1653 Y11.5521
G01 X20.2624 Y11.5377
G01 X20.2887 Y11.5351
G01 X20.3868 Y11.5303
G01 X20.4132 Y11.5303
G01 X20.5113 Y11.5351
G01 X20.5376 Y11.5377
G01 X20.6347 Y11.5521
G01 X20.6607 Y11.5573
G01 X20.7559 Y11.5812
G01 X20.7812 Y11.5888
G01 X20.8736 Y11.6219
G01 X20.8981 Y11.6320
G01 X20.9868 Y11.6740
G01 X21.0102 Y11.6865
G01 X21.0944 Y11.7369
G01 X21.1164 Y11.7517
G01 X21.1952 Y11.8101
G01 X21.2157 Y11.8269
G01 X21.2884 Y11.8928
G01 X21.3072 Y11.9116
G01 X21.3731 Y11.9843
G01 X21.3899 Y12.0048
G01 X21.4483 Y12.0836
G01 X21.4631 Y12.1056
G01 X21.5135 Y12.1898
G01 X21.5260 Y12.2132
G01 X21.5680 Y12.3019
G01 X21.5781 Y12.3264
G01 X21.6112 Y12.4188
G01 X21.6188 Y12.4441
G01 X21.6427 Y12.5393
G01 X21.6479 Y12.5653
G01 X21.6623 Y12.6624
G01 X21.6649 Y12.6887
G01 X21.6697 Y12.7868
G01 X21.6697 Y12.8132
G01 X21.6649 Y12.9113
G01 X21.6623 Y12.9376
G01 X21.6479 Y13.0347
G01 X21.6427 Y13.0607
G01 X21.6188 Y13.1559
G01 X21.6112 Y13.1812
G01 X21.5781 Y13.2736
G01 X21.5680 Y13.2981
G01 X21.5260 Y13.3868
G01 X21.5135 Y13.4102
G01 X21.4631 Y13.4944
G01 X21.4483 Y13.5164
G01 X21.4217 Y13.5524
G01 X21.6646 Y13.7954
G01 X21.6738 Y13.8049
G01 X21.7068 Y13.8413
G01 X21.7236 Y13.8618
G01 X21.7528 Y13.9012
G01 X21.7675 Y13.9233
G01 X21.7928 Y13.9654
G01 X21.8053 Y13.9887
G01 X21.8262 Y14.0331
G01 X21.8364 Y14.0576
G01 X21.8529 Y14.1038
G01 X21.8606 Y14.1292
G01 X21.8725 Y14.1768
G01 X21.8777 Y14.2028
G01 X21.8849 Y14.2513
G01 X21.8875 Y14.2777
G01 X21.8899 Y14.3268
G01 X21.8903 Y14.3400
G01 X21.8903 Y15.3316
G01 X21.9152 Y15.3501
G01 X21.9357 Y15.3669
G01 X22.0084 Y15.4328
G01 X22.0272 Y15.4516
G01 X22.0931 Y15.5243
G01 X22.1099 Y15.5448
G01 X22.1683 Y15.6236
G01 X22.1831 Y15.6456
G01 X22.2335 Y15.7298
G01 X22.2460 Y15.7532
G01 X22.2880 Y15.8419
G01 X22.2981 Y15.8664
G01 X22.3312 Y15.9588
G01 X22.3388 Y15.9841
G01 X22.3627 Y16.0793
G01 X22.3679 Y16.1053
G01 X22.3823 Y16.2024
G01 X22.3849 Y16.2287
G01 X22.3897 Y16.3268
G01 X22.3900 Y16.3400
G01 X22.3900 Y17.3400
G01 X22.3897 Y17.3532
G01 X22.3849 Y17.4513
G01 X22.3823 Y17.4776
G01 X22.3679 Y17.5747
G01 X22.3627 Y17.6007
G01 X22.3388 Y17.6959
G01 X22.3312 Y17.7212
G01 X22.2981 Y17.8136
G01 X22.2880 Y17.8381
G01 X22.2460 Y17.9268
G01 X22.2335 Y17.9502
G01 X22.1831 Y18.0344
G01 X22.1683 Y18.0564
G01 X22.1099 Y18.1352
G01 X22.0931 Y18.1557
G01 X22.0272 Y18.2284
G01 X22.0084 Y18.2472
G01 X21.9357 Y18.3131
G01 X21.9152 Y18.3299
G01 X21.8364 Y18.3883
G01 X21.8144 Y18.4031
G01 X21.7302 Y18.4535
G01 X21.7068 Y18.4660
G01 X21.6181 Y18.5080
G01 X21.5936 Y18.5181
G01 X21.5012 Y18.5512
G01 X21.4759 Y18.5588
G01 X21.3807 Y18.5827
G01 X21.3547 Y18.5879
G01 X21.2576 Y18.6023
G01 X21.2313 Y18.6049
G01 X21.1332 Y18.6097
G01 X21.1068 Y18.6097
G01 X21.0087 Y18.6049
G01 X20.9824 Y18.6023
G01 X20.8853 Y18.5879
G01 X20.8593 Y18.5827
G01 X20.7641 Y18.5588
G01 X20.7388 Y18.5512
G01 X20.6464 Y18.5181
G01 X20.6219 Y18.5080
G01 X20.5332 Y18.4660
G01 X20.5098 Y18.4535
G01 X20.4256 Y18.4031
G01 X20.4036 Y18.3883
G01 X20.3248 Y18.3299
G01 X20.3043 Y18.3131
G01 X20.2316 Y18.2472
G01 X20.2128 Y18.2284
G01 X20.1469 Y18.1557
G01 X20.1301 Y18.1352
G01 X20.0717 Y18.0564
G01 X20.0569 Y18.0344
G01 X20.0065 Y17.9502
G01 X19.9940 Y17.9268
G01 X19.9520 Y17.8381
G01 X19.9419 Y17.8136
G01 X19.9088 Y17.7212
G01 X19.9012 Y17.6959
G01 X19.8773 Y17.6007
G01 X19.8721 Y17.5747
G01 X19.8577 Y17.4776
G01 X19.8551 Y17.4513
G01 X19.8503 Y17.3532
G01 X19.8500 Y17.3400
G01 X19.8500 Y16.3400
G01 X19.8503 Y16.3268
G01 X19.8551 Y16.2287
G01 X19.8577 Y16.2024
G01 X19.8721 Y16.1053
G01 X19.8773 Y16.0793
G01 X19.9012 Y15.9841
G01 X19.9088 Y15.9588
G01 X19.9419 Y15.8664
G01 X19.9520 Y15.8419
G01 X19.9940 Y15.7532
G01 X20.0065 Y15.7298
G01 X20.0569 Y15.6456
G01 X20.0717 Y15.6236
G01 X20.1301 Y15.5448
G01 X20.1469 Y15.5243
G01 X20.2128 Y15.4516
G01 X20.2316 Y15.4328
G01 X20.3043 Y15.3669
G01 X20.3248 Y15.3501
G01 X20.3497 Y15.3316
G01 X20.3497 Y14.6590
G01 X19.8554 Y14.1646
G01 X19.8462 Y14.1551
G01 X19.8132 Y14.1187
G01 X19.7964 Y14.0982
G01 X19.7672 Y14.0588
G01 X19.7525 Y14.0367
G01 X19.7272 Y13.9946
G01 X19.7147 Y13.9713
G01 X19.6938 Y13.9269
G01 X19.6836 Y13.9024
G01 X19.6671 Y13.8562
G01 X19.6592 Y13.8303
G00 Z2.0000
G00 X22.8897 Y15.3316
G01 F60.00
G01 Z-0.1500
G01 F120.00
G01 X22.8897 Y14.6590
G01 X22.8554 Y14.6246
G01 X22.8462 Y14.6151
G01 X22.8132 Y14.5787
G01 X22.7964 Y14.5582
G01 X22.7672 Y14.5188
G01 X22.7525 Y14.4967
G01 X22.7272 Y14.4546
G01 X22.7147 Y14.4313
G01 X22.6938 Y14.3869
G01 X22.6836 Y14.3624
G01 X22.6671 Y14.3162
G01 X22.6594 Y14.2908
G01 X22.6475 Y14.2432
G01 X22.6423 Y14.2172
G01 X22.6351 Y14.1687
G01 X22.6325 Y14.1423
G01 X22.6301 Y14.0932
G01 X22.6297 Y14.0800
G01 X22.6297 Y7.3000
G01 X22.6301 Y7.2868
G01 X22.6325 Y7.2377
G01 X22.6351 Y7.2113
G01 X22.6423 Y7.1628
G01 X22.6475 Y7.1368
G01 X22.6594 Y7.0892
G01 X22.6671 Y7.0638
G01 X22.6836 Y7.0176
G01 X22.6938 Y6.9931
G01 X22.7147 Y6.9487
G01 X22.7272 Y6.9254
G01 X22.7525 Y6.8833
G01 X22.7672 Y6.8612
G01 X22.7964 Y6.8218
G01 X22.8132 Y6.8013
G01 X22.8462 Y6.7649
G01 X22.8554 Y6.7554
G01 X23.1423 Y6.4684
G01 X23.1377 Y6.4376
G01 X23.1351 Y6.4113
G01 X23.1303 Y6.3132
G01 X23.1303 Y6.2868
G01 X23.1351 Y6.1887
G01 X23.1377 Y6.1624
G01 X23.1521 Y6.0653
G01 X23.1573 Y6.0393
G01 X23.1812 Y5.9441
G01 X23.1888 Y5.9188
G01 X23.2219 Y5.8264
G01 X23.2320 Y5.8019
G01 X23.2740 Y5.7132
G01 X23.2865 Y5.6898
G01 X23.3369 Y5.6056
G01 X23.3517 Y5.5836
G01 X23.4101 Y5.5048
G01 X23.4269 Y5.4843
G01 X23.4928 Y5.4116
G01 X23.5116 Y5.3928
G01 X23.5843 Y5.3269
G01 X23.6048 Y5.3101
G01 X23.6836 Y5.2517
G01 X23.7056 Y5.2369
G01 X23.7898 Y5.1865
G01 X23.8132 Y5.1740
G01 X23.9019 Y5.1320
G01 X23.9264 Y5.1219
G01 X24.0188 Y5.0888
G01 X24.0441 Y5.0812
G01 X24.1393 Y5.0573
G01 X24.1653 Y5.0521
G01 X24.2624 Y5.0377
G01 X24.2887 Y5.0351
G01 X24.3868 Y5.0303
G01 X24.4132 Y5.0303
G01 X24.5113 Y5.0351
G01 X24.5376 Y5.0377
G01 X24.6347 Y5.0521
G01 X24.6607 Y5.0573
G01 X24.7559 Y5.0812
G01 X24.7812 Y5.0888
G01 X24.8736 Y5.1219
G01 X24.8981 Y5.1320
G01 X24.9868 Y5.1740
G01 X25.0102 Y5.1865
G01 X25.0944 Y5.2369
G01 X25.1164 Y5.2517
G01 X25.1952 Y5.3101
G01 X25.2157 Y5.3269
G01 X25.2884 Y5.3928
G01 X25.3072 Y5.4116
G01 X25.3731 Y5.4843
G01 X25.3899 Y5.5048
G01 X25.4483 Y5.5836
G01 X25.4631 Y5.6056
G01 X25.5135 Y5.6898
G01 X25.5260 Y5.7132
G01 X25.5680 Y5.8019
G01 X25.5781 Y5.8264
G01 X25.6112 Y5.9188
G01 X25.6188 Y5.9441
G01 X25.6427 Y6.0393
G01 X25.6479 Y6.0653
G01 X25.6623 Y6.1624
G01 X25.6649 Y6.1887
G01 X25.6697 Y6.2868
G01 X25.6697 Y6.3132
G01 X25.6649 Y6.4113
G01 X25.6623 Y6.4376
G01 X25.6479 Y6.5347
G01 X25.6427 Y6.5607
G01 X25.6188 Y6.6559
G01 X25.6112 Y6.6812
G01 X25.5781 Y6.7736
G01 X25.5680 Y6.7981
G01 X25.5260 Y6.8868
G01 X25.5135 Y6.9102
G01 X25.4631 Y6.9944
G01 X25.4483 Y7.0164
G01 X25.3899 Y7.0952
G01 X25.3731 Y7.1157
G01 X25.3072 Y7.1884
G01 X25.2884 Y7.2072
G01 X25.2157 Y7.2731
G01 X25.1952 Y7.2899
G01 X25.1164 Y7.3483
G01 X25.0944 Y7.3631
G01 X25.0102 Y7.4135
G01 X24.9868 Y7.4260
G01 X24.8981 Y7.4680
G01 X24.8736 Y7.4781
G01 X24.7812 Y7.5112
G01 X24.7559 Y7.5188
G01 X24.6607 Y7.5427
G01 X24.6347 Y7.5479
G01 X24.5376 Y7.5623
G01 X24.5113 Y7.5649
G01 X24.4132 Y7.5697
G01 X24.3868 Y7.5697
G01 X24.2887 Y7.5649
G01 X24.2624 Y7.5623
G01 X24.2316 Y7.5577
G01 X24.1703 Y7.6190
G01 X24.1703 Y13.7610
G01 X24.2046 Y13.7954
G01 X24.2138 Y13.8049
G01 X24.2468 Y13.8413
G01 X24.2636 Y13.8618
G01 X24.2928 Y13.9012
G01 X24.3075 Y13.9233
G01 X24.3328 Y13.9654
G01 X24.3453 Y13.9887
G01 X24.3662 Y14.0331
G01 X24.3764 Y14.0576
G01 X24.3929 Y14.1038
G01 X24.4006 Y14.1292
G01 X24.4125 Y14.1768
G01 X24.4177 Y14.2028
G01 X24.4249 Y14.2513
G01 X24.4275 Y14.2777
G01 X24.4299 Y14.3268
G01 X24.4303 Y14.3400
G01 X24.4303 Y15.3316
G01 X24.4552 Y15.3501
G01 X24.4757 Y15.3669
G01 X24.5484 Y15.4328
G01 X24.5672 Y15.4516
G01 X24.6331 Y15.5243
G01 X24.6499 Y15.5448
G01 X24.7083 Y15.6236
G01 X24.7231 Y15.6456
G01 X24.7735 Y15.7298
G01 X24.7860 Y15.7532
G01 X24.8280 Y15.8419
G01 X24.8381 Y15.8664
G01 X24.8712 Y15.9588
G01 X24.8788 Y15.9841
G01 X24.9027 Y16.0793
G01 X24.9079 Y16.1053
G01 X24.9223 Y16.2024
G01 X24.9249 Y16.2287
G01 X24.9297 Y16.3268
G01 X24.9300 Y16.3400
G01 X24.9300 Y17.3400
G01 X24.9297 Y17.3532
G01 X24.9249 Y17.4513
G01 X24.9223 Y17.4776
G01 X24.9079 Y17.5747
G01 X24.9027 Y17.6007
G01 X24.8788 Y17.6959
G01 X24.8712 Y17.7212
G01 X24.8381 Y17.8136
G01 X24.8280 Y17.8381
G01 X24.7860 Y17.9268
G01 X24.7735 Y17.9502
G01 X24.7231 Y18.0344
G01 X24.7083 Y18.0564
G01 X24.6499 Y18.1352
G01 X24.6331 Y18.1557
G01 X24.5672 Y18.2284
G01 X24.5484 Y18.2472
G01 X24.4757 Y18.3131
G01 X24.4552 Y18.3299
G01 X24.3764 Y18.3883
G01 X24.3544 Y18.4031
G01 X24.2702 Y18.4535
G01 X24.2468 Y18.4660
G01 X24.1581 Y18.5080
G01 X24.1336 Y18.5181
G01 X24.0412 Y18.5512
G01 X24.0159 Y18.5588
G01 X23.9207 Y18.5827
G01 X23.8947 Y18.5879
G01 X23.7976 Y18.6023
G01 X23.7713 Y18.6049
G01 X23.6732 Y18.6097
G01 X23.6468 Y18.6097
G01 X23.5487 Y18.6049
G01 X23.5224 Y18.6023
G01 X23.4253 Y18.5879
G01 X23.3993 Y18.5827
G01 X23.3041 Y18.5588
G01 X23.2788 Y18.5512
G01 X23.1864 Y18.5181
G01 X23.1619 Y18.5080
G01 X23.0732 Y18.4660
G01 X23.0498 Y18.4535
G01 X22.9656 Y18.4031
G01 X22.9436 Y18.3883
G01 X22.8648 Y18.3299
G01 X22.8443 Y18.3131
G01 X22.7716 Y18.2472
G01 X22.7528 Y18.2284
G01 X22.6869 Y18.1557
G01 X22.6701 Y18.1352
G01 X22.6117 Y18.0564
G01 X22.5969 Y18.0344
G01 X22.5465 Y17.9502
G01 X22.5340 Y17.9268
G01 X22.4920 Y17.8381
G01 X22.4819 Y17.8136
G01 X22.4488 Y17.7212
G01 X22.4412 Y17.6959
G01 X22.4173 Y17.6007
G01 X22.4121 Y17.5747
G01 X22.3977 Y17.4776
G01 X22.3951 Y17.4513
G01 X22.3903 Y17.3532
G01 X22.3900 Y17.3400
G01 X22.3900 Y16.3400
G01 X22.3903 Y16.3268
G01 X22.3951 Y16.2287
G01 X22.3977 Y16.2024
G01 X22.4121 Y16.1053
G01 X22.4173 Y16.0793
G01 X22.4412 Y15.9841
G01 X22.4488 Y15.9588
G01 X22.4819 Y15.8664
G01 X22.4920 Y15.8419
G01 X22.5340 Y15.7532
G01 X22.5465 Y15.7298
G01 X22.5969 Y15.6456
G01 X22.6117 Y15.6236
G01 X22.6701 Y15.5448
G01 X22.6869 Y15.5243
G01 X22.7528 Y15.4516
G01 X22.7716 Y15.4328
G01 X22.8443 Y15.3669
G01 X22.8648 Y15.3501
G01 X22.8897 Y15.3316
G00 Z2.0000
G00 X18.6550 Y18.5153
G01 F60.00
G01 Z-0.1500
G01 F120.00
G01 X18.6576 Y18.5417
G01 X18.6697 Y18.7868
G01 X18.6697 Y18.8132
G01 X18.6576 Y19.0583
G01 X18.6550 Y19.0847
G01 X18.6190 Y19.3273
G01 X18.6139 Y19.3533
G01 X18.5543 Y19.5913
G01 X18.5466 Y19.6167
G01 X18.4639 Y19.8477
G01 X18.4538 Y19.8721
G01 X18.3489 Y20.0939
G01 X18.3364 Y20.1173
G01 X18.2103 Y20.3277
G01 X18.1955 Y20.3498
G01 X18.0494 Y20.5468
G01 X18.0326 Y20.5673
G01 X17.8678 Y20.7491
G01 X17.8491 Y20.7678
G01 X17.6673 Y20.9326
G01 X17.6468 Y20.9494
G01 X17.4498 Y21.0955
G01 X17.4277 Y21.1103
G01 X17.2173 Y21.2364
G01 X17.1939 Y21.2489
G01 X16.9721 Y21.3538
G01 X16.9477 Y21.3639
G01 X16.7167 Y21.4466
G01 X16.6913 Y21.4543
G01 X16.4533 Y21.5139
G01 X16.4273 Y21.5190
G01 X16.1847 Y21.5550
G01 X16.1583 Y21.5576
G01 X15.9132 Y21.5697
G01 X15.8868 Y21.5697
G01 X15.6417 Y21.5576
G01 X15.6153 Y21.5550
G01 X15.3727 Y21.5190
G01 X15.3467 Y21.5139
G01 X15.1087 Y21.4543
G01 X15.0833 Y21.4466
G01 X14.8523 Y21.3639
G01 X14.8279 Y21.3538
G01 X14.6061 Y21.2489
G01 X14.5827 Y21.2364
G01 X14.3723 Y21.1103
G01 X14.3502 Y21.0955
G01 X14.1532 Y20.9494
G01 X14.1327 Y20.9326
G01 X13.9509 Y20.7678
G01 X13.9322 Y20.7491
G01 X13.7674 Y20.5673
G01 X13.7506 Y20.5468
G01 X13.6045 Y20.3498
G01 X13.5897 Y20.3277
G01 X13.4636 Y20.1173
G01 X13.4511 Y20.0939
G01 X13.3462 Y19.8721
G01 X13.3361 Y19.8477
G01 X13.2534 Y19.6167
G01 X13.2457 Y19.5913
G01 X13.1861 Y19.3533
G01 X13.1810 Y19.3273
G01 X13.1450 Y19.0847
G01 X13.1424 Y19.0583
G01 X13.1303 Y18.8132
G01 X13.1303 Y18.7868
G01 X13.1424 Y18.5417
G01 X13.1450 Y18.5153
G01 X13.1810 Y18.2727
G01 X13.1861 Y18.2467
G01 X13.2457 Y18.0087
G01 X13.2534 Y17.9833
G01 X13.3361 Y17.7523
G01 X13.3462 Y17.7279
G01 X13.4511 Y17.5061
G01 X13.4636 Y17.4827
G01 X13.5897 Y17.2723
G01 X13.6045 Y17.2502
G01 X13.7506 Y17.0532
G01 X13.7674 Y17.0327
G01 X13.9322 Y16.8509
G01 X13.9509 Y16.8322
G01 X14.1327 Y16.6674
G01 X14.1532 Y16.6506
G01 X14.3502 Y16.5045
G01 X14.3723 Y16.4897
G01 X14.5827 Y16.3636
G01 X14.6061 Y16.3511
G01 X14.8279 Y16.2462
G01 X14.8523 Y16.2361
G01 X15.0833 Y16.1534
G01 X15.1087 Y16.1457
G01 X15.3467 Y16.0861
G01 X15.3727 Y16.0810
G01 X15.6153 Y16.0450
G01 X15.6417 Y16.0424
G01 X15.8868 Y16.0303
G01 X15.9132 Y16.0303
G01 X16.1583 Y16.0424
G01 X16.1847 Y16.0450
G01 X16.4273 Y16.0810
G01 X16.4533 Y16.0861
G01 X16.6913 Y16.1457
G01 X16.7167 Y16.1534
G01 X16.9477 Y16.2361
G01 X16.9721 Y16.2462
G01 X17.1939 Y16.3511
G01 X17.2173 Y16.3636
G01 X17.4277 Y16.4897
G01 X17.4498 Y16.5045
G01 X17.6468 Y16.6506
G01 X17.6673 Y16.6674
G01 X17.8491 Y16.8322
G01 X17.8678 Y16.8509
G01 X18.0326 Y17.0327
G01 X18.0494 Y17.0532
G01 X18.1955 Y17.2502
G01 X18.2103 Y17.2723
G01 X18.3364 Y17.4827
G01 X18.3489 Y17.5061
G01 X18.4538 Y17.7279
G01 X18.4639 Y17.7523
G01 X18.5466 Y17.9833
G01 X18.5543 Y18.0087
G01 X18.6139 Y18.2467
G01 X18.6190 Y18.2727
G01 X18.6550 Y18.5153
G00 Z2.0000
G00 X17.6697 Y23.9897
G01 F60.00
G01 Z-0.1500
G01 F120.00
G01 X17.6812 Y23.9441
G01 X17.6888 Y23.9188
G01 X17.7219 Y23.8264
G01 X17.7320 Y23.8019
G01 X17.7740 Y23.7132
G01 X17.7865 Y23.6898
G01 X17.8369 Y23.6056
G01 X17.8517 Y23.5836
G01 X17.9101 Y23.5048
G01 X17.9269 Y23.4843
G01 X17.9928 Y23.4116
G01 X18.0116 Y23.3928
G01 X18.0843 Y23.3269
G01 X18.1048 Y23.3101
G01 X18.1836 Y23.2517
G01 X18.2056 Y23.2369
G01 X18.2898 Y23.1865
G01 X18.3132 Y23.1740
G01 X18.4019 Y23.1320
G01 X18.4264 Y23.1219
G01 X18.5188 Y23.0888
G01 X18.5441 Y23.0812
G01 X18.6393 Y23.0573
G01 X18.6653 Y23.0521
G01 X18.7624 Y23.0377
G01 X18.7887 Y23.0351
G01 X18.8868 Y23.0303
G01 X18.9132 Y23.0303
G01 X19.0113 Y23.0351
G01 X19.0376 Y23.0377
G01 X19.1347 Y23.0521
G01 X19.1607 Y23.0573
G01 X19.2559 Y23.0812
G01 X19.2812 Y23.0888
G01 X19.3736 Y23.1219
G01 X19.3981 Y23.1320
G01 X19.4868 Y23.1740
G01 X19.5102 Y23.1865
G01 X19.5944 Y23.2369
G01 X19.6164 Y23.2517
G01 X19.6952 Y23.3101
G01 X19.7157 Y23.3269
G01 X19.7884 Y23.3928
G01 X19.8072 Y23.4116
G01 X19.8731 Y23.4843
G01 X19.8899 Y23.5048
G01 X19.9483 Y23.5836
G01 X19.9631 Y23.6056
G01 X20.0135 Y23.6898
G01 X20.0260 Y23.7132
G01 X20.0680 Y23.8019
G01 X20.0781 Y23.8264
G01 X20.1112 Y23.9188
G01 X20.1188 Y23.9441
G01 X20.1427 Y24.0393
G01 X20.1479 Y24.0653
G01 X20.1623 Y24.1624
G01 X20.1649 Y24.1887
G01 X20.1697 Y24.2868
G01 X20.1697 Y24.3132
G01 X20.1649 Y24.4113
G01 X20.1623 Y24.4376
G01 X20.1479 Y24.5347
G01 X20.1427 Y24.5607
G01 X20.1188 Y24.6559
G01 X20.1112 Y24.6812
G01 X20.0781 Y24.7736
G01 X20.0680 Y24.7981
G01 X20.0260 Y24.8868
G01 X20.0135 Y24.9102
G01 X19.9631 Y24.9944
G01 X19.9483 Y25.0164
G01 X19.8899 Y25.0952
G01 X19.8731 Y25.1157
G01 X19.8072 Y25.1884
G01 X19.7884 Y25.2072
G01 X19.7157 Y25.2731
G01 X19.6952 Y25.2899
G01 X19.6164 Y25.3483
G01 X19.5944 Y25.3631
G01 X19.5102 Y25.4135
G01 X19.4868 Y25.4260
G01 X19.3981 Y25.4680
G01 X19.3736 Y25.4781
G01 X19.2812 Y25.5112
G01 X19.2559 Y25.5188
G01 X19.1607 Y25.5427
G01 X19.1347 Y25.5479
G01 X19.0376 Y25.5623
G01 X19.0113 Y25.5649
G01 X18.9132 Y25.5697
G01 X18.8868 Y25.5697
G01 X18.7887 Y25.5649
G01 X18.7624 Y25.5623
G01 X18.6653 Y25.5479
G01 X18.6393 Y25.5427
G01 X18.6200 Y25.5378
G01 X18.6108 Y25.5406
G01 X18.5632 Y25.5525
G01 X18.5372 Y25.5577
G01 X18.4887 Y25.5649
G01 X18.4623 Y25.5675
G01 X18.4132 Y25.5699
G01 X18.3868 Y25.5699
G01 X18.3377 Y25.5675
G01 X18.3113 Y25.5649
G01 X18.2628 Y25.5577
G01 X18.2368 Y25.5525
G01 X18.1892 Y25.5406
G01 X18.1638 Y25.5329
G01 X18.1563 Y25.5303
G01 X17.1700 Y25.5303
G01 X17.1700 Y25.7600
G01 X17.1687 Y25.7865
G01 X17.1648 Y25.8127
G01 X17.1584 Y25.8384
G01 X17.1494 Y25.8633
G01 X17.1381 Y25.8873
G01 X17.1245 Y25.9100
G01 X17.1087 Y25.9313
G01 X17.0909 Y25.9509
G01 X17.0713 Y25.9687
G01 X17.0500 Y25.9845
G01 X17.0273 Y25.9981
G01 X17.0033 Y26.0094
G01 X16.9784 Y26.0184
G01 X16.9527 Y26.0248
G01 X16.9265 Y26.0287
G01 X16.9000 Y26.0300
G01 X14.9000 Y26.0300
G01 X14.8735 Y26.0287
G01 X14.8473 Y26.0248
G01 X14.8216 Y26.0184
G01 X14.7967 Y26.0094
G01 X14.7727 Y25.9981
G01 X14.7500 Y25.9845
G01 X14.7287 Y25.9687
G01 X14.7091 Y25.9509
G01 X14.6913 Y25.9313
G01 X14.6755 Y25.9100
G01 X14.6619 Y25.8873
G01 X14.6506 Y25.8633
G01 X14.6416 Y25.8384
G01 X14.6352 Y25.8127
G01 X14.6313 Y25.7865
G01 X14.6300 Y25.7600
G01 X14.6300 Y23.7600
G01 X14.6313 Y23.7335
G01 X14.6352 Y23.7073
G01 X14.6416 Y23.6816
G01 X14.6506 Y23.6567
G01 X14.6619 Y23.6327
G01 X14.6755 Y23.6100
G01 X14.6913 Y23.5887
G01 X14.7091 Y23.5691
G01 X14.7287 Y23.5513
G01 X14.7500 Y23.5355
G01 X14.7727 Y23.5219
G01 X14.7967 Y23.5106
G01 X14.8216 Y23.5016
G01 X14.8473 Y23.4952
G01 X14.8735 Y23.4913
G01 X14.9000 Y23.4900
G01 X16.9000 Y23.4900
G01 X16.9265 Y23.4913
G01 X16.9527 Y23.4952
G01 X16.9784 Y23.5016
G01 X17.0033 Y23.5106
G01 X17.0273 Y23.5219
G01 X17.0500 Y23.5355
G01 X17.0713 Y23.5513
G01 X17.0909 Y23.5691
G01 X17.1087 Y23.5887
G01 X17.1245 Y23.6100
G01 X17.1381 Y23.6327
G01 X17.1494 Y23.6567
G01 X17.1584 Y23.6816
G01 X17.1648 Y23.7073
G01 X17.1687 Y23.7335
G01 X17.1700 Y23.7600
G01 X17.1700 Y23.9897
G01 X17.6697 Y23.9897
G00 Z2.0000
G00 X25.1297 Y10.3084
G01 F60.00
G01 Z-0.1500
G01 F120.00
G01 X25.1048 Y10.2899
G01 X25.0843 Y10.2731
G01 X25.0116 Y10.2072
G01 X24.9928 Y10.1884
G01 X24.9269 Y10.1157
G01 X24.9101 Y10.0952
G01 X24.8517 Y10.0164
G01 X24.8369 Y9.9944
G01 X24.7865 Y9.9102
G01 X24.7740 Y9.8868
G01 X24.7320 Y9.7981
G01 X24.7219 Y9.7736
G01 X24.6888 Y9.6812
G01 X24.6812 Y9.6559
G01 X24.6573 Y9.5607
G01 X24.6521 Y9.5347
G01 X24.6377 Y9.4376
G01 X24.6351 Y9.4113
G01 X24.6303 Y9.3132
G01 X24.6303 Y9.2868
G01 X24.6351 Y9.1887
G01 X24.6377 Y9.1624
G01 X24.6521 Y9.0653
G01 X24.6573 Y9.0393
G01 X24.6812 Y8.9441
G01 X24.6888 Y8.9188
G01 X24.7219 Y8.8264
G01 X24.7320 Y8.8019
G01 X24.7740 Y8.7132
G01 X24.7865 Y8.6898
G01 X24.8369 Y8.6056
G01 X24.8517 Y8.5836
G01 X24.9101 Y8.5048
G01 X24.9269 Y8.4843
G01 X24.9928 Y8.4116
G01 X25.0116 Y8.3928
G01 X25.0843 Y8.3269
G01 X25.1048 Y8.3101
G01 X25.1836 Y8.2517
G01 X25.2056 Y8.2369
G01 X25.2898 Y8.1865
G01 X25.3132 Y8.1740
G01 X25.4019 Y8.1320
G01 X25.4264 Y8.1219
G01 X25.5188 Y8.0888
G01 X25.5441 Y8.0812
G01 X25.6393 Y8.0573
G01 X25.6653 Y8.0521
G01 X25.7624 Y8.0377
G01 X25.7887 Y8.0351
G01 X25.8868 Y8.0303
G01 X25.9132 Y8.0303
G01 X26.0113 Y8.0351
G01 X26.0376 Y8.0377
G01 X26.1347 Y8.0521
G01 X26.1607 Y8.0573
G01 X26.2559 Y8.0812
G01 X26.2812 Y8.0888
G01 X26.3736 Y8.1219
G01 X26.3981 Y8.1320
G01 X26.4868 Y8.1740
G01 X26.5102 Y8.1865
G01 X26.5944 Y8.2369
G01 X26.6164 Y8.2517
G01 X26.6952 Y8.3101
G01 X26.7157 Y8.3269
G01 X26.7884 Y8.3928
G01 X26.8072 Y8.4116
G01 X26.8731 Y8.4843
G01 X26.8899 Y8.5048
G01 X26.9483 Y8.5836
G01 X26.9631 Y8.6056
G01 X27.0135 Y8.6898
G01 X27.0260 Y8.7132
G01 X27.0680 Y8.8019
G01 X27.0781 Y8.8264
G01 X27.1112 Y8.9188
G01 X27.1188 Y8.9441
G01 X27.1427 Y9.0393
G01 X27.1479 Y9.0653
G01 X27.1623 Y9.1624
G01 X27.1649 Y9.1887
G01 X27.1697 Y9.2868
G01 X27.1697 Y9.3132
G01 X27.1649 Y9.4113
G01 X27.1623 Y9.4376
G01 X27.1479 Y9.5347
G01 X27.1427 Y9.5607
G01 X27.1188 Y9.6559
G01 X27.1112 Y9.6812
G01 X27.0781 Y9.7736
G01 X27.0680 Y9.7981
G01 X27.0260 Y9.8868
G01 X27.0135 Y9.9102
G01 X26.9631 Y9.9944
G01 X26.9483 Y10.0164
G01 X26.8899 Y10.0952
G01 X26.8731 Y10.1157
G01 X26.8072 Y10.1884
G01 X26.7884 Y10.2072
G01 X26.7157 Y10.2731
G01 X26.6952 Y10.2899
G01 X26.6703 Y10.3084
G01 X26.6703 Y13.7210
G01 X26.7446 Y13.7954
G01 X26.7538 Y13.8049
G01 X26.7868 Y13.8413
G01 X26.8036 Y13.8618
G01 X26.8328 Y13.9012
G01 X26.8475 Y13.9233
G01 X26.8728 Y13.9654
G01 X26.8853 Y13.9887
G01 X26.9062 Y14.0331
G01 X26.9164 Y14.0576
G01 X26.9329 Y14.1038
G01 X26.9406 Y14.1292
G01 X26.9525 Y14.1768
G01 X26.9577 Y14.2028
G01 X26.9649 Y14.2513
G01 X26.9675 Y14.2777
G01 X26.9699 Y14.3268
G01 X26.9703 Y14.3400
G01 X26.9703 Y15.3316
G01 X26.9952 Y15.3501
G01 X27.0157 Y15.3669
G01 X27.0884 Y15.4328
G01 X27.1072 Y15.4516
G01 X27.1731 Y15.5243
G01 X27.1899 Y15.5448
G01 X27.2483 Y15.6236
G01 X27.2631 Y15.6456
G01 X27.3135 Y15.7298
G01 X27.3260 Y15.7532
G01 X27.3680 Y15.8419
G01 X27.3781 Y15.8664
G01 X27.4112 Y15.9588
G01 X27.4188 Y15.9841
G01 X27.4427 Y16.0793
G01 X27.4479 Y16.1053
G01 X27.4623 Y16.2024
G01 X27.4649 Y16.2287
G01 X27.4697 Y16.3268
G01 X27.4700 Y16.3400
G01 X27.4700 Y17.3400
G01 X27.4697 Y17.3532
G01 X27.4649 Y17.4513
G01 X27.4623 Y17.4776
G01 X27.4479 Y17.5747
G01 X27.4427 Y17.6007
G01 X27.4188 Y17.6959
G01 X27.4112 Y17.7212
G01 X27.3781 Y17.8136
G01 X27.3680 Y17.8381
G01 X27.3260 Y17.9268
G01 X27.3135 Y17.9502
G01 X27.2631 Y18.0344
G01 X27.2483 Y18.0564
G01 X27.1899 Y18.1352
G01 X27.1731 Y18.1557
G01 X27.1072 Y18.2284
G01 X27.0884 Y18.2472
G01 X27.0157 Y18.3131
G01 X26.9952 Y18.3299
G01 X26.9164 Y18.3883
G01 X26.8944 Y18.4031
G01 X26.8102 Y18.4535
G01 X26.7868 Y18.4660
G01 X26.6981 Y18.5080
G01 X26.6736 Y18.5181
G01 X26.5812 Y18.5512
G01 X26.5559 Y18.5588
G01 X26.4607 Y18.5827
G01 X26.4347 Y18.5879
G01 X26.3376 Y18.6023
G01 X26.3113 Y18.6049
G01 X26.2132 Y18.6097
G01 X26.1868 Y18.6097
G01 X26.0887 Y18.6049
G01 X26.0624 Y18.6023
G01 X25.9653 Y18.5879
G01 X25.9393 Y18.5827
G01 X25.8441 Y18.5588
G01 X25.8188 Y18.5512
G01 X25.7264 Y18.5181
G01 X25.7019 Y18.5080
G01 X25.6132 Y18.4660
G01 X25.5898 Y18.4535
G01 X25.5056 Y18.4031
G01 X25.4836 Y18.3883
G01 X25.4048 Y18.3299
G01 X25.3843 Y18.3131
G01 X25.3116 Y18.2472
G01 X25.2928 Y18.2284
G01 X25.2269 Y18.1557
G01 X25.2101 Y18.1352
G01 X25.1517 Y18.0564
G01 X25.1369 Y18.0344
G01 X25.0865 Y17.9502
G01 X25.0740 Y17.9268
G01 X25.0320 Y17.8381
G01 X25.0219 Y17.8136
G01 X24.9888 Y17.7212
G01 X24.9812 Y17.6959
G01 X24.9573 Y17.6007
G01 X24.9521 Y17.5747
G01 X24.9377 Y17.4776
G01 X24.9351 Y17.4513
G01 X24.9303 Y17.3532
G01 X24.9300 Y17.3400
G01 X24.9300 Y16.3400
G01 X24.9303 Y16.3268
G01 X24.9351 Y16.2287
G01 X24.9377 Y16.2024
G01 X24.9521 Y16.1053
G01 X24.9573 Y16.0793
G01 X24.9812 Y15.9841
G01 X24.9888 Y15.9588
G01 X25.0219 Y15.8664
G01 X25.0320 Y15.8419
G01 X25.0740 Y15.7532
G01 X25.0865 Y15.7298
G01 X25.1369 Y15.6456
G01 X25.1517 Y15.6236
G01 X25.2101 Y15.5448
G01 X25.2269 Y15.5243
G01 X25.2928 Y15.4516
G01 X25.3116 Y15.4328
G01 X25.3843 Y15.3669
G01 X25.4048 Y15.3501
G01 X25.4297 Y15.3316
G01 X25.4297 Y14.6590
G01 X25.3554 Y14.5846
G01 X25.3462 Y14.5751
G01 X25.3132 Y14.5387
G01 X25.2964 Y14.5182
G01 X25.2672 Y14.4788
G01 X25.2525 Y14.4567
G01 X25.2272 Y14.4146
G01 X25.2147 Y14.3913
G01 X25.1938 Y14.3469
G01 X25.1836 Y14.3224
G01 X25.1671 Y14.2762
G01 X25.1594 Y14.2508
G01 X25.1475 Y14.2032
G01 X25.1423 Y14.1772
G01 X25.1351 Y14.1287
G01 X25.1325 Y14.1023
G01 X25.1301 Y14.0532
G01 X25.1297 Y14.0400
G01 X25.1297 Y10.3084
G00 Z2.0000
G00 X32.1703 Y7.1124
G01 F60.00
G01 Z-0.1500
G01 F120.00
G01 X32.1703 Y9.4876
G01 X32.1812 Y9.4441
G01 X32.1888 Y9.4188
G01 X32.2219 Y9.3264
G01 X32.2320 Y9.3019
G01 X32.2740 Y9.2132
G01 X32.2865 Y9.1898
G01 X32.3369 Y9.1056
G01 X32.3517 Y9.0836
G01 X32.4101 Y9.0048
G01 X32.4269 Y8.9843
G01 X32.4928 Y8.9116
G01 X32.5116 Y8.8928
G01 X32.5843 Y8.8269
G01 X32.6048 Y8.8101
G01 X32.6836 Y8.7517
G01 X32.7056 Y8.7369
G01 X32.7898 Y8.6865
G01 X32.8132 Y8.6740
G01 X32.9019 Y8.6320
G01 X32.9264 Y8.6219
G01 X33.0188 Y8.5888
G01 X33.0441 Y8.5812
G01 X33.1393 Y8.5573
G01 X33.1653 Y8.5521
G01 X33.2624 Y8.5377
G01 X33.2887 Y8.5351
G01 X33.3868 Y8.5303
G01 X33.4132 Y8.5303
G01 X33.5113 Y8.5351
G01 X33.5376 Y8.5377
G01 X33.6347 Y8.5521
G01 X33.6607 Y8.5573
G01 X33.7559 Y8.5812
G01 X33.7812 Y8.5888
G01 X33.8736 Y8.6219
G01 X33.8981 Y8.6320
G01 X33.9868 Y8.6740
G01 X34.0102 Y8.6865
G01 X34.0944 Y8.7369
G01 X34.1164 Y8.7517
G01 X34.1952 Y8.8101
G01 X34.2157 Y8.8269
G01 X34.2884 Y8.8928
G01 X34.3072 Y8.9116
G01 X34.3731 Y8.9843
G01 X34.3899 Y9.0048
G01 X34.4084 Y9.0297
G01 X35.3916 Y9.0297
G01 X35.4101 Y9.0048
G01 X35.4269 Y8.9843
G01 X35.4928 Y8.9116
G01 X35.5116 Y8.8928
G01 X35.5843 Y8.8269
G01 X35.6048 Y8.8101
G01 X35.6836 Y8.7517
G01 X35.7056 Y8.7369
G01 X35.7898 Y8.6865
G01 X35.8132 Y8.6740
G01 X35.9019 Y8.6320
G01 X35.9264 Y8.6219
G01 X36.0188 Y8.5888
G01 X36.0441 Y8.5812
G01 X36.1393 Y8.5573
G01 X36.1653 Y8.5521
G01 X36.2624 Y8.5377
G01 X36.2887 Y8.5351
G01 X36.3868 Y8.5303
G01 X36.4132 Y8.5303
G01 X36.5113 Y8.5351
G01 X36.5376 Y8.5377
G01 X36.6347 Y8.5521
G01 X36.6607 Y8.5573
G01 X36.7559 Y8.5812
G01 X36.7812 Y8.5888
G01 X36.8736 Y8.6219
G01 X36.8981 Y8.6320
G01 X36.9868 Y8.6740
G01 X37.0102 Y8.6865
G01 X37.0944 Y8.7369
G01 X37.1164 Y8.7517
G01 X37.1952 Y8.8101
G01 X37.2157 Y8.8269
G01 X37.2884 Y8.8928
G01 X37.3072 Y8.9116
G01 X37.3731 Y8.9843
G01 X37.3899 Y9.0048
G01 X37.4483 Y9.0836
G01 X37.4631 Y9.1056
G01 X37.5135 Y9.1898
G01 X37.5260 Y9.2132
G01 X37.5680 Y9.3019
G01 X37.5781 Y9.3264
G01 X37.6112 Y9.4188
G01 X37.6188 Y9.4441
G01 X37.6427 Y9.5393
G01 X37.6479 Y9.5653
G01 X37.6623 Y9.6624
G01 X37.6649 Y9.6887
G01 X37.6697 Y9.7868
G01 X37.6697 Y9.8132
G01 X37.6649 Y9.9113
G01 X37.6623 Y9.9376
G01 X37.6479 Y10.0347
G01 X37.6427 Y10.0607
G01 X37.6188 Y10.1559
G01 X37.6112 Y10.1812
G01 X37.5781 Y10.2736
G01 X37.5680 Y10.2981
G01 X37.5260 Y10.3868
G01 X37.5135 Y10.4102
G01 X37.4631 Y10.4944
G01 X37.4483 Y10.5164
G01 X37.3899 Y10.5952
G01 X37.3731 Y10.6157
G01 X37.3072 Y10.6884
G01 X37.2884 Y10.7072
G01 X37.2157 Y10.7731
G01 X37.1952 Y10.7899
G01 X37.1164 Y10.8483
G01 X37.0944 Y10.8631
G01 X37.0102 Y10.9135
G01 X36.9868 Y10.9260
G01 X36.8981 Y10.9680
G01 X36.8736 Y10.9781
G01 X36.7812 Y11.0112
G01 X36.7559 Y11.0188
G01 X36.6607 Y11.0427
G01 X36.6347 Y11.0479
G01 X36.5376 Y11.0623
G01 X36.5113 Y11.0649
G01 X36.4132 Y11.0697
G01 X36.3868 Y11.0697
G01 X36.2887 Y11.0649
G01 X36.2624 Y11.0623
G01 X36.1653 Y11.0479
G01 X36.1393 Y11.0427
G01 X36.0441 Y11.0188
G01 X36.0188 Y11.0112
G01 X35.9264 Y10.9781
G01 X35.9019 Y10.9680
G01 X35.8132 Y10.9260
G01 X35.7898 Y10.9135
G01 X35.7056 Y10.8631
G01 X35.6836 Y10.8483
G01 X35.6048 Y10.7899
G01 X35.5843 Y10.7731
G01 X35.5116 Y10.7072
G01 X35.4928 Y10.6884
G01 X35.4269 Y10.6157
G01 X35.4101 Y10.5952
G01 X35.3916 Y10.5703
G01 X34.4084 Y10.5703
G01 X34.3899 Y10.5952
G01 X34.3731 Y10.6157
G01 X34.3072 Y10.6884
G01 X34.2884 Y10.7072
G01 X34.2157 Y10.7731
G01 X34.1952 Y10.7899
G01 X34.1164 Y10.8483
G01 X34.0944 Y10.8631
G01 X34.0102 Y10.9135
G01 X33.9868 Y10.9260
G01 X33.8981 Y10.9680
G01 X33.8736 Y10.9781
G01 X33.7812 Y11.0112
G01 X33.7559 Y11.0188
G01 X33.6607 Y11.0427
G01 X33.6347 Y11.0479
G01 X33.5376 Y11.0623
G01 X33.5113 Y11.0649
G01 X33.4132 Y11.0697
G01 X33.3868 Y11.0697
G01 X33.2887 Y11.0649
G01 X33.2624 Y11.0623
G01 X33.1653 Y11.0479
G01 X33.1393 Y11.0427
G01 X33.0441 Y11.0188
G01 X33.0188 Y11.0112
G01 X32.9264 Y10.9781
G01 X32.9019 Y10.9680
G01 X32.8132 Y10.9260
G01 X32.7898 Y10.9135
G01 X32.7056 Y10.8631
G01 X32.6836 Y10.8483
G01 X32.6048 Y10.7899
G01 X32.5843 Y10.7731
G01 X32.5116 Y10.7072
G01 X32.4928 Y10.6884
G01 X32.4269 Y10.6157
G01 X32.4101 Y10.5952
G01 X32.3517 Y10.5164
G01 X32.3369 Y10.4944
G01 X32.2865 Y10.4102
G01 X32.2740 Y10.3868
G01 X32.2320 Y10.2981
G01 X32.2219 Y10.2736
G01 X32.1888 Y10.1812
G01 X32.1812 Y10.1559
G01 X32.1703 Y10.1124
G01 X32.1703 Y12.4876
G01 X32.1812 Y12.4441
G01 X32.1888 Y12.4188
G01 X32.2219 Y12.3264
G01 X32.2320 Y12.3019
G01 X32.2740 Y12.2132
G01 X32.2865 Y12.1898
G01 X32.3369 Y12.1056
G01 X32.3517 Y12.0836
G01 X32.4101 Y12.0048
G01 X32.4269 Y11.9843
G01 X32.4928 Y11.9116
G01 X32.5116 Y11.8928
G01 X32.5843 Y11.8269
G01 X32.6048 Y11.8101
G01 X32.6836 Y11.7517
G01 X32.7056 Y11.7369
G01 X32.7898 Y11.6865
G01 X32.8132 Y11.6740
G01 X32.9019 Y11.6320
G01 X32.9264 Y11.6219
G01 X33.0188 Y11.5888
G01 X33.0441 Y11.5812
G01 X33.1393 Y11.5573
G01 X33.1653 Y11.5521
G01 X33.2624 Y11.5377
G01 X33.2887 Y11.5351
G01 X33.3868 Y11.5303
G01 X33.4132 Y11.5303
G01 X33.5113 Y11.5351
G01 X33.5376 Y11.5377
G01 X33.6347 Y11.5521
G01 X33.6607 Y11.5573
G01 X33.7559 Y11.5812
G01 X33.7812 Y11.5888
G01 X33.8736 Y11.6219
G01 X33.8981 Y11.6320
G01 X33.9868 Y11.6740
G01 X34.0102 Y11.6865
G01 X34.0944 Y11.7369
G01 X34.1164 Y11.7517
G01 X34.1952 Y11.8101
G01 X34.2157 Y11.8269
G01 X34.2884 Y11.8928
G01 X34.3072 Y11.9116
G01 X34.3731 Y11.9843
G01 X34.3899 Y12.0048
G01 X34.4084 Y12.0297
G01 X35.8916 Y12.0297
G01 X35.9101 Y12.0048
G01 X35.9269 Y11.9843
G01 X35.9928 Y11.9116
G01 X36.0116 Y11.8928
G01 X36.0843 Y11.8269
G01 X36.1048 Y11.8101
G01 X36.1836 Y11.7517
G01 X36.2056 Y11.7369
G01 X36.2898 Y11.6865
G01 X36.3132 Y11.6740
G01 X36.4019 Y11.6320
G01 X36.4264 Y11.6219
G01 X36.5188 Y11.5888
G01 X36.5441 Y11.5812
G01 X36.6393 Y11.5573
G01 X36.6653 Y11.5521
G01 X36.7624 Y11.5377
G01 X36.7887 Y11.5351
G01 X36.8868 Y11.5303
G01 X36.9132 Y11.5303
G01 X37.0113 Y11.5351
G01 X37.0376 Y11.5377
G01 X37.1347 Y11.5521
G01 X37.1607 Y11.5573
G01 X37.2559 Y11.5812
G01 X37.2812 Y11.5888
G01 X37.3736 Y11.6219
G01 X37.3981 Y11.6320
G01 X37.4868 Y11.6740
G01 X37.5102 Y11.6865
G01 X37.5944 Y11.7369
G01 X37.6164 Y11.7517
G01 X37.6952 Y11.8101
G01 X37.7157 Y11.8269
G01 X37.7884 Y11.8928
G01 X37.8072 Y11.9116
G01 X37.8731 Y11.9843
G01 X37.8899 Y12.0048
G01 X37.9483 Y12.0836
G01 X37.9631 Y12.1056
G01 X38.0135 Y12.1898
G01 X38.0260 Y12.2132
G01 X38.0680 Y12.3019
G01 X38.0781 Y12.3264
G01 X38.1112 Y12.4188
G01 X38.1188 Y12.4441
G01 X38.1427 Y12.5393
G01 X38.1479 Y12.5653
G01 X38.1623 Y12.6624
G01 X38.1649 Y12.6887
G01 X38.1697 Y12.7868
G01 X38.1697 Y12.8132
G01 X38.1649 Y12.9113
G01 X38.1623 Y12.9376
G01 X38.1479 Y13.0347
G01 X38.1427 Y13.0607
G01 X38.1188 Y13.1559
G01 X38.1112 Y13.1812
G01 X38.0781 Y13.2736
G01 X38.0680 Y13.2981
G01 X38.0260 Y13.3868
G01 X38.0135 Y13.4102
G01 X37.9631 Y13.4944
G01 X37.9483 Y13.5164
G01 X37.8899 Y13.5952
G01 X37.8731 Y13.6157
G01 X37.8072 Y13.6884
G01 X37.7884 Y13.7072
G01 X37.7157 Y13.7731
G01 X37.6952 Y13.7899
G01 X37.6164 Y13.8483
G01 X37.5944 Y13.8631
G01 X37.5102 Y13.9135
G01 X37.4868 Y13.9260
G01 X37.3981 Y13.9680
G01 X37.3736 Y13.9781
G01 X37.2812 Y14.0112
G01 X37.2559 Y14.0188
G01 X37.1607 Y14.0427
G01 X37.1347 Y14.0479
G01 X37.0376 Y14.0623
G01 X37.0113 Y14.0649
G01 X36.9132 Y14.0697
G01 X36.8868 Y14.0697
G01 X36.7887 Y14.0649
G01 X36.7624 Y14.0623
G01 X36.6653 Y14.0479
G01 X36.6393 Y14.0427
G01 X36.5441 Y14.0188
G01 X36.5188 Y14.0112
G01 X36.4264 Y13.9781
G01 X36.4019 Y13.9680
G01 X36.3132 Y13.9260
G01 X36.2898 Y13.9135
G01 X36.2056 Y13.8631
G01 X36.1836 Y13.8483
G01 X36.1048 Y13.7899
G01 X36.0843 Y13.7731
G01 X36.0116 Y13.7072
G01 X35.9928 Y13.6884
G01 X35.9269 Y13.6157
G01 X35.9101 Y13.5952
G01 X35.8916 Y13.5703
G01 X34.4084 Y13.5703
G01 X34.3899 Y13.5952
G01 X34.3731 Y13.6157
G01 X34.3072 Y13.6884
G01 X34.2884 Y13.7072
G01 X34.2157 Y13.7731
G01 X34.1952 Y13.7899
G01 X34.1164 Y13.8483
G01 X34.0944 Y13.8631
G01 X34.0102 Y13.9135
G01 X33.9868 Y13.9260
G01 X33.8981 Y13.9680
G01 X33.8736 Y13.9781
G01 X33.7812 Y14.0112
G01 X33.7559 Y14.0188
G01 X33.6607 Y14.0427
G01 X33.6347 Y14.0479
G01 X33.5376 Y14.0623
G01 X33.5113 Y14.0649
G01 X33.4132 Y14.0697
G01 X33.3868 Y14.0697
G01 X33.2887 Y14.0649
G01 X33.2624 Y14.0623
G01 X33.1653 Y14.0479
G01 X33.1393 Y14.0427
G01 X33.0441 Y14.0188
G01 X33.0188 Y14.0112
G01 X32.9264 Y13.9781
G01 X32.9019 Y13.9680
G01 X32.8132 Y13.9260
G01 X32.7898 Y13.9135
G01 X32.7056 Y13.8631
G01 X32.6836 Y13.8483
G01 X32.6048 Y13.7899
G01 X32.5843 Y13.7731
G01 X32.5116 Y13.7072
G01 X32.4928 Y13.6884
G01 X32.4269 Y13.6157
G01 X32.4101 Y13.5952
G01 X32.3517 Y13.5164
G01 X32.3369 Y13.4944
G01 X32.2865 Y13.4102
G01 X32.2740 Y13.3868
G01 X32.2320 Y13.2981
G01 X32.2219 Y13.2736
G01 X32.1888 Y13.1812
G01 X32.1812 Y13.1559
G01 X32.1703 Y13.1124
G01 X32.1703 Y15.0300
G01 X32.4000 Y15.0300
G01 X32.4265 Y15.0313
G01 X32.4527 Y15.0352
G01 X32.4784 Y15.0416
G01 X32.5033 Y15.0506
G01 X32.5273 Y15.0619
G01 X32.5500 Y15.0755
G01 X32.5713 Y15.0913
G01 X32.5909 Y15.1091
G01 X32.6087 Y15.1287
G01 X32.6245 Y15.1500
G01 X32.6381 Y15.1727
G01 X32.6494 Y15.1967
G01 X32.6584 Y15.2216
G01 X32.6648 Y15.2473
G01 X32.6687 Y15.2735
G01 X32.6700 Y15.3000
G01 X32.6700 Y18.3000
G01 X32.6687 Y18.3265
G01 X32.6648 Y18.3527
G01 X32.6584 Y18.3784
G01 X32.6494 Y18.4033
G01 X32.6381 Y18.4273
G01 X32.6245 Y18.4500
G01 X32.6087 Y18.4713
G01 X32.5909 Y18.4909
G01 X32.5713 Y18.5087
G01 X32.5500 Y18.5245
G01 X32.5273 Y18.5381
G01 X32.5033 Y18.5494
G01 X32.4784 Y18.5584
G01 X32.4527 Y18.5648
G01 X32.4265 Y18.5687
G01 X32.4000 Y18.5700
G01 X32.1703 Y18.5700
G01 X32.1703 Y19.2916
G01 X32.1952 Y19.3101
G01 X32.2157 Y19.3269
G01 X32.2884 Y19.3928
G01 X32.3072 Y19.4116
G01 X32.3731 Y19.4843
G01 X32.3899 Y19.5048
G01 X32.4483 Y19.5836
G01 X32.4631 Y19.6056
G01 X32.5135 Y19.6898
G01 X32.5260 Y19.7132
G01 X32.5680 Y19.8019
G01 X32.5781 Y19.8264
G01 X32.6112 Y19.9188
G01 X32.6188 Y19.9441
G01 X32.6427 Y20.0393
G01 X32.6479 Y20.0653
G01 X32.6623 Y20.1624
G01 X32.6649 Y20.1887
G01 X32.6697 Y20.2868
G01 X32.6697 Y20.3132
G01 X32.6649 Y20.4113
G01 X32.6623 Y20.4376
G01 X32.6479 Y20.5347
G01 X32.6427 Y20.5607
G01 X32.6188 Y20.6559
G01 X32.6112 Y20.6812
G01 X32.5781 Y20.7736
G01 X32.5680 Y20.7981
G01 X32.5260 Y20.8868
G01 X32.5135 Y20.9102
G01 X32.4631 Y20.9944
G01 X32.4483 Y21.0164
G01 X32.3899 Y21.0952
G01 X32.3731 Y21.1157
G01 X32.3072 Y21.1884
G01 X32.2884 Y21.2072
G01 X32.2157 Y21.2731
G01 X32.1952 Y21.2899
G01 X32.1164 Y21.3483
G01 X32.0944 Y21.3631
G01 X32.0102 Y21.4135
G01 X31.9868 Y21.4260
G01 X31.8981 Y21.4680
G01 X31.8736 Y21.4781
G01 X31.7812 Y21.5112
G01 X31.7559 Y21.5188
G01 X31.6607 Y21.5427
G01 X31.6347 Y21.5479
G01 X31.5376 Y21.5623
G01 X31.5113 Y21.5649
G01 X31.4132 Y21.5697
G01 X31.3868 Y21.5697
G01 X31.2887 Y21.5649
G01 X31.2624 Y21.5623
G01 X31.1653 Y21.5479
G01 X31.1393 Y21.5427
G01 X31.0441 Y21.5188
G01 X31.0188 Y21.5112
G01 X30.9264 Y21.4781
G01 X30.9019 Y21.4680
G01 X30.8132 Y21.4260
G01 X30.7898 Y21.4135
G01 X30.7056 Y21.3631
G01 X30.6836 Y21.3483
G01 X30.6048 Y21.2899
G01 X30.5843 Y21.2731
G01 X30.5116 Y21.2072
G01 X30.4928 Y21.1884
G01 X30.4269 Y21.1157
G01 X30.4101 Y21.0952
G01 X30.3517 Y21.0164
G01 X30.3369 Y20.9944
G01 X30.2865 Y20.9102
G01 X30.2740 Y20.8868
G01 X30.2320 Y20.7981
G01 X30.2219 Y20.7736
G01 X30.1888 Y20.6812
G01 X30.1812 Y20.6559
G01 X30.1573 Y20.5607
G01 X30.1521 Y20.5347
G01 X30.1377 Y20.4376
G01 X30.1351 Y20.4113
G01 X30.1303 Y20.3132
G01 X30.1303 Y20.2868
G01 X30.1351 Y20.1887
G01 X30.1377 Y20.1624
G01 X30.1521 Y20.0653
G01 X30.1573 Y20.0393
G01 X30.1812 Y19.9441
G01 X30.1888 Y19.9188
G01 X30.2219 Y19.8264
G01 X30.2320 Y19.8019
G01 X30.2740 Y19.7132
G01 X30.2865 Y19.6898
G01 X30.3369 Y19.6056
G01 X30.3517 Y19.5836
G01 X30.4101 Y19.5048
G01 X30.4269 Y19.4843
G01 X30.4928 Y19.4116
G01 X30.5116 Y19.3928
G01 X30.5843 Y19.3269
G01 X30.6048 Y19.3101
G01 X30.6297 Y19.2916
G01 X30.6297 Y18.5700
G01 X30.4000 Y18.5700
G01 X30.3735 Y18.5687
G01 X30.3473 Y18.5648
G01 X30.3216 Y18.5584
G01 X30.2967 Y18.5494
G01 X30.2727 Y18.5381
G01 X30.2500 Y18.5245
G01 X30.2287 Y18.5087
G01 X30.2091 Y18.4909
G01 X30.1913 Y18.4713
G01 X30.1755 Y18.4500
G01 X30.1619 Y18.4273
G01 X30.1506 Y18.4033
G01 X30.1416 Y18.3784
G01 X30.1352 Y18.3527
G01 X30.1313 Y18.3265
G01 X30.1300 Y18.3000
G01 X30.1300 Y15.3000
G01 X30.1313 Y15.2735
G01 X30.1352 Y15.2473
G01 X30.1416 Y15.2216
G01 X30.1506 Y15.1967
G01 X30.1619 Y15.1727
G01 X30.1755 Y15.1500
G01 X30.1913 Y15.1287
G01 X30.2091 Y15.1091
G01 X30.2287 Y15.0913
G01 X30.2500 Y15.0755
G01 X30.2727 Y15.0619
G01 X30.2967 Y15.0506
G01 X30.3216 Y15.0416
G01 X30.3473 Y15.0352
G01 X30.3735 Y15.0313
G01 X30.4000 Y15.0300
G01 X30.6297 Y15.0300
G01 X30.6297 Y5.3000
G01 X30.6301 Y5.2868
G01 X30.6325 Y5.2377
G01 X30.6351 Y5.2113
G01 X30.6423 Y5.1628
G01 X30.6475 Y5.1368
G01 X30.6594 Y5.0892
G01 X30.6671 Y5.0638
G01 X30.6836 Y5.0176
G01 X30.6938 Y4.9931
G01 X30.7147 Y4.9487
G01 X30.7272 Y4.9254
G01 X30.7525 Y4.8833
G01 X30.7672 Y4.8612
G01 X30.7964 Y4.8218
G01 X30.8132 Y4.8013
G01 X30.8462 Y4.7649
G01 X30.8554 Y4.7554
G01 X31.3554 Y4.2554
G01 X31.3649 Y4.2462
G01 X31.4013 Y4.2132
G01 X31.4218 Y4.1964
G01 X31.4612 Y4.1672
G01 X31.4833 Y4.1525
G01 X31.5254 Y4.1272
G01 X31.5487 Y4.1147
G01 X31.5931 Y4.0938
G01 X31.6176 Y4.0836
G01 X31.6638 Y4.0671
G01 X31.6892 Y4.0594
G01 X31.7368 Y4.0475
G01 X31.7628 Y4.0423
G01 X31.8113 Y4.0351
G01 X31.8377 Y4.0325
G01 X31.8868 Y4.0301
G01 X31.9000 Y4.0297
G01 X47.9096 Y4.0297
G01 X47.8886 Y4.0256
G01 X47.8077 Y4.0053
G01 X47.7823 Y3.9976
G01 X47.7038 Y3.9695
G01 X47.6793 Y3.9594
G01 X47.6039 Y3.9237
G01 X47.5805 Y3.9112
G01 X47.5090 Y3.8683
G01 X47.4869 Y3.8536
G01 X47.4199 Y3.8039
G01 X47.3994 Y3.7871
G01 X47.3376 Y3.7311
G01 X47.3189 Y3.7124
G01 X47.2629 Y3.6506
G01 X47.2461 Y3.6301
G01 X47.1964 Y3.5631
G01 X47.1817 Y3.5410
G01 X47.1388 Y3.4695
G01 X47.1285 Y3.4503
G01 X46.5622 Y3.4503
G01 X46.5246 Y3.4728
G01 X46.5013 Y3.4853
G01 X46.4569 Y3.5062
G01 X46.4324 Y3.5164
G01 X46.3862 Y3.5329
G01 X46.3608 Y3.5406
G01 X46.3132 Y3.5525
G01 X46.2872 Y3.5577
G01 X46.2387 Y3.5649
G01 X46.2123 Y3.5675
G01 X46.1632 Y3.5699
G01 X46.1500 Y3.5703
G01 X29.7190 Y3.5703
G01 X29.5103 Y3.7790
G01 X29.5103 Y15.3316
G01 X29.5352 Y15.3501
G01 X29.5557 Y15.3669
G01 X29.6284 Y15.4328
G01 X29.6472 Y15.4516
G01 X29.7131 Y15.5243
G01 X29.7299 Y15.5448
G01 X29.7883 Y15.6236
G01 X29.8031 Y15.6456
G01 X29.8535 Y15.7298
G01 X29.8660 Y15.7532
G01 X29.9080 Y15.8419
G01 X29.9181 Y15.8664
G01 X29.9512 Y15.9588
G01 X29.9588 Y15.9841
G01 X29.9827 Y16.0793
G01 X29.9879 Y16.1053
G01 X30.0023 Y16.2024
G01 X30.0049 Y16.2287
G01 X30.0097 Y16.3268
G01 X30.0100 Y16.3400
G01 X30.0100 Y17.3400
G01 X30.0097 Y17.3532
G01 X30.0049 Y17.4513
G01 X30.0023 Y17.4776
G01 X29.9879 Y17.5747
G01 X29.9827 Y17.6007
G01 X29.9588 Y17.6959
G01 X29.9512 Y17.7212
G01 X29.9181 Y17.8136
G01 X29.9080 Y17.8381
G01 X29.8660 Y17.9268
G01 X29.8535 Y17.9502
G01 X29.8031 Y18.0344
G01 X29.7883 Y18.0564
G01 X29.7299 Y18.1352
G01 X29.7131 Y18.1557
G01 X29.6472 Y18.2284
G01 X29.6284 Y18.2472
G01 X29.5557 Y18.3131
G01 X29.5352 Y18.3299
G01 X29.5103 Y18.3484
G01 X29.5103 Y20.4600
G01 X29.5099 Y20.4732
G01 X29.5075 Y20.5223
G01 X29.5049 Y20.5487
G01 X29.4977 Y20.5972
G01 X29.4925 Y20.6232
G01 X29.4806 Y20.6708
G01 X29.4729 Y20.6962
G01 X29.4564 Y20.7424
G01 X29.4462 Y20.7669
G01 X29.4253 Y20.8113
G01 X29.4128 Y20.8346
G01 X29.3875 Y20.8767
G01 X29.3728 Y20.8988
G01 X29.3436 Y20.9382
G01 X29.3268 Y20.9587
G01 X29.2938 Y20.9951
G01 X29.2846 Y21.0046
G01 X27.9446 Y22.3446
G01 X27.9351 Y22.3538
G01 X27.8987 Y22.3868
G01 X27.8782 Y22.4036
G01 X27.8388 Y22.4328
G01 X27.8167 Y22.4475
G01 X27.7746 Y22.4728
G01 X27.7513 Y22.4853
G01 X27.7069 Y22.5062
G01 X27.6824 Y22.5164
G01 X27.6362 Y22.5329
G01 X27.6108 Y22.5406
G01 X27.5632 Y22.5525
G01 X27.5372 Y22.5577
G01 X27.4887 Y22.5649
G01 X27.4623 Y22.5675
G01 X27.4132 Y22.5699
G01 X27.4000 Y22.5703
G01 X26.2190 Y22.5703
G01 X25.5421 Y23.2472
G01 X25.5680 Y23.3019
G01 X25.5781 Y23.3264
G01 X25.6112 Y23.4188
G01 X25.6188 Y23.4441
G01 X25.6427 Y23.5393
G01 X25.6479 Y23.5653
G01 X25.6623 Y23.6624
G01 X25.6649 Y23.6887
G01 X25.6697 Y23.7868
G01 X25.6697 Y23.8132
G01 X25.6649 Y23.9113
G01 X25.6623 Y23.9376
G01 X25.6479 Y24.0347
G01 X25.6427 Y24.0607
G01 X25.6188 Y24.1559
G01 X25.6112 Y24.1812
G01 X25.5781 Y24.2736
G01 X25.5680 Y24.2981
G01 X25.5260 Y24.3868
G01 X25.5135 Y24.4102
G01 X25.4631 Y24.4944
G01 X25.4483 Y24.5164
G01 X25.3899 Y24.5952
G01 X25.3731 Y24.6157
G01 X25.3072 Y24.6884
G01 X25.2884 Y24.7072
G01 X25.2157 Y24.7731
G01 X25.1952 Y24.7899
G01 X25.1703 Y24.8084
G01 X25.1703 Y32.9810
G01 X25.9690 Y33.7797
G01 X31.1416 Y33.7797
G01 X31.1601 Y33.7548
G01 X31.1769 Y33.7343
G01 X31.2428 Y33.6616
G01 X31.2616 Y33.6428
G01 X31.3343 Y33.5769
G01 X31.3548 Y33.5601
G01 X31.4336 Y33.5017
G01 X31.4556 Y33.4869
G01 X31.5398 Y33.4365
G01 X31.5632 Y33.4240
G01 X31.6519 Y33.3820
G01 X31.6764 Y33.3719
G01 X31.7688 Y33.3388
G01 X31.7941 Y33.3312
G01 X31.8893 Y33.3073
G01 X31.9153 Y33.3021
G01 X32.0124 Y33.2877
G01 X32.0387 Y33.2851
G01 X32.1368 Y33.2803
G01 X32.1632 Y33.2803
G01 X32.2613 Y33.2851
G01 X32.2876 Y33.2877
G01 X32.3847 Y33.3021
G01 X32.4107 Y33.3073
G01 X32.5059 Y33.3312
G01 X32.5312 Y33.3388
G01 X32.6236 Y33.3719
G01 X32.6481 Y33.3820
G01 X32.7368 Y33.4240
G01 X32.7602 Y33.4365
G01 X32.8444 Y33.4869
G01 X32.8664 Y33.5017
G01 X32.9452 Y33.5601
G01 X32.9657 Y33.5769
G01 X33.0384 Y33.6428
G01 X33.0572 Y33.6616
G01 X33.1231 Y33.7343
G01 X33.1399 Y33.7548
G01 X33.1584 Y33.7797
G01 X39.9967 Y33.7797
G01 X41.4811 Y32.2954
G01 X41.4907 Y32.2862
G01 X41.5271 Y32.2532
G01 X41.5476 Y32.2364
G01 X41.5870 Y32.2072
G01 X41.6091 Y32.1925
G01 X41.6512 Y32.1672
G01 X41.6745 Y32.1547
G01 X41.7189 Y32.1338
G01 X41.7434 Y32.1236
G01 X41.7896 Y32.1071
G01 X41.8150 Y32.0994
G01 X41.8626 Y32.0875
G01 X41.8886 Y32.0823
G01 X41.9371 Y32.0751
G01 X41.9635 Y32.0725
G01 X42.0125 Y32.0701
G01 X42.0258 Y32.0697
G01 X42.4316 Y32.0697
G01 X42.4501 Y32.0448
G01 X42.4669 Y32.0243
G01 X42.5328 Y31.9516
G01 X42.5516 Y31.9328
G01 X42.6243 Y31.8669
G01 X42.6448 Y31.8501
G01 X42.7236 Y31.7917
G01 X42.7456 Y31.7769
G01 X42.8298 Y31.7265
G01 X42.8532 Y31.7140
G01 X42.9419 Y31.6720
G01 X42.9664 Y31.6619
G01 X43.0588 Y31.6288
G01 X43.0841 Y31.6212
G01 X43.1793 Y31.5973
G01 X43.2053 Y31.5921
G01 X43.3024 Y31.5777
G01 X43.3287 Y31.5751
G01 X43.4268 Y31.5703
G01 X43.4532 Y31.5703
G01 X43.5513 Y31.5751
G01 X43.5776 Y31.5777
G01 X43.6747 Y31.5921
G01 X43.7007 Y31.5973
G01 X43.7959 Y31.6212
G01 X43.8212 Y31.6288
G01 X43.9136 Y31.6619
G01 X43.9381 Y31.6720
G01 X44.0268 Y31.7140
G01 X44.0502 Y31.7265
G01 X44.1344 Y31.7769
G01 X44.1564 Y31.7917
G01 X44.2352 Y31.8501
G01 X44.2557 Y31.8669
G01 X44.3284 Y31.9328
G01 X44.3472 Y31.9516
G01 X44.4131 Y32.0243
G01 X44.4299 Y32.0448
G01 X44.4883 Y32.1236
G01 X44.5031 Y32.1456
G01 X44.5535 Y32.2298
G01 X44.5660 Y32.2532
G01 X44.6080 Y32.3419
G01 X44.6181 Y32.3664
G01 X44.6512 Y32.4588
G01 X44.6588 Y32.4841
G01 X44.6827 Y32.5793
G01 X44.6879 Y32.6053
G01 X44.7023 Y32.7024
G01 X44.7049 Y32.7287
G01 X44.7097 Y32.8268
G01 X44.7097 Y32.8532
G01 X44.7049 Y32.9513
G01 X44.7023 Y32.9776
G01 X44.6879 Y33.0747
G01 X44.6827 Y33.1007
G01 X44.6588 Y33.1959
G01 X44.6512 Y33.2212
G01 X44.6181 Y33.3136
G01 X44.6080 Y33.3381
G01 X44.5660 Y33.4268
G01 X44.5535 Y33.4502
G01 X44.5031 Y33.5344
G01 X44.4883 Y33.5564
G01 X44.4299 Y33.6352
G01 X44.4131 Y33.6557
G01 X44.3472 Y33.7284
G01 X44.3284 Y33.7472
G01 X44.2557 Y33.8131
G01 X44.2352 Y33.8299
G01 X44.1564 Y33.8883
G01 X44.1344 Y33.9031
G01 X44.0502 Y33.9535
G01 X44.0268 Y33.9660
G01 X43.9381 Y34.0080
G01 X43.9136 Y34.0181
G01 X43.8212 Y34.0512
G01 X43.7959 Y34.0588
G01 X43.7007 Y34.0827
G01 X43.6747 Y34.0879
G01 X43.5776 Y34.1023
G01 X43.5513 Y34.1049
G01 X43.4532 Y34.1097
G01 X43.4268 Y34.1097
G01 X43.3287 Y34.1049
G01 X43.3024 Y34.1023
G01 X43.2053 Y34.0879
G01 X43.1793 Y34.0827
G01 X43.0841 Y34.0588
G01 X43.0588 Y34.0512
G01 X42.9664 Y34.0181
G01 X42.9419 Y34.0080
G01 X42.8532 Y33.9660
G01 X42.8298 Y33.9535
G01 X42.7456 Y33.9031
G01 X42.7236 Y33.8883
G01 X42.6448 Y33.8299
G01 X42.6243 Y33.8131
G01 X42.5516 Y33.7472
G01 X42.5328 Y33.7284
G01 X42.4669 Y33.6557
G01 X42.4501 Y33.6352
G01 X42.4316 Y33.6103
G01 X42.3448 Y33.6103
G01 X40.8604 Y35.0946
G01 X40.8508 Y35.1038
G01 X40.8145 Y35.1368
G01 X40.7940 Y35.1536
G01 X40.7545 Y35.1828
G01 X40.7325 Y35.1975
G01 X40.6904 Y35.2228
G01 X40.6670 Y35.2353
G01 X40.6227 Y35.2562
G01 X40.5982 Y35.2664
G01 X40.5520 Y35.2829
G01 X40.5266 Y35.2906
G01 X40.4790 Y35.3025
G01 X40.4530 Y35.3077
G01 X40.4044 Y35.3149
G01 X40.3781 Y35.3175
G01 X40.3290 Y35.3199
G01 X40.3158 Y35.3203
G01 X33.1584 Y35.3203
G01 X33.1399 Y35.3452
G01 X33.1231 Y35.3657
G01 X33.0572 Y35.4384
G01 X33.0384 Y35.4572
G01 X32.9657 Y35.5231
G01 X32.9452 Y35.5399
G01 X32.8664 Y35.5983
G01 X32.8444 Y35.6131
G01 X32.7602 Y35.6635
G01 X32.7368 Y35.6760
G01 X32.6481 Y35.7180
G01 X32.6236 Y35.7281
G01 X32.5312 Y35.7612
G01 X32.5059 Y35.7688
G01 X32.4107 Y35.7927
G01 X32.3847 Y35.7979
G01 X32.2876 Y35.8123
G01 X32.2613 Y35.8149
G01 X32.1632 Y35.8197
G01 X32.1368 Y35.8197
G01 X32.0387 Y35.8149
G01 X32.0124 Y35.8123
G01 X31.9153 Y35.7979
G01 X31.8893 Y35.7927
G01 X31.7941 Y35.7688
G01 X31.7688 Y35.7612
G01 X31.6764 Y35.7281
G01 X31.6519 Y35.7180
G01 X31.5632 Y35.6760
G01 X31.5398 Y35.6635
G01 X31.4556 Y35.6131
G01 X31.4336 Y35.5983
G01 X31.3548 Y35.5399
G01 X31.3343 Y35.5231
G01 X31.2616 Y35.4572
G01 X31.2428 Y35.4384
G01 X31.1769 Y35.3657
G01 X31.1601 Y35.3452
G01 X31.1416 Y35.3203
G01 X25.6500 Y35.3203
G01 X25.6368 Y35.3199
G01 X25.5877 Y35.3175
G01 X25.5613 Y35.3149
G01 X25.5128 Y35.3077
G01 X25.4868 Y35.3025
G01 X25.4392 Y35.2906
G01 X25.4138 Y35.2829
G01 X25.3676 Y35.2664
G01 X25.3431 Y35.2562
G01 X25.2987 Y35.2353
G01 X25.2754 Y35.2228
G01 X25.2333 Y35.1975
G01 X25.2112 Y35.1828
G01 X25.1718 Y35.1536
G01 X25.1513 Y35.1368
G01 X25.1149 Y35.1038
G01 X25.1054 Y35.0946
G01 X23.8554 Y33.8446
G01 X23.8462 Y33.8351
G01 X23.8132 Y33.7987
G01 X23.7964 Y33.7782
G01 X23.7672 Y33.7388
G01 X23.7525 Y33.7167
G01 X23.7272 Y33.6746
G01 X23.7147 Y33.6513
G01 X23.6938 Y33.6069
G01 X23.6836 Y33.5824
G01 X23.6671 Y33.5362
G01 X23.6594 Y33.5108
G01 X23.6475 Y33.4632
G01 X23.6423 Y33.4372
G01 X23.6351 Y33.3887
G01 X23.6325 Y33.3623
G01 X23.6301 Y33.3132
G01 X23.6297 Y33.3000
G01 X23.6297 Y24.8084
G01 X23.6048 Y24.7899
G01 X23.5843 Y24.7731
G01 X23.5116 Y24.7072
G01 X23.4928 Y24.6884
G01 X23.4269 Y24.6157
G01 X23.4101 Y24.5952
G01 X23.3517 Y24.5164
G01 X23.3369 Y24.4944
G01 X23.2865 Y24.4102
G01 X23.2740 Y24.3868
G01 X23.2320 Y24.2981
G01 X23.2219 Y24.2736
G01 X23.1888 Y24.1812
G01 X23.1812 Y24.1559
G01 X23.1573 Y24.0607
G01 X23.1521 Y24.0347
G01 X23.1377 Y23.9376
G01 X23.1351 Y23.9113
G01 X23.1303 Y23.8132
G01 X23.1303 Y23.7868
G01 X23.1351 Y23.6887
G01 X23.1377 Y23.6624
G01 X23.1521 Y23.5653
G01 X23.1573 Y23.5393
G01 X23.1812 Y23.4441
G01 X23.1888 Y23.4188
G01 X23.2219 Y23.3264
G01 X23.2320 Y23.3019
G01 X23.2740 Y23.2132
G01 X23.2865 Y23.1898
G01 X23.3369 Y23.1056
G01 X23.3517 Y23.0836
G01 X23.4101 Y23.0048
G01 X23.4269 Y22.9843
G01 X23.4928 Y22.9116
G01 X23.5116 Y22.8928
G01 X23.5843 Y22.8269
G01 X23.6048 Y22.8101
G01 X23.6836 Y22.7517
G01 X23.7056 Y22.7369
G01 X23.7898 Y22.6865
G01 X23.8132 Y22.6740
G01 X23.9019 Y22.6320
G01 X23.9264 Y22.6219
G01 X24.0232 Y22.5875
G01 X25.3554 Y21.2554
G01 X25.3649 Y21.2462
G01 X25.4013 Y21.2132
G01 X25.4218 Y21.1964
G01 X25.4612 Y21.1672
G01 X25.4833 Y21.1525
G01 X25.5254 Y21.1272
G01 X25.5487 Y21.1147
G01 X25.5931 Y21.0938
G01 X25.6176 Y21.0836
G01 X25.6638 Y21.0671
G01 X25.6892 Y21.0594
G01 X25.7368 Y21.0475
G01 X25.7628 Y21.0423
G01 X25.8113 Y21.0351
G01 X25.8377 Y21.0325
G01 X25.8868 Y21.0301
G01 X25.9000 Y21.0297
G01 X27.0810 Y21.0297
G01 X27.9697 Y20.1410
G01 X27.9697 Y18.3484
G01 X27.9448 Y18.3299
G01 X27.9243 Y18.3131
G01 X27.8516 Y18.2472
G01 X27.8328 Y18.2284
G01 X27.7669 Y18.1557
G01 X27.7501 Y18.1352
G01 X27.6917 Y18.0564
G01 X27.6769 Y18.0344
G01 X27.6265 Y17.9502
G01 X27.6140 Y17.9268
G01 X27.5720 Y17.8381
G01 X27.5619 Y17.8136
G01 X27.5288 Y17.7212
G01 X27.5212 Y17.6959
G01 X27.4973 Y17.6007
G01 X27.4921 Y17.5747
G01 X27.4777 Y17.4776
G01 X27.4751 Y17.4513
G01 X27.4703 Y17.3532
G01 X27.4700 Y17.3400
G01 X27.4700 Y16.3400
G01 X27.4703 Y16.3268
G01 X27.4751 Y16.2287
G01 X27.4777 Y16.2024
G01 X27.4921 Y16.1053
G01 X27.4973 Y16.0793
G01 X27.5212 Y15.9841
G01 X27.5288 Y15.9588
G01 X27.5619 Y15.8664
G01 X27.5720 Y15.8419
G01 X27.6140 Y15.7532
G01 X27.6265 Y15.7298
G01 X27.6769 Y15.6456
G01 X27.6917 Y15.6236
G01 X27.7501 Y15.5448
G01 X27.7669 Y15.5243
G01 X27.8328 Y15.4516
G01 X27.8516 Y15.4328
G01 X27.9243 Y15.3669
G01 X27.9448 Y15.3501
G01 X27.9697 Y15.3316
G01 X27.9697 Y3.4600
G01 X27.9701 Y3.4468
G01 X27.9725 Y3.3977
G01 X27.9751 Y3.3713
G01 X27.9823 Y3.3228
G01 X27.9875 Y3.2968
G01 X27.9994 Y3.2492
G01 X28.0071 Y3.2238
G01 X28.0236 Y3.1776
G01 X28.0338 Y3.1531
G01 X28.0547 Y3.1087
G01 X28.0672 Y3.0854
G01 X28.0925 Y3.0433
G01 X28.1072 Y3.0212
G01 X28.1364 Y2.9818
G01 X28.1532 Y2.9613
G01 X28.1862 Y2.9249
G01 X28.1954 Y2.9154
G01 X28.8554 Y2.2554
G01 X28.8649 Y2.2462
G01 X28.9013 Y2.2132
G01 X28.9218 Y2.1964
G01 X28.9612 Y2.1672
G01 X28.9833 Y2.1525
G01 X29.0254 Y2.1272
G01 X29.0487 Y2.1147
G01 X29.0931 Y2.0938
G01 X29.1176 Y2.0836
G01 X29.1638 Y2.0671
G01 X29.1892 Y2.0594
G01 X29.2368 Y2.0475
G01 X29.2628 Y2.0423
G01 X29.3113 Y2.0351
G01 X29.3377 Y2.0325
G01 X29.3868 Y2.0301
G01 X29.4000 Y2.0297
G01 X45.8578 Y2.0297
G01 X45.8954 Y2.0072
G01 X45.9187 Y1.9947
G01 X45.9631 Y1.9738
G01 X45.9876 Y1.9636
G01 X46.0338 Y1.9471
G01 X46.0592 Y1.9394
G01 X46.1068 Y1.9275
G01 X46.1328 Y1.9223
G01 X46.1813 Y1.9151
G01 X46.2077 Y1.9125
G01 X46.2568 Y1.9101
G01 X46.2700 Y1.9097
G01 X47.1285 Y1.9097
G01 X47.1388 Y1.8905
G01 X47.1817 Y1.8190
G01 X47.1964 Y1.7969
G01 X47.2461 Y1.7299
G01 X47.2629 Y1.7094
G01 X47.3189 Y1.6476
G01 X47.3376 Y1.6289
G01 X47.3994 Y1.5729
G01 X47.4199 Y1.5561
G01 X47.4869 Y1.5064
G01 X47.5090 Y1.4917
G01 X47.5805 Y1.4488
G01 X47.6039 Y1.4363
G01 X47.6793 Y1.4006
G01 X47.7038 Y1.3905
G01 X47.7823 Y1.3624
G01 X47.8077 Y1.3547
G01 X47.8886 Y1.3344
G01 X47.9146 Y1.3293
G01 X47.9971 Y1.3170
G01 X48.0234 Y1.3144
G01 X48.1068 Y1.3103
G01 X48.1332 Y1.3103
G01 X48.2166 Y1.3144
G01 X48.2429 Y1.3170
G01 X48.3254 Y1.3293
G01 X48.3514 Y1.3344
G01 X48.4323 Y1.3547
G01 X48.4577 Y1.3624
G01 X48.5362 Y1.3905
G01 X48.5607 Y1.4006
G01 X48.6361 Y1.4363
G01 X48.6595 Y1.4488
G01 X48.7310 Y1.4917
G01 X48.7531 Y1.5064
G01 X48.8201 Y1.5561
G01 X48.8406 Y1.5729
G01 X48.9024 Y1.6289
G01 X48.9211 Y1.6476
G01 X48.9771 Y1.7094
G01 X48.9939 Y1.7299
G01 X49.0436 Y1.7969
G01 X49.0583 Y1.8190
G01 X49.1012 Y1.8905
G01 X49.1137 Y1.9139
G01 X49.1494 Y1.9893
G01 X49.1595 Y2.0138
G01 X49.1876 Y2.0923
G01 X49.1953 Y2.1177
G01 X49.2156 Y2.1986
G01 X49.2207 Y2.2246
G01 X49.2330 Y2.3071
G01 X49.2356 Y2.3334
G01 X49.2397 Y2.4168
G01 X49.2400 Y2.4300
G01 X49.2400 Y2.9300
G01 X49.2397 Y2.9432
G01 X49.2356 Y3.0266
G01 X49.2330 Y3.0529
G01 X49.2207 Y3.1354
G01 X49.2156 Y3.1614
G01 X49.1953 Y3.2423
G01 X49.1876 Y3.2677
G01 X49.1623 Y3.3384
G01 X49.5411 Y2.9596
G01 X49.5400 Y2.9300
G01 X49.5400 Y2.4300
G01 X49.5403 Y2.4168
G01 X49.5444 Y2.3334
G01 X49.5470 Y2.3071
G01 X49.5593 Y2.2246
G01 X49.5644 Y2.1986
G01 X49.5847 Y2.1177
G01 X49.5924 Y2.0923
G01 X49.6205 Y2.0138
G01 X49.6306 Y1.9893
G01 X49.6663 Y1.9139
G01 X49.6788 Y1.8905
G01 X49.7217 Y1.8190
G01 X49.7364 Y1.7969
G01 X49.7861 Y1.7299
G01 X49.8029 Y1.7094
G01 X49.8589 Y1.6476
G01 X49.8776 Y1.6289
G01 X49.9394 Y1.5729
G01 X49.9599 Y1.5561
G01 X50.0269 Y1.5064
G01 X50.0490 Y1.4917
G01 X50.1205 Y1.4488
G01 X50.1439 Y1.4363
G01 X50.2193 Y1.4006
G01 X50.2438 Y1.3905
G01 X50.3223 Y1.3624
G01 X50.3477 Y1.3547
G01 X50.4286 Y1.3344
G01 X50.4546 Y1.3293
G01 X50.5371 Y1.3170
G01 X50.5634 Y1.3144
G01 X50.6468 Y1.3103
G01 X50.6732 Y1.3103
G01 X50.7566 Y1.3144
G01 X50.7829 Y1.3170
G01 X50.8654 Y1.3293
G01 X50.8914 Y1.3344
G01 X50.9723 Y1.3547
G01 X50.9977 Y1.3624
G01 X51.0762 Y1.3905
G01 X51.1007 Y1.4006
G01 X51.1761 Y1.4363
G01 X51.1995 Y1.4488
G01 X51.2710 Y1.4917
G01 X51.2931 Y1.5064
G01 X51.3601 Y1.5561
G01 X51.3806 Y1.5729
G01 X51.4424 Y1.6289
G01 X51.4611 Y1.6476
G01 X51.5171 Y1.7094
G01 X51.5339 Y1.7299
G01 X51.5836 Y1.7969
G01 X51.5983 Y1.8190
G01 X51.6412 Y1.8905
G01 X51.6537 Y1.9139
G01 X51.6894 Y1.9893
G01 X51.6995 Y2.0138
G01 X51.7276 Y2.0923
G01 X51.7353 Y2.1177
G01 X51.7556 Y2.1986
G01 X51.7607 Y2.2246
G01 X51.7730 Y2.3071
G01 X51.7756 Y2.3334
G01 X51.7797 Y2.4168
G01 X51.7800 Y2.4300
G01 X51.7800 Y2.9300
G01 X51.7797 Y2.9432
G01 X51.7756 Y3.0266
G01 X51.7730 Y3.0529
G01 X51.7607 Y3.1354
G01 X51.7556 Y3.1614
G01 X51.7353 Y3.2423
G01 X51.7276 Y3.2677
G01 X51.6995 Y3.3462
G01 X51.6894 Y3.3707
G01 X51.6537 Y3.4461
G01 X51.6412 Y3.4695
G01 X51.5983 Y3.5410
G01 X51.5836 Y3.5631
G01 X51.5339 Y3.6301
G01 X51.5171 Y3.6506
G01 X51.4611 Y3.7124
G01 X51.4424 Y3.7311
G01 X51.3806 Y3.7871
G01 X51.3601 Y3.8039
G01 X51.2931 Y3.8536
G01 X51.2710 Y3.8683
G01 X51.1995 Y3.9112
G01 X51.1761 Y3.9237
G01 X51.1007 Y3.9594
G01 X51.0762 Y3.9695
G01 X50.9977 Y3.9976
G01 X50.9723 Y4.0053
G01 X50.8914 Y4.0256
G01 X50.8654 Y4.0307
G01 X50.7829 Y4.0430
G01 X50.7566 Y4.0456
G01 X50.6732 Y4.0497
G01 X50.6468 Y4.0497
G01 X50.6304 Y4.0489
G01 X49.3346 Y5.3446
G01 X49.3251 Y5.3538
G01 X49.2887 Y5.3868
G01 X49.2682 Y5.4036
G01 X49.2288 Y5.4328
G01 X49.2067 Y5.4475
G01 X49.1646 Y5.4728
G01 X49.1413 Y5.4853
G01 X49.0969 Y5.5062
G01 X49.0724 Y5.5164
G01 X49.0262 Y5.5329
G01 X49.0008 Y5.5406
G01 X48.9532 Y5.5525
G01 X48.9272 Y5.5577
G01 X48.8787 Y5.5649
G01 X48.8523 Y5.5675
G01 X48.8032 Y5.5699
G01 X48.7900 Y5.5703
G01 X37.2124 Y5.5703
G01 X37.2559 Y5.5812
G01 X37.2812 Y5.5888
G01 X37.3736 Y5.6219
G01 X37.3981 Y5.6320
G01 X37.4868 Y5.6740
G01 X37.5102 Y5.6865
G01 X37.5944 Y5.7369
G01 X37.6164 Y5.7517
G01 X37.6952 Y5.8101
G01 X37.7157 Y5.8269
G01 X37.7884 Y5.8928
G01 X37.8072 Y5.9116
G01 X37.8731 Y5.9843
G01 X37.8899 Y6.0048
G01 X37.9483 Y6.0836
G01 X37.9631 Y6.1056
G01 X38.0135 Y6.1898
G01 X38.0260 Y6.2132
G01 X38.0680 Y6.3019
G01 X38.0781 Y6.3264
G01 X38.1112 Y6.4188
G01 X38.1188 Y6.4441
G01 X38.1427 Y6.5393
G01 X38.1479 Y6.5653
G01 X38.1623 Y6.6624
G01 X38.1649 Y6.6887
G01 X38.1697 Y6.7868
G01 X38.1697 Y6.8132
G01 X38.1649 Y6.9113
G01 X38.1623 Y6.9376
G01 X38.1479 Y7.0347
G01 X38.1427 Y7.0607
G01 X38.1188 Y7.1559
G01 X38.1112 Y7.1812
G01 X38.0781 Y7.2736
G01 X38.0680 Y7.2981
G01 X38.0260 Y7.3868
G01 X38.0135 Y7.4102
G01 X37.9631 Y7.4944
G01 X37.9483 Y7.5164
G01 X37.8899 Y7.5952
G01 X37.8731 Y7.6157
G01 X37.8072 Y7.6884
G01 X37.7884 Y7.7072
G01 X37.7157 Y7.7731
G01 X37.6952 Y7.7899
G01 X37.6164 Y7.8483
G01 X37.5944 Y7.8631
G01 X37.5102 Y7.9135
G01 X37.4868 Y7.9260
G01 X37.3981 Y7.9680
G01 X37.3736 Y7.9781
G01 X37.2812 Y8.0112
G01 X37.2559 Y8.0188
G01 X37.1607 Y8.0427
G01 X37.1347 Y8.0479
G01 X37.0376 Y8.0623
G01 X37.0113 Y8.0649
G01 X36.9132 Y8.0697
G01 X36.8868 Y8.0697
G01 X36.7887 Y8.0649
G01 X36.7624 Y8.0623
G01 X36.6653 Y8.0479
G01 X36.6393 Y8.0427
G01 X36.5441 Y8.0188
G01 X36.5188 Y8.0112
G01 X36.4264 Y7.9781
G01 X36.4019 Y7.9680
G01 X36.3132 Y7.9260
G01 X36.2898 Y7.9135
G01 X36.2056 Y7.8631
G01 X36.1836 Y7.8483
G01 X36.1048 Y7.7899
G01 X36.0843 Y7.7731
G01 X36.0116 Y7.7072
G01 X35.9928 Y7.6884
G01 X35.9269 Y7.6157
G01 X35.9101 Y7.5952
G01 X35.8916 Y7.5703
G01 X34.4084 Y7.5703
G01 X34.3899 Y7.5952
G01 X34.3731 Y7.6157
G01 X34.3072 Y7.6884
G01 X34.2884 Y7.7072
G01 X34.2157 Y7.7731
G01 X34.1952 Y7.7899
G01 X34.1164 Y7.8483
G01 X34.0944 Y7.8631
G01 X34.0102 Y7.9135
G01 X33.9868 Y7.9260
G01 X33.8981 Y7.9680
G01 X33.8736 Y7.9781
G01 X33.7812 Y8.0112
G01 X33.7559 Y8.0188
G01 X33.6607 Y8.0427
G01 X33.6347 Y8.0479
G01 X33.5376 Y8.0623
G01 X33.5113 Y8.0649
G01 X33.4132 Y8.0697
G01 X33.3868 Y8.0697
G01 X33.2887 Y8.0649
G01 X33.2624 Y8.0623
G01 X33.1653 Y8.0479
G01 X33.1393 Y8.0427
G01 X33.0441 Y8.0188
G01 X33.0188 Y8.0112
G01 X32.9264 Y7.9781
G01 X32.9019 Y7.9680
G01 X32.8132 Y7.9260
G01 X32.7898 Y7.9135
G01 X32.7056 Y7.8631
G01 X32.6836 Y7.8483
G01 X32.6048 Y7.7899
G01 X32.5843 Y7.7731
G01 X32.5116 Y7.7072
G01 X32.4928 Y7.6884
G01 X32.4269 Y7.6157
G01 X32.4101 Y7.5952
G01 X32.3517 Y7.5164
G01 X32.3369 Y7.4944
G01 X32.2865 Y7.4102
G01 X32.2740 Y7.3868
G01 X32.2320 Y7.2981
G01 X32.2219 Y7.2736
G01 X32.1888 Y7.1812
G01 X32.1812 Y7.1559
G01 X32.1703 Y7.1124
G00 Z2.0000
G00 X33.0876 Y5.5703
G01 F60.00
G01 Z-0.1500
G01 F120.00
G01 X33.0441 Y5.5812
G01 X33.0188 Y5.5888
G01 X32.9264 Y5.6219
G01 X32.9019 Y5.6320
G01 X32.8132 Y5.6740
G01 X32.7898 Y5.6865
G01 X32.7056 Y5.7369
G01 X32.6836 Y5.7517
G01 X32.6048 Y5.8101
G01 X32.5843 Y5.8269
G01 X32.5116 Y5.8928
G01 X32.4928 Y5.9116
G01 X32.4269 Y5.9843
G01 X32.4101 Y6.0048
G01 X32.3517 Y6.0836
G01 X32.3369 Y6.1056
G01 X32.2865 Y6.1898
G01 X32.2740 Y6.2132
G01 X32.2320 Y6.3019
G01 X32.2219 Y6.3264
G01 X32.1888 Y6.4188
G01 X32.1812 Y6.4441
G01 X32.1703 Y6.4876
G01 X32.1703 Y5.6190
G01 X32.2190 Y5.5703
G01 X33.0876 Y5.5703
G00 Z2.0000
G00 X34.4084 Y6.0297
G01 F60.00
G01 Z-0.1500
G01 F120.00
G01 X34.3899 Y6.0048
G01 X34.3731 Y5.9843
G01 X34.3072 Y5.9116
G01 X34.2884 Y5.8928
G01 X34.2157 Y5.8269
G01 X34.1952 Y5.8101
G01 X34.1164 Y5.7517
G01 X34.0944 Y5.7369
G01 X34.0102 Y5.6865
G01 X33.9868 Y5.6740
G01 X33.8981 Y5.6320
G01 X33.8736 Y5.6219
G01 X33.7812 Y5.5888
G01 X33.7559 Y5.5812
G01 X33.7124 Y5.5703
G01 X36.5876 Y5.5703
G01 X36.5441 Y5.5812
G01 X36.5188 Y5.5888
G01 X36.4264 Y5.6219
G01 X36.4019 Y5.6320
G01 X36.3132 Y5.6740
G01 X36.2898 Y5.6865
G01 X36.2056 Y5.7369
G01 X36.1836 Y5.7517
G01 X36.1048 Y5.8101
G01 X36.0843 Y5.8269
G01 X36.0116 Y5.8928
G01 X35.9928 Y5.9116
G01 X35.9269 Y5.9843
G01 X35.9101 Y6.0048
G01 X35.8916 Y6.0297
G01 X34.4084 Y6.0297
G00 Z2.0000
G00 X40.6703 Y8.0549
G01 F60.00
G01 Z-0.1500
G01 F120.00
G01 X40.6703 Y7.5703
G01 X41.1549 Y7.5703
G01 X41.1176 Y7.5836
G01 X41.0931 Y7.5938
G01 X41.0487 Y7.6147
G01 X41.0254 Y7.6272
G01 X40.9833 Y7.6525
G01 X40.9612 Y7.6672
G01 X40.9218 Y7.6964
G01 X40.9013 Y7.7132
G01 X40.8649 Y7.7462
G01 X40.8462 Y7.7649
G01 X40.8132 Y7.8013
G01 X40.7964 Y7.8218
G01 X40.7672 Y7.8612
G01 X40.7525 Y7.8833
G01 X40.7272 Y7.9254
G01 X40.7147 Y7.9487
G01 X40.6938 Y7.9931
G01 X40.6836 Y8.0176
G01 X40.6703 Y8.0549
G00 Z2.0000
G00 X42.1703 Y9.5549
G01 F60.00
G01 Z-0.1500
G01 F120.00
G01 X42.1703 Y9.0703
G01 X42.6549 Y9.0703
G01 X42.6176 Y9.0836
G01 X42.5931 Y9.0938
G01 X42.5487 Y9.1147
G01 X42.5254 Y9.1272
G01 X42.4833 Y9.1525
G01 X42.4612 Y9.1672
G01 X42.4218 Y9.1964
G01 X42.4013 Y9.2132
G01 X42.3649 Y9.2462
G01 X42.3462 Y9.2649
G01 X42.3132 Y9.3013
G01 X42.2964 Y9.3218
G01 X42.2672 Y9.3612
G01 X42.2525 Y9.3833
G01 X42.2272 Y9.4254
G01 X42.2147 Y9.4487
G01 X42.1938 Y9.4931
G01 X42.1836 Y9.5176
G01 X42.1703 Y9.5549
G00 Z2.0000
G00 X44.5876 Y10.5703
G01 F60.00
G01 Z-0.1500
G01 F120.00
G01 X44.5441 Y10.5812
G01 X44.5188 Y10.5888
G01 X44.4264 Y10.6219
G01 X44.4019 Y10.6320
G01 X44.3132 Y10.6740
G01 X44.2898 Y10.6865
G01 X44.2056 Y10.7369
G01 X44.1836 Y10.7517
G01 X44.1048 Y10.8101
G01 X44.0843 Y10.8269
G01 X44.0116 Y10.8928
G01 X43.9928 Y10.9116
G01 X43.9269 Y10.9843
G01 X43.9101 Y11.0048
G01 X43.8517 Y11.0836
G01 X43.8369 Y11.1056
G01 X43.7865 Y11.1898
G01 X43.7740 Y11.2132
G01 X43.7320 Y11.3019
G01 X43.7219 Y11.3264
G01 X43.6888 Y11.4188
G01 X43.6812 Y11.4441
G01 X43.6703 Y11.4876
G01 X43.6703 Y10.5703
G01 X44.5876 Y10.5703
G00 Z2.0000
G00 X49.1200 Y16.6500
G01 F60.00
G01 Z-0.1500
G01 F120.00
G01 X49.1465 Y16.6513
G01 X49.1727 Y16.6552
G01 X49.1984 Y16.6616
G01 X49.2233 Y16.6706
G01 X49.2473 Y16.6819
G01 X49.2700 Y16.6955
G01 X49.2913 Y16.7113
G01 X49.3109 Y16.7291
G01 X49.3287 Y16.7487
G01 X49.3445 Y16.7700
G01 X49.3581 Y16.7927
G01 X49.3694 Y16.8167
G01 X49.3784 Y16.8416
G01 X49.3848 Y16.8673
G01 X49.3887 Y16.8935
G01 X49.3900 Y16.9200
G01 X49.3900 Y18.9200
G01 X49.3887 Y18.9465
G01 X49.3848 Y18.9727
G01 X49.3784 Y18.9984
G01 X49.3694 Y19.0233
G01 X49.3581 Y19.0473
G01 X49.3445 Y19.0700
G01 X49.3287 Y19.0913
G01 X49.3109 Y19.1109
G01 X49.2913 Y19.1287
G01 X49.2700 Y19.1445
G01 X49.2473 Y19.1581
G01 X49.2233 Y19.1694
G01 X49.1984 Y19.1784
G01 X49.1727 Y19.1848
G01 X49.1465 Y19.1887
G01 X49.1200 Y19.1900
G01 X47.1200 Y19.1900
G01 X47.0935 Y19.1887
G01 X47.0673 Y19.1848
G01 X47.0416 Y19.1784
G01 X47.0167 Y19.1694
G01 X46.9927 Y19.1581
G01 X46.9700 Y19.1445
G01 X46.9487 Y19.1287
G01 X46.9291 Y19.1109
G01 X46.9113 Y19.0913
G01 X46.8955 Y19.0700
G01 X46.8819 Y19.0473
G01 X46.8706 Y19.0233
G01 X46.8616 Y18.9984
G01 X46.8552 Y18.9727
G01 X46.8513 Y18.9465
G01 X46.8500 Y18.9200
G01 X46.8500 Y16.9200
G01 X46.8513 Y16.8935
G01 X46.8552 Y16.8673
G01 X46.8616 Y16.8416
G01 X46.8706 Y16.8167
G01 X46.8819 Y16.7927
G01 X46.8955 Y16.7700
G01 X46.9113 Y16.7487
G01 X46.9291 Y16.7291
G01 X46.9487 Y16.7113
G01 X46.9700 Y16.6955
G01 X46.9927 Y16.6819
G01 X47.0167 Y16.6706
G01 X47.0416 Y16.6616
G01 X47.0673 Y16.6552
G01 X47.0935 Y16.6513
G01 X47.1200 Y16.6500
G01 X49.1200 Y16.6500
G00 Z2.0000
G00 X51.7730 Y17.5471
G01 F60.00
G01 Z-0.1500
G01 F120.00
G01 X51.7756 Y17.5734
G01 X51.7797 Y17.6568
G01 X51.7800 Y17.6700
G01 X51.7800 Y18.1700
G01 X51.7797 Y18.1832
G01 X51.7756 Y18.2666
G01 X51.7730 Y18.2929
G01 X51.7607 Y18.3754
G01 X51.7556 Y18.4014
G01 X51.7353 Y18.4823
G01 X51.7276 Y18.5077
G01 X51.6995 Y18.5862
G01 X51.6894 Y18.6107
G01 X51.6537 Y18.6861
G01 X51.6412 Y18.7095
G01 X51.5983 Y18.7810
G01 X51.5836 Y18.8031
G01 X51.5339 Y18.8701
G01 X51.5171 Y18.8906
G01 X51.4611 Y18.9524
G01 X51.4424 Y18.9711
G01 X51.3806 Y19.0271
G01 X51.3601 Y19.0439
G01 X51.2931 Y19.0936
G01 X51.2710 Y19.1083
G01 X51.1995 Y19.1512
G01 X51.1761 Y19.1637
G01 X51.1007 Y19.1994
G01 X51.0762 Y19.2095
G01 X50.9977 Y19.2376
G01 X50.9723 Y19.2453
G01 X50.8914 Y19.2656
G01 X50.8654 Y19.2707
G01 X50.7829 Y19.2830
G01 X50.7566 Y19.2856
G01 X50.6732 Y19.2897
G01 X50.6468 Y19.2897
G01 X50.5634 Y19.2856
G01 X50.5371 Y19.2830
G01 X50.4546 Y19.2707
G01 X50.4286 Y19.2656
G01 X50.3477 Y19.2453
G01 X50.3223 Y19.2376
G01 X50.2438 Y19.2095
G01 X50.2193 Y19.1994
G01 X50.1439 Y19.1637
G01 X50.1205 Y19.1512
G01 X50.0490 Y19.1083
G01 X50.0269 Y19.0936
G01 X49.9599 Y19.0439
G01 X49.9394 Y19.0271
G01 X49.8776 Y18.9711
G01 X49.8589 Y18.9524
G01 X49.8029 Y18.8906
G01 X49.7861 Y18.8701
G01 X49.7364 Y18.8031
G01 X49.7217 Y18.7810
G01 X49.6788 Y18.7095
G01 X49.6663 Y18.6861
G01 X49.6306 Y18.6107
G01 X49.6205 Y18.5862
G01 X49.5924 Y18.5077
G01 X49.5847 Y18.4823
G01 X49.5644 Y18.4014
G01 X49.5593 Y18.3754
G01 X49.5470 Y18.2929
G01 X49.5444 Y18.2666
G01 X49.5403 Y18.1832
G01 X49.5400 Y18.1700
G01 X49.5400 Y17.6700
G01 X49.5403 Y17.6568
G01 X49.5444 Y17.5734
G01 X49.5470 Y17.5471
G01 X49.5593 Y17.4646
G01 X49.5644 Y17.4386
G01 X49.5847 Y17.3577
G01 X49.5924 Y17.3323
G01 X49.6205 Y17.2538
G01 X49.6306 Y17.2293
G01 X49.6663 Y17.1539
G01 X49.6788 Y17.1305
G01 X49.7217 Y17.0590
G01 X49.7364 Y17.0369
G01 X49.7861 Y16.9699
G01 X49.8029 Y16.9494
G01 X49.8589 Y16.8876
G01 X49.8776 Y16.8689
G01 X49.9394 Y16.8129
G01 X49.9599 Y16.7961
G01 X50.0269 Y16.7464
G01 X50.0490 Y16.7317
G01 X50.1205 Y16.6888
G01 X50.1439 Y16.6763
G01 X50.2193 Y16.6406
G01 X50.2438 Y16.6305
G01 X50.3223 Y16.6024
G01 X50.3477 Y16.5947
G01 X50.4286 Y16.5744
G01 X50.4546 Y16.5693
G01 X50.5371 Y16.5570
G01 X50.5634 Y16.5544
G01 X50.6468 Y16.5503
G01 X50.6732 Y16.5503
G01 X50.7566 Y16.5544
G01 X50.7829 Y16.5570
G01 X50.8654 Y16.5693
G01 X50.8914 Y16.5744
G01 X50.9723 Y16.5947
G01 X50.9977 Y16.6024
G01 X51.0762 Y16.6305
G01 X51.1007 Y16.6406
G01 X51.1761 Y16.6763
G01 X51.1995 Y16.6888
G01 X51.2710 Y16.7317
G01 X51.2931 Y16.7464
G01 X51.3601 Y16.7961
G01 X51.3806 Y16.8129
G01 X51.4424 Y16.8689
G01 X51.4611 Y16.8876
G01 X51.5171 Y16.9494
G01 X51.5339 Y16.9699
G01 X51.5836 Y17.0369
G01 X51.5983 Y17.0590
G01 X51.6412 Y17.1305
G01 X51.6537 Y17.1539
G01 X51.6894 Y17.2293
G01 X51.6995 Y17.2538
G01 X51.7276 Y17.3323
G01 X51.7353 Y17.3577
G01 X51.7556 Y17.4386
G01 X51.7607 Y17.4646
G01 X51.7730 Y17.5471
G00 Z2.0000
G00 X54.3130 Y17.5471
G01 F60.00
G01 Z-0.1500
G01 F120.00
G01 X54.3156 Y17.5734
G01 X54.3197 Y17.6568
G01 X54.3200 Y17.6700
G01 X54.3200 Y18.1700
G01 X54.3197 Y18.1832
G01 X54.3156 Y18.2666
G01 X54.3130 Y18.2929
G01 X54.3007 Y18.3754
G01 X54.2956 Y18.4014
G01 X54.2753 Y18.4823
G01 X54.2676 Y18.5077
G01 X54.2395 Y18.5862
G01 X54.2294 Y18.6107
G01 X54.1937 Y18.6861
G01 X54.1812 Y18.7095
G01 X54.1383 Y18.7810
G01 X54.1236 Y18.8031
G01 X54.0739 Y18.8701
G01 X54.0571 Y18.8906
G01 X54.0011 Y18.9524
G01 X53.9824 Y18.9711
G01 X53.9206 Y19.0271
G01 X53.9001 Y19.0439
G01 X53.8331 Y19.0936
G01 X53.8110 Y19.1083
G01 X53.7395 Y19.1512
G01 X53.7161 Y19.1637
G01 X53.6407 Y19.1994
G01 X53.6162 Y19.2095
G01 X53.5377 Y19.2376
G01 X53.5123 Y19.2453
G01 X53.4314 Y19.2656
G01 X53.4054 Y19.2707
G01 X53.3229 Y19.2830
G01 X53.2966 Y19.2856
G01 X53.2132 Y19.2897
G01 X53.1868 Y19.2897
G01 X53.1034 Y19.2856
G01 X53.0771 Y19.2830
G01 X52.9946 Y19.2707
G01 X52.9686 Y19.2656
G01 X52.8877 Y19.2453
G01 X52.8623 Y19.2376
G01 X52.7838 Y19.2095
G01 X52.7593 Y19.1994
G01 X52.6839 Y19.1637
G01 X52.6605 Y19.1512
G01 X52.5890 Y19.1083
G01 X52.5669 Y19.0936
G01 X52.4999 Y19.0439
G01 X52.4794 Y19.0271
G01 X52.4176 Y18.9711
G01 X52.3989 Y18.9524
G01 X52.3429 Y18.8906
G01 X52.3261 Y18.8701
G01 X52.2764 Y18.8031
G01 X52.2617 Y18.7810
G01 X52.2188 Y18.7095
G01 X52.2063 Y18.6861
G01 X52.1706 Y18.6107
G01 X52.1605 Y18.5862
G01 X52.1324 Y18.5077
G01 X52.1247 Y18.4823
G01 X52.1044 Y18.4014
G01 X52.0993 Y18.3754
G01 X52.0870 Y18.2929
G01 X52.0844 Y18.2666
G01 X52.0803 Y18.1832
G01 X52.0800 Y18.1700
G01 X52.0800 Y17.6700
G01 X52.0803 Y17.6568
G01 X52.0844 Y17.5734
G01 X52.0870 Y17.5471
G01 X52.0993 Y17.4646
G01 X52.1044 Y17.4386
G01 X52.1247 Y17.3577
G01 X52.1324 Y17.3323
G01 X52.1605 Y17.2538
G01 X52.1706 Y17.2293
G01 X52.2063 Y17.1539
G01 X52.2188 Y17.1305
G01 X52.2617 Y17.0590
G01 X52.2764 Y17.0369
G01 X52.3261 Y16.9699
G01 X52.3429 Y16.9494
G01 X52.3989 Y16.8876
G01 X52.4176 Y16.8689
G01 X52.4794 Y16.8129
G01 X52.4999 Y16.7961
G01 X52.5669 Y16.7464
G01 X52.5890 Y16.7317
G01 X52.6605 Y16.6888
G01 X52.6839 Y16.6763
G01 X52.7593 Y16.6406
G01 X52.7838 Y16.6305
G01 X52.8623 Y16.6024
G01 X52.8877 Y16.5947
G01 X52.9686 Y16.5744
G01 X52.9946 Y16.5693
G01 X53.0771 Y16.5570
G01 X53.1034 Y16.5544
G01 X53.1868 Y16.5503
G01 X53.2132 Y16.5503
G01 X53.2966 Y16.5544
G01 X53.3229 Y16.5570
G01 X53.4054 Y16.5693
G01 X53.4314 Y16.5744
G01 X53.5123 Y16.5947
G01 X53.5377 Y16.6024
G01 X53.6162 Y16.6305
G01 X53.6407 Y16.6406
G01 X53.7161 Y16.6763
G01 X53.7395 Y16.6888
G01 X53.8110 Y16.7317
G01 X53.8331 Y16.7464
G01 X53.9001 Y16.7961
G01 X53.9206 Y16.8129
G01 X53.9824 Y16.8689
G01 X54.0011 Y16.8876
G01 X54.0571 Y16.9494
G01 X54.0739 Y16.9699
G01 X54.1236 Y17.0369
G01 X54.1383 Y17.0590
G01 X54.1812 Y17.1305
G01 X54.1937 Y17.1539
G01 X54.2294 Y17.2293
G01 X54.2395 Y17.2538
G01 X54.2676 Y17.3323
G01 X54.2753 Y17.3577
G01 X54.2956 Y17.4386
G01 X54.3007 Y17.4646
G01 X54.3130 Y17.5471
G00 Z2.0000
G00 X56.1451 Y24.5297
G01 F60.00
G01 Z-0.1500
G01 F120.00
G01 X56.1824 Y24.5164
G01 X56.2069 Y24.5062
G01 X56.2513 Y24.4853
G01 X56.2746 Y24.4728
G01 X56.3167 Y24.4475
G01 X56.3388 Y24.4328
G01 X56.3782 Y24.4036
G01 X56.3987 Y24.3868
G01 X56.4351 Y24.3538
G01 X56.4446 Y24.3446
G01 X59.7190 Y21.0703
G01 X60.6549 Y21.0703
G01 X60.6176 Y21.0836
G01 X60.5931 Y21.0938
G01 X60.5487 Y21.1147
G01 X60.5254 Y21.1272
G01 X60.4833 Y21.1525
G01 X60.4612 Y21.1672
G01 X60.4218 Y21.1964
G01 X60.4013 Y21.2132
G01 X60.3649 Y21.2462
G01 X60.3554 Y21.2554
G01 X57.0810 Y24.5297
G01 X56.1451 Y24.5297
G00 Z2.0000
G00 X55.9084 Y27.0297
G01 F60.00
G01 Z-0.1500
G01 F120.00
G01 X58.4000 Y27.0297
G01 X58.4132 Y27.0301
G01 X58.4623 Y27.0325
G01 X58.4887 Y27.0351
G01 X58.5372 Y27.0423
G01 X58.5632 Y27.0475
G01 X58.6108 Y27.0594
G01 X58.6362 Y27.0671
G01 X58.6824 Y27.0836
G01 X58.7069 Y27.0938
G01 X58.7513 Y27.1147
G01 X58.7746 Y27.1272
G01 X58.8167 Y27.1525
G01 X58.8388 Y27.1672
G01 X58.8782 Y27.1964
G01 X58.8987 Y27.2132
G01 X58.9351 Y27.2462
G01 X58.9538 Y27.2649
G01 X58.9868 Y27.3013
G01 X59.0036 Y27.3218
G01 X59.0328 Y27.3612
G01 X59.0475 Y27.3833
G01 X59.0728 Y27.4254
G01 X59.0853 Y27.4487
G01 X59.1062 Y27.4931
G01 X59.1164 Y27.5176
G01 X59.1329 Y27.5638
G01 X59.1406 Y27.5892
G01 X59.1525 Y27.6368
G01 X59.1577 Y27.6628
G01 X59.1649 Y27.7113
G01 X59.1675 Y27.7377
G01 X59.1699 Y27.7868
G01 X59.1703 Y27.8000
G01 X59.1703 Y31.9810
G01 X63.2190 Y36.0297
G01 X68.9000 Y36.0297
G01 X68.9132 Y36.0301
G01 X68.9623 Y36.0325
G01 X68.9887 Y36.0351
G01 X69.0372 Y36.0423
G01 X69.0632 Y36.0475
G01 X69.1108 Y36.0594
G01 X69.1362 Y36.0671
G01 X69.1824 Y36.0836
G01 X69.2069 Y36.0938
G01 X69.2513 Y36.1147
G01 X69.2746 Y36.1272
G01 X69.3167 Y36.1525
G01 X69.3388 Y36.1672
G01 X69.3782 Y36.1964
G01 X69.3987 Y36.2132
G01 X69.4351 Y36.2462
G01 X69.4538 Y36.2649
G01 X69.4868 Y36.3013
G01 X69.5036 Y36.3218
G01 X69.5328 Y36.3612
G01 X69.5475 Y36.3833
G01 X69.5728 Y36.4254
G01 X69.5853 Y36.4487
G01 X69.6062 Y36.4931
G01 X69.6164 Y36.5176
G01 X69.6329 Y36.5638
G01 X69.6406 Y36.5892
G01 X69.6525 Y36.6368
G01 X69.6577 Y36.6628
G01 X69.6649 Y36.7113
G01 X69.6675 Y36.7377
G01 X69.6699 Y36.7868
G01 X69.6703 Y36.8000
G01 X69.6703 Y46.7957
G01 X69.6983 Y46.8336
G01 X69.7131 Y46.8556
G01 X69.7635 Y46.9398
G01 X69.7760 Y46.9632
G01 X69.8180 Y47.0519
G01 X69.8281 Y47.0764
G01 X69.8612 Y47.1688
G01 X69.8688 Y47.1941
G01 X69.8927 Y47.2893
G01 X69.8979 Y47.3153
G01 X69.9123 Y47.4124
G01 X69.9149 Y47.4387
G01 X69.9197 Y47.5368
G01 X69.9197 Y47.5632
G01 X69.9149 Y47.6613
G01 X69.9123 Y47.6876
G01 X69.8979 Y47.7847
G01 X69.8927 Y47.8107
G01 X69.8688 Y47.9059
G01 X69.8612 Y47.9312
G01 X69.8281 Y48.0236
G01 X69.8180 Y48.0481
G01 X69.7760 Y48.1368
G01 X69.7635 Y48.1602
G01 X69.7131 Y48.2444
G01 X69.6983 Y48.2664
G01 X69.6399 Y48.3452
G01 X69.6231 Y48.3657
G01 X69.5572 Y48.4384
G01 X69.5384 Y48.4572
G01 X69.4657 Y48.5231
G01 X69.4452 Y48.5399
G01 X69.3664 Y48.5983
G01 X69.3444 Y48.6131
G01 X69.2602 Y48.6635
G01 X69.2368 Y48.6760
G01 X69.1481 Y48.7180
G01 X69.1236 Y48.7281
G01 X69.0312 Y48.7612
G01 X69.0059 Y48.7688
G01 X68.9107 Y48.7927
G01 X68.8847 Y48.7979
G01 X68.7876 Y48.8123
G01 X68.7613 Y48.8149
G01 X68.6632 Y48.8197
G01 X68.6368 Y48.8197
G01 X68.5387 Y48.8149
G01 X68.5124 Y48.8123
G01 X68.4153 Y48.7979
G01 X68.3893 Y48.7927
G01 X68.2941 Y48.7688
G01 X68.2688 Y48.7612
G01 X68.1764 Y48.7281
G01 X68.1519 Y48.7180
G01 X68.0632 Y48.6760
G01 X68.0398 Y48.6635
G01 X67.9556 Y48.6131
G01 X67.9336 Y48.5983
G01 X67.8957 Y48.5703
G01 X56.9000 Y48.5703
G01 X56.8868 Y48.5699
G01 X56.8377 Y48.5675
G01 X56.8113 Y48.5649
G01 X56.7628 Y48.5577
G01 X56.7368 Y48.5525
G01 X56.6892 Y48.5406
G01 X56.6638 Y48.5329
G01 X56.6176 Y48.5164
G01 X56.5931 Y48.5062
G01 X56.5487 Y48.4853
G01 X56.5254 Y48.4728
G01 X56.4833 Y48.4475
G01 X56.4612 Y48.4328
G01 X56.4218 Y48.4036
G01 X56.4013 Y48.3868
G01 X56.3649 Y48.3538
G01 X56.3462 Y48.3351
G01 X56.3132 Y48.2987
G01 X56.2964 Y48.2782
G01 X56.2672 Y48.2388
G01 X56.2525 Y48.2167
G01 X56.2272 Y48.1746
G01 X56.2147 Y48.1513
G01 X56.1938 Y48.1069
G01 X56.1836 Y48.0824
G01 X56.1671 Y48.0362
G01 X56.1594 Y48.0108
G01 X56.1475 Y47.9632
G01 X56.1423 Y47.9372
G01 X56.1351 Y47.8887
G01 X56.1325 Y47.8623
G01 X56.1301 Y47.8132
G01 X56.1297 Y47.8000
G01 X56.1297 Y47.1190
G01 X53.5810 Y44.5703
G01 X53.1700 Y44.5703
G01 X53.1700 Y44.8000
G01 X53.1687 Y44.8265
G01 X53.1648 Y44.8527
G01 X53.1584 Y44.8784
G01 X53.1494 Y44.9033
G01 X53.1381 Y44.9273
G01 X53.1245 Y44.9500
G01 X53.1087 Y44.9713
G01 X53.0909 Y44.9909
G01 X53.0713 Y45.0087
G01 X53.0500 Y45.0245
G01 X53.0273 Y45.0381
G01 X53.0033 Y45.0494
G01 X52.9784 Y45.0584
G01 X52.9527 Y45.0648
G01 X52.9265 Y45.0687
G01 X52.9000 Y45.0700
G01 X50.9000 Y45.0700
G01 X50.8735 Y45.0687
G01 X50.8473 Y45.0648
G01 X50.8216 Y45.0584
G01 X50.7967 Y45.0494
G01 X50.7727 Y45.0381
G01 X50.7500 Y45.0245
G01 X50.7287 Y45.0087
G01 X50.7091 Y44.9909
G01 X50.6913 Y44.9713
G01 X50.6755 Y44.9500
G01 X50.6619 Y44.9273
G01 X50.6506 Y44.9033
G01 X50.6416 Y44.8784
G01 X50.6352 Y44.8527
G01 X50.6313 Y44.8265
G01 X50.6300 Y44.8000
G01 X50.6300 Y42.8000
G01 X50.6313 Y42.7735
G01 X50.6352 Y42.7473
G01 X50.6416 Y42.7216
G01 X50.6506 Y42.6967
G01 X50.6619 Y42.6727
G01 X50.6755 Y42.6500
G01 X50.6913 Y42.6287
G01 X50.7091 Y42.6091
G01 X50.7287 Y42.5913
G01 X50.7500 Y42.5755
G01 X50.7727 Y42.5619
G01 X50.7967 Y42.5506
G01 X50.8216 Y42.5416
G01 X50.8473 Y42.5352
G01 X50.8735 Y42.5313
G01 X50.9000 Y42.5300
G01 X52.9000 Y42.5300
G01 X52.9265 Y42.5313
G01 X52.9527 Y42.5352
G01 X52.9784 Y42.5416
G01 X53.0033 Y42.5506
G01 X53.0273 Y42.5619
G01 X53.0500 Y42.5755
G01 X53.0713 Y42.5913
G01 X53.0909 Y42.6091
G01 X53.1087 Y42.6287
G01 X53.1245 Y42.6500
G01 X53.1381 Y42.6727
G01 X53.1494 Y42.6967
G01 X53.1584 Y42.7216
G01 X53.1648 Y42.7473
G01 X53.1687 Y42.7735
G01 X53.1700 Y42.8000
G01 X53.1700 Y43.0297
G01 X53.9000 Y43.0297
G01 X53.9132 Y43.0301
G01 X53.9623 Y43.0325
G01 X53.9887 Y43.0351
G01 X54.0372 Y43.0423
G01 X54.0632 Y43.0475
G01 X54.1108 Y43.0594
G01 X54.1362 Y43.0671
G01 X54.1824 Y43.0836
G01 X54.2069 Y43.0938
G01 X54.2513 Y43.1147
G01 X54.2746 Y43.1272
G01 X54.3167 Y43.1525
G01 X54.3388 Y43.1672
G01 X54.3782 Y43.1964
G01 X54.3987 Y43.2132
G01 X54.4351 Y43.2462
G01 X54.4446 Y43.2554
G01 X57.4446 Y46.2554
G01 X57.4538 Y46.2649
G01 X57.4868 Y46.3013
G01 X57.5036 Y46.3218
G01 X57.5328 Y46.3612
G01 X57.5475 Y46.3833
G01 X57.5728 Y46.4254
G01 X57.5853 Y46.4487
G01 X57.6062 Y46.4931
G01 X57.6164 Y46.5176
G01 X57.6329 Y46.5638
G01 X57.6406 Y46.5892
G01 X57.6525 Y46.6368
G01 X57.6577 Y46.6628
G01 X57.6649 Y46.7113
G01 X57.6675 Y46.7377
G01 X57.6699 Y46.7868
G01 X57.6703 Y46.8000
G01 X57.6703 Y47.0297
G01 X67.4925 Y47.0297
G01 X67.5240 Y46.9632
G01 X67.5365 Y46.9398
G01 X67.5869 Y46.8556
G01 X67.6017 Y46.8336
G01 X67.6601 Y46.7548
G01 X67.6769 Y46.7343
G01 X67.7428 Y46.6616
G01 X67.7616 Y46.6428
G01 X67.8343 Y46.5769
G01 X67.8548 Y46.5601
G01 X67.9336 Y46.5017
G01 X67.9556 Y46.4869
G01 X68.0398 Y46.4365
G01 X68.0632 Y46.4240
G01 X68.1297 Y46.3925
G01 X68.1297 Y37.5703
G01 X62.9000 Y37.5703
G01 X62.8868 Y37.5699
G01 X62.8377 Y37.5675
G01 X62.8113 Y37.5649
G01 X62.7628 Y37.5577
G01 X62.7368 Y37.5525
G01 X62.6892 Y37.5406
G01 X62.6638 Y37.5329
G01 X62.6176 Y37.5164
G01 X62.5931 Y37.5062
G01 X62.5487 Y37.4853
G01 X62.5254 Y37.4728
G01 X62.4833 Y37.4475
G01 X62.4612 Y37.4328
G01 X62.4218 Y37.4036
G01 X62.4013 Y37.3868
G01 X62.3649 Y37.3538
G01 X62.3554 Y37.3446
G01 X57.8554 Y32.8446
G01 X57.8462 Y32.8351
G01 X57.8132 Y32.7987
G01 X57.7964 Y32.7782
G01 X57.7672 Y32.7388
G01 X57.7525 Y32.7167
G01 X57.7272 Y32.6746
G01 X57.7147 Y32.6513
G01 X57.6938 Y32.6069
G01 X57.6836 Y32.5824
G01 X57.6671 Y32.5362
G01 X57.6594 Y32.5108
G01 X57.6475 Y32.4632
G01 X57.6423 Y32.4372
G01 X57.6351 Y32.3887
G01 X57.6325 Y32.3623
G01 X57.6301 Y32.3132
G01 X57.6297 Y32.3000
G01 X57.6297 Y28.5703
G01 X55.9084 Y28.5703
G01 X55.8899 Y28.5952
G01 X55.8731 Y28.6157
G01 X55.8072 Y28.6884
G01 X55.7884 Y28.7072
G01 X55.7157 Y28.7731
G01 X55.6952 Y28.7899
G01 X55.6164 Y28.8483
G01 X55.5944 Y28.8631
G01 X55.5102 Y28.9135
G01 X55.4868 Y28.9260
G01 X55.3981 Y28.9680
G01 X55.3736 Y28.9781
G01 X55.2812 Y29.0112
G01 X55.2559 Y29.0188
G01 X55.1607 Y29.0427
G01 X55.1347 Y29.0479
G01 X55.0376 Y29.0623
G01 X55.0113 Y29.0649
G01 X54.9132 Y29.0697
G01 X54.8868 Y29.0697
G01 X54.7887 Y29.0649
G01 X54.7624 Y29.0623
G01 X54.6653 Y29.0479
G01 X54.6393 Y29.0427
G01 X54.5441 Y29.0188
G01 X54.5188 Y29.0112
G01 X54.4264 Y28.9781
G01 X54.4019 Y28.9680
G01 X54.3132 Y28.9260
G01 X54.2898 Y28.9135
G01 X54.2056 Y28.8631
G01 X54.1836 Y28.8483
G01 X54.1048 Y28.7899
G01 X54.0843 Y28.7731
G01 X54.0116 Y28.7072
G01 X53.9928 Y28.6884
G01 X53.9269 Y28.6157
G01 X53.9101 Y28.5952
G01 X53.8517 Y28.5164
G01 X53.8369 Y28.4944
G01 X53.7865 Y28.4102
G01 X53.7740 Y28.3868
G01 X53.7320 Y28.2981
G01 X53.7219 Y28.2736
G01 X53.6888 Y28.1812
G01 X53.6812 Y28.1559
G01 X53.6573 Y28.0607
G01 X53.6521 Y28.0347
G01 X53.6377 Y27.9376
G01 X53.6351 Y27.9113
G01 X53.6303 Y27.8132
G01 X53.6303 Y27.7868
G01 X53.6351 Y27.6887
G01 X53.6377 Y27.6624
G01 X53.6521 Y27.5653
G01 X53.6573 Y27.5393
G01 X53.6812 Y27.4441
G01 X53.6888 Y27.4188
G01 X53.7219 Y27.3264
G01 X53.7320 Y27.3019
G01 X53.7740 Y27.2132
G01 X53.7865 Y27.1898
G01 X53.8369 Y27.1056
G01 X53.8517 Y27.0836
G01 X53.9101 Y27.0048
G01 X53.9269 Y26.9843
G01 X53.9928 Y26.9116
G01 X54.0116 Y26.8928
G01 X54.0843 Y26.8269
G01 X54.1048 Y26.8101
G01 X54.1836 Y26.7517
G01 X54.2056 Y26.7369
G01 X54.2898 Y26.6865
G01 X54.3132 Y26.6740
G01 X54.4019 Y26.6320
G01 X54.4264 Y26.6219
G01 X54.5188 Y26.5888
G01 X54.5441 Y26.5812
G01 X54.6393 Y26.5573
G01 X54.6653 Y26.5521
G01 X54.7624 Y26.5377
G01 X54.7887 Y26.5351
G01 X54.8868 Y26.5303
G01 X54.9132 Y26.5303
G01 X55.0113 Y26.5351
G01 X55.0376 Y26.5377
G01 X55.1347 Y26.5521
G01 X55.1607 Y26.5573
G01 X55.2559 Y26.5812
G01 X55.2812 Y26.5888
G01 X55.3736 Y26.6219
G01 X55.3981 Y26.6320
G01 X55.4868 Y26.6740
G01 X55.5102 Y26.6865
G01 X55.5944 Y26.7369
G01 X55.6164 Y26.7517
G01 X55.6952 Y26.8101
G01 X55.7157 Y26.8269
G01 X55.7884 Y26.8928
G01 X55.8072 Y26.9116
G01 X55.8731 Y26.9843
G01 X55.8899 Y27.0048
G01 X55.9084 Y27.0297
G00 Z2.0000
G00 X65.9330 Y27.5271
G01 F60.00
G01 Z-0.1500
G01 F120.00
G01 X65.9356 Y27.5534
G01 X65.9397 Y27.6368
G01 X65.9400 Y27.6500
G01 X65.9400 Y27.9500
G01 X65.9397 Y27.9632
G01 X65.9356 Y28.0466
G01 X65.9330 Y28.0729
G01 X65.9207 Y28.1554
G01 X65.9156 Y28.1814
G01 X65.8953 Y28.2623
G01 X65.8876 Y28.2877
G01 X65.8595 Y28.3662
G01 X65.8494 Y28.3907
G01 X65.8137 Y28.4661
G01 X65.8012 Y28.4895
G01 X65.7583 Y28.5610
G01 X65.7436 Y28.5831
G01 X65.6939 Y28.6501
G01 X65.6771 Y28.6706
G01 X65.6211 Y28.7324
G01 X65.6024 Y28.7511
G01 X65.5406 Y28.8071
G01 X65.5201 Y28.8239
G01 X65.4531 Y28.8736
G01 X65.4310 Y28.8883
G01 X65.3595 Y28.9312
G01 X65.3361 Y28.9437
G01 X65.2607 Y28.9794
G01 X65.2362 Y28.9895
G01 X65.1577 Y29.0176
G01 X65.1323 Y29.0253
G01 X65.0514 Y29.0456
G01 X65.0254 Y29.0507
G01 X64.9429 Y29.0630
G01 X64.9166 Y29.0656
G01 X64.8332 Y29.0697
G01 X64.8068 Y29.0697
G01 X64.7234 Y29.0656
G01 X64.6971 Y29.0630
G01 X64.6146 Y29.0507
G01 X64.5886 Y29.0456
G01 X64.5077 Y29.0253
G01 X64.4823 Y29.0176
G01 X64.4038 Y28.9895
G01 X64.3793 Y28.9794
G01 X64.3039 Y28.9437
G01 X64.2805 Y28.9312
G01 X64.2090 Y28.8883
G01 X64.1869 Y28.8736
G01 X64.1199 Y28.8239
G01 X64.0994 Y28.8071
G01 X64.0376 Y28.7511
G01 X64.0189 Y28.7324
G01 X63.9629 Y28.6706
G01 X63.9461 Y28.6501
G01 X63.8964 Y28.5831
G01 X63.8817 Y28.5610
G01 X63.8388 Y28.4895
G01 X63.8263 Y28.4661
G01 X63.7906 Y28.3907
G01 X63.7805 Y28.3662
G01 X63.7524 Y28.2877
G01 X63.7447 Y28.2623
G01 X63.7244 Y28.1814
G01 X63.7193 Y28.1554
G01 X63.7070 Y28.0729
G01 X63.7044 Y28.0466
G01 X63.7003 Y27.9632
G01 X63.7000 Y27.9500
G01 X63.7000 Y27.6500
G01 X63.7003 Y27.6368
G01 X63.7044 Y27.5534
G01 X63.7070 Y27.5271
G01 X63.7193 Y27.4446
G01 X63.7244 Y27.4186
G01 X63.7447 Y27.3377
G01 X63.7524 Y27.3123
G01 X63.7805 Y27.2338
G01 X63.7906 Y27.2093
G01 X63.8263 Y27.1339
G01 X63.8388 Y27.1105
G01 X63.8817 Y27.0390
G01 X63.8964 Y27.0169
G01 X63.9461 Y26.9499
G01 X63.9629 Y26.9294
G01 X64.0189 Y26.8676
G01 X64.0376 Y26.8489
G01 X64.0994 Y26.7929
G01 X64.1199 Y26.7761
G01 X64.1869 Y26.7264
G01 X64.2090 Y26.7117
G01 X64.2805 Y26.6688
G01 X64.3039 Y26.6563
G01 X64.3793 Y26.6206
G01 X64.4038 Y26.6105
G01 X64.4823 Y26.5824
G01 X64.5077 Y26.5747
G01 X64.5886 Y26.5544
G01 X64.6146 Y26.5493
G01 X64.6971 Y26.5370
G01 X64.7234 Y26.5344
G01 X64.8068 Y26.5303
G01 X64.8332 Y26.5303
G01 X64.9166 Y26.5344
G01 X64.9429 Y26.5370
G01 X65.0254 Y26.5493
G01 X65.0514 Y26.5544
G01 X65.1323 Y26.5747
G01 X65.1577 Y26.5824
G01 X65.2362 Y26.6105
G01 X65.2607 Y26.6206
G01 X65.3361 Y26.6563
G01 X65.3595 Y26.6688
G01 X65.4310 Y26.7117
G01 X65.4531 Y26.7264
G01 X65.5201 Y26.7761
G01 X65.5406 Y26.7929
G01 X65.6024 Y26.8489
G01 X65.6211 Y26.8676
G01 X65.6771 Y26.9294
G01 X65.6939 Y26.9499
G01 X65.7436 Y27.0169
G01 X65.7583 Y27.0390
G01 X65.8012 Y27.1105
G01 X65.8137 Y27.1339
G01 X65.8494 Y27.2093
G01 X65.8595 Y27.2338
G01 X65.8876 Y27.3123
G01 X65.8953 Y27.3377
G01 X65.9156 Y27.4186
G01 X65.9207 Y27.4446
G01 X65.9330 Y27.5271
G00 Z2.0000
G00 X66.6549 Y34.0297
G01 F60.00
G01 Z-0.1500
G01 F120.00
G01 X64.2190 Y34.0297
G01 X61.1703 Y30.9810
G01 X61.1703 Y25.6190
G01 X62.4446 Y24.3446
G01 X62.4538 Y24.3351
G01 X62.4868 Y24.2987
G01 X62.5036 Y24.2782
G01 X62.5328 Y24.2388
G01 X62.5475 Y24.2167
G01 X62.5728 Y24.1746
G01 X62.5853 Y24.1513
G01 X62.6062 Y24.1069
G01 X62.6164 Y24.0824
G01 X62.6207 Y24.0703
G01 X64.4044 Y24.0703
G01 X64.3793 Y24.0806
G01 X64.3039 Y24.1163
G01 X64.2805 Y24.1288
G01 X64.2090 Y24.1717
G01 X64.1869 Y24.1864
G01 X64.1199 Y24.2361
G01 X64.0994 Y24.2529
G01 X64.0376 Y24.3089
G01 X64.0189 Y24.3276
G01 X63.9629 Y24.3894
G01 X63.9461 Y24.4099
G01 X63.8964 Y24.4769
G01 X63.8878 Y24.4897
G01 X62.9400 Y24.4897
G01 X62.9268 Y24.4901
G01 X62.8777 Y24.4925
G01 X62.8513 Y24.4951
G01 X62.8028 Y24.5023
G01 X62.7768 Y24.5075
G01 X62.7292 Y24.5194
G01 X62.7038 Y24.5271
G01 X62.6576 Y24.5436
G01 X62.6331 Y24.5538
G01 X62.5887 Y24.5747
G01 X62.5654 Y24.5872
G01 X62.5233 Y24.6125
G01 X62.5012 Y24.6272
G01 X62.4618 Y24.6564
G01 X62.4413 Y24.6732
G01 X62.4049 Y24.7062
G01 X62.3954 Y24.7154
G01 X61.8554 Y25.2554
G01 X61.8462 Y25.2649
G01 X61.8132 Y25.3013
G01 X61.7964 Y25.3218
G01 X61.7672 Y25.3612
G01 X61.7525 Y25.3833
G01 X61.7272 Y25.4254
G01 X61.7147 Y25.4487
G01 X61.6938 Y25.4931
G01 X61.6836 Y25.5176
G01 X61.6671 Y25.5638
G01 X61.6594 Y25.5892
G01 X61.6475 Y25.6368
G01 X61.6423 Y25.6628
G01 X61.6351 Y25.7113
G01 X61.6325 Y25.7377
G01 X61.6301 Y25.7868
G01 X61.6297 Y25.8000
G01 X61.6297 Y30.3000
G01 X61.6301 Y30.3132
G01 X61.6325 Y30.3623
G01 X61.6351 Y30.3887
G01 X61.6423 Y30.4372
G01 X61.6475 Y30.4632
G01 X61.6594 Y30.5108
G01 X61.6671 Y30.5362
G01 X61.6836 Y30.5824
G01 X61.6938 Y30.6069
G01 X61.7147 Y30.6513
G01 X61.7272 Y30.6746
G01 X61.7525 Y30.7167
G01 X61.7672 Y30.7388
G01 X61.7964 Y30.7782
G01 X61.8132 Y30.7987
G01 X61.8462 Y30.8351
G01 X61.8554 Y30.8446
G01 X62.3554 Y31.3446
G01 X62.3649 Y31.3538
G01 X62.4013 Y31.3868
G01 X62.4218 Y31.4036
G01 X62.4612 Y31.4328
G01 X62.4833 Y31.4475
G01 X62.5254 Y31.4728
G01 X62.5487 Y31.4853
G01 X62.5931 Y31.5062
G01 X62.6176 Y31.5164
G01 X62.6638 Y31.5329
G01 X62.6892 Y31.5406
G01 X62.7368 Y31.5525
G01 X62.7628 Y31.5577
G01 X62.8113 Y31.5649
G01 X62.8377 Y31.5675
G01 X62.8868 Y31.5699
G01 X62.9000 Y31.5703
G01 X64.0810 Y31.5703
G01 X66.3554 Y33.8446
G01 X66.3649 Y33.8538
G01 X66.4013 Y33.8868
G01 X66.4218 Y33.9036
G01 X66.4612 Y33.9328
G01 X66.4833 Y33.9475
G01 X66.5254 Y33.9728
G01 X66.5487 Y33.9853
G01 X66.5931 Y34.0062
G01 X66.6176 Y34.0164
G01 X66.6549 Y34.0297
G00 Z2.0000
G00 X62.4084 Y39.5297
G01 F60.00
G01 Z-0.1500
G01 F120.00
G01 X63.6667 Y39.5297
G01 X64.4411 Y38.7554
G01 X64.4507 Y38.7462
G01 X64.4871 Y38.7132
G01 X64.5076 Y38.6964
G01 X64.5470 Y38.6672
G01 X64.5691 Y38.6525
G01 X64.6112 Y38.6272
G01 X64.6345 Y38.6147
G01 X64.6789 Y38.5938
G01 X64.7034 Y38.5836
G01 X64.7496 Y38.5671
G01 X64.7750 Y38.5594
G01 X64.8226 Y38.5475
G01 X64.8486 Y38.5423
G01 X64.8971 Y38.5351
G01 X64.9235 Y38.5325
G01 X64.9725 Y38.5301
G01 X64.9858 Y38.5297
G01 X65.3916 Y38.5297
G01 X65.4101 Y38.5048
G01 X65.4269 Y38.4843
G01 X65.4928 Y38.4116
G01 X65.5116 Y38.3928
G01 X65.5843 Y38.3269
G01 X65.6048 Y38.3101
G01 X65.6836 Y38.2517
G01 X65.7056 Y38.2369
G01 X65.7898 Y38.1865
G01 X65.8132 Y38.1740
G01 X65.9019 Y38.1320
G01 X65.9264 Y38.1219
G01 X66.0188 Y38.0888
G01 X66.0441 Y38.0812
G01 X66.1393 Y38.0573
G01 X66.1653 Y38.0521
G01 X66.2624 Y38.0377
G01 X66.2887 Y38.0351
G01 X66.3868 Y38.0303
G01 X66.4132 Y38.0303
G01 X66.5113 Y38.0351
G01 X66.5376 Y38.0377
G01 X66.6347 Y38.0521
G01 X66.6607 Y38.0573
G01 X66.7559 Y38.0812
G01 X66.7812 Y38.0888
G01 X66.8736 Y38.1219
G01 X66.8981 Y38.1320
G01 X66.9868 Y38.1740
G01 X67.0102 Y38.1865
G01 X67.0944 Y38.2369
G01 X67.1164 Y38.2517
G01 X67.1952 Y38.3101
G01 X67.2157 Y38.3269
G01 X67.2884 Y38.3928
G01 X67.3072 Y38.4116
G01 X67.3731 Y38.4843
G01 X67.3899 Y38.5048
G01 X67.4483 Y38.5836
G01 X67.4631 Y38.6056
G01 X67.5135 Y38.6898
G01 X67.5260 Y38.7132
G01 X67.5680 Y38.8019
G01 X67.5781 Y38.8264
G01 X67.6112 Y38.9188
G01 X67.6188 Y38.9441
G01 X67.6427 Y39.0393
G01 X67.6479 Y39.0653
G01 X67.6623 Y39.1624
G01 X67.6649 Y39.1887
G01 X67.6697 Y39.2868
G01 X67.6697 Y39.3132
G01 X67.6649 Y39.4113
G01 X67.6623 Y39.4376
G01 X67.6479 Y39.5347
G01 X67.6427 Y39.5607
G01 X67.6188 Y39.6559
G01 X67.6112 Y39.6812
G01 X67.5781 Y39.7736
G01 X67.5680 Y39.7981
G01 X67.5260 Y39.8868
G01 X67.5135 Y39.9102
G01 X67.4631 Y39.9944
G01 X67.4483 Y40.0164
G01 X67.3899 Y40.0952
G01 X67.3731 Y40.1157
G01 X67.3072 Y40.1884
G01 X67.2884 Y40.2072
G01 X67.2157 Y40.2731
G01 X67.1952 Y40.2899
G01 X67.1164 Y40.3483
G01 X67.0944 Y40.3631
G01 X67.0102 Y40.4135
G01 X66.9868 Y40.4260
G01 X66.8981 Y40.4680
G01 X66.8736 Y40.4781
G01 X66.7812 Y40.5112
G01 X66.7559 Y40.5188
G01 X66.6607 Y40.5427
G01 X66.6347 Y40.5479
G01 X66.5376 Y40.5623
G01 X66.5113 Y40.5649
G01 X66.4132 Y40.5697
G01 X66.3868 Y40.5697
G01 X66.2887 Y40.5649
G01 X66.2624 Y40.5623
G01 X66.1653 Y40.5479
G01 X66.1393 Y40.5427
G01 X66.0441 Y40.5188
G01 X66.0188 Y40.5112
G01 X65.9264 Y40.4781
G01 X65.9019 Y40.4680
G01 X65.8132 Y40.4260
G01 X65.7898 Y40.4135
G01 X65.7056 Y40.3631
G01 X65.6836 Y40.3483
G01 X65.6048 Y40.2899
G01 X65.5843 Y40.2731
G01 X65.5116 Y40.2072
G01 X65.4928 Y40.1884
G01 X65.4269 Y40.1157
G01 X65.4101 Y40.0952
G01 X65.3916 Y40.0703
G01 X65.3048 Y40.0703
G01 X64.5304 Y40.8446
G01 X64.5208 Y40.8538
G01 X64.4845 Y40.8868
G01 X64.4640 Y40.9036
G01 X64.4245 Y40.9328
G01 X64.4025 Y40.9475
G01 X64.3604 Y40.9728
G01 X64.3370 Y40.9853
G01 X64.2927 Y41.0062
G01 X64.2682 Y41.0164
G01 X64.2220 Y41.0329
G01 X64.1966 Y41.0406
G01 X64.1490 Y41.0525
G01 X64.1230 Y41.0577
G01 X64.0744 Y41.0649
G01 X64.0481 Y41.0675
G01 X63.9990 Y41.0699
G01 X63.9858 Y41.0703
G01 X62.4084 Y41.0703
G01 X62.3899 Y41.0952
G01 X62.3731 Y41.1157
G01 X62.3072 Y41.1884
G01 X62.2884 Y41.2072
G01 X62.2157 Y41.2731
G01 X62.1952 Y41.2899
G01 X62.1164 Y41.3483
G01 X62.0944 Y41.3631
G01 X62.0102 Y41.4135
G01 X61.9868 Y41.4260
G01 X61.8981 Y41.4680
G01 X61.8736 Y41.4781
G01 X61.7812 Y41.5112
G01 X61.7559 Y41.5188
G01 X61.6607 Y41.5427
G01 X61.6347 Y41.5479
G01 X61.5376 Y41.5623
G01 X61.5113 Y41.5649
G01 X61.4132 Y41.5697
G01 X61.3868 Y41.5697
G01 X61.2887 Y41.5649
G01 X61.2624 Y41.5623
G01 X61.1653 Y41.5479
G01 X61.1393 Y41.5427
G01 X61.0441 Y41.5188
G01 X61.0188 Y41.5112
G01 X60.9264 Y41.4781
G01 X60.9019 Y41.4680
G01 X60.8132 Y41.4260
G01 X60.7898 Y41.4135
G01 X60.7056 Y41.3631
G01 X60.6836 Y41.3483
G01 X60.6048 Y41.2899
G01 X60.5843 Y41.2731
G01 X60.5116 Y41.2072
G01 X60.4928 Y41.1884
G01 X60.4269 Y41.1157
G01 X60.4101 Y41.0952
G01 X60.3517 Y41.0164
G01 X60.3369 Y40.9944
G01 X60.2865 Y40.9102
G01 X60.2740 Y40.8868
G01 X60.2320 Y40.7981
G01 X60.2219 Y40.7736
G01 X60.1888 Y40.6812
G01 X60.1812 Y40.6559
G01 X60.1573 Y40.5607
G01 X60.1521 Y40.5347
G01 X60.1377 Y40.4376
G01 X60.1351 Y40.4113
G01 X60.1303 Y40.3132
G01 X60.1303 Y40.2868
G01 X60.1351 Y40.1887
G01 X60.1377 Y40.1624
G01 X60.1521 Y40.0653
G01 X60.1573 Y40.0393
G01 X60.1812 Y39.9441
G01 X60.1888 Y39.9188
G01 X60.2219 Y39.8264
G01 X60.2320 Y39.8019
G01 X60.2740 Y39.7132
G01 X60.2865 Y39.6898
G01 X60.3369 Y39.6056
G01 X60.3517 Y39.5836
G01 X60.4101 Y39.5048
G01 X60.4269 Y39.4843
G01 X60.4928 Y39.4116
G01 X60.5116 Y39.3928
G01 X60.5843 Y39.3269
G01 X60.6048 Y39.3101
G01 X60.6836 Y39.2517
G01 X60.7056 Y39.2369
G01 X60.7898 Y39.1865
G01 X60.8132 Y39.1740
G01 X60.9019 Y39.1320
G01 X60.9264 Y39.1219
G01 X61.0188 Y39.0888
G01 X61.0441 Y39.0812
G01 X61.1393 Y39.0573
G01 X61.1653 Y39.0521
G01 X61.2624 Y39.0377
G01 X61.2887 Y39.0351
G01 X61.3868 Y39.0303
G01 X61.4132 Y39.0303
G01 X61.5113 Y39.0351
G01 X61.5376 Y39.0377
G01 X61.6347 Y39.0521
G01 X61.6607 Y39.0573
G01 X61.7559 Y39.0812
G01 X61.7812 Y39.0888
G01 X61.8736 Y39.1219
G01 X61.8981 Y39.1320
G01 X61.9868 Y39.1740
G01 X62.0102 Y39.1865
G01 X62.0944 Y39.2369
G01 X62.1164 Y39.2517
G01 X62.1952 Y39.3101
G01 X62.2157 Y39.3269
G01 X62.2884 Y39.3928
G01 X62.3072 Y39.4116
G01 X62.3731 Y39.4843
G01 X62.3899 Y39.5048
G01 X62.4084 Y39.5297
G00 Z2.0000
G00 X74.4084 Y43.0297
G01 F60.00
G01 Z-0.1500
G01 F120.00
G01 X77.7316 Y43.0297
G01 X77.7501 Y43.0048
G01 X77.7669 Y42.9843
G01 X77.8328 Y42.9116
G01 X77.8516 Y42.8928
G01 X77.9243 Y42.8269
G01 X77.9448 Y42.8101
G01 X78.0236 Y42.7517
G01 X78.0456 Y42.7369
G01 X78.1298 Y42.6865
G01 X78.1532 Y42.6740
G01 X78.2419 Y42.6320
G01 X78.2664 Y42.6219
G01 X78.3588 Y42.5888
G01 X78.3841 Y42.5812
G01 X78.4793 Y42.5573
G01 X78.5053 Y42.5521
G01 X78.6024 Y42.5377
G01 X78.6287 Y42.5351
G01 X78.7268 Y42.5303
G01 X78.7532 Y42.5303
G01 X78.8513 Y42.5351
G01 X78.8776 Y42.5377
G01 X78.9747 Y42.5521
G01 X79.0007 Y42.5573
G01 X79.0959 Y42.5812
G01 X79.1212 Y42.5888
G01 X79.2136 Y42.6219
G01 X79.2381 Y42.6320
G01 X79.3268 Y42.6740
G01 X79.3502 Y42.6865
G01 X79.4344 Y42.7369
G01 X79.4564 Y42.7517
G01 X79.5352 Y42.8101
G01 X79.5557 Y42.8269
G01 X79.6284 Y42.8928
G01 X79.6472 Y42.9116
G01 X79.7131 Y42.9843
G01 X79.7299 Y43.0048
G01 X79.7883 Y43.0836
G01 X79.8031 Y43.1056
G01 X79.8535 Y43.1898
G01 X79.8660 Y43.2132
G01 X79.9080 Y43.3019
G01 X79.9181 Y43.3264
G01 X79.9512 Y43.4188
G01 X79.9588 Y43.4441
G01 X79.9827 Y43.5393
G01 X79.9879 Y43.5653
G01 X80.0023 Y43.6624
G01 X80.0049 Y43.6887
G01 X80.0097 Y43.7868
G01 X80.0097 Y43.8132
G01 X80.0049 Y43.9113
G01 X80.0023 Y43.9376
G01 X79.9879 Y44.0347
G01 X79.9827 Y44.0607
G01 X79.9588 Y44.1559
G01 X79.9512 Y44.1812
G01 X79.9181 Y44.2736
G01 X79.9080 Y44.2981
G01 X79.8660 Y44.3868
G01 X79.8535 Y44.4102
G01 X79.8031 Y44.4944
G01 X79.7883 Y44.5164
G01 X79.7299 Y44.5952
G01 X79.7131 Y44.6157
G01 X79.6472 Y44.6884
G01 X79.6284 Y44.7072
G01 X79.5557 Y44.7731
G01 X79.5352 Y44.7899
G01 X79.4564 Y44.8483
G01 X79.4344 Y44.8631
G01 X79.3502 Y44.9135
G01 X79.3268 Y44.9260
G01 X79.2381 Y44.9680
G01 X79.2136 Y44.9781
G01 X79.1212 Y45.0112
G01 X79.0959 Y45.0188
G01 X79.0007 Y45.0427
G01 X78.9747 Y45.0479
G01 X78.8776 Y45.0623
G01 X78.8513 Y45.0649
G01 X78.7532 Y45.0697
G01 X78.7268 Y45.0697
G01 X78.6287 Y45.0649
G01 X78.6024 Y45.0623
G01 X78.5053 Y45.0479
G01 X78.4793 Y45.0427
G01 X78.3841 Y45.0188
G01 X78.3588 Y45.0112
G01 X78.2664 Y44.9781
G01 X78.2419 Y44.9680
G01 X78.1532 Y44.9260
G01 X78.1298 Y44.9135
G01 X78.0456 Y44.8631
G01 X78.0236 Y44.8483
G01 X77.9448 Y44.7899
G01 X77.9243 Y44.7731
G01 X77.8516 Y44.7072
G01 X77.8328 Y44.6884
G01 X77.7669 Y44.6157
G01 X77.7501 Y44.5952
G01 X77.7316 Y44.5703
G01 X74.4084 Y44.5703
G01 X74.3899 Y44.5952
G01 X74.3731 Y44.6157
G01 X74.3072 Y44.6884
G01 X74.2884 Y44.7072
G01 X74.2157 Y44.7731
G01 X74.1952 Y44.7899
G01 X74.1164 Y44.8483
G01 X74.0944 Y44.8631
G01 X74.0102 Y44.9135
G01 X73.9868 Y44.9260
G01 X73.8981 Y44.9680
G01 X73.8736 Y44.9781
G01 X73.7812 Y45.0112
G01 X73.7559 Y45.0188
G01 X73.6607 Y45.0427
G01 X73.6347 Y45.0479
G01 X73.5376 Y45.0623
G01 X73.5113 Y45.0649
G01 X73.4132 Y45.0697
G01 X73.3868 Y45.0697
G01 X73.2887 Y45.0649
G01 X73.2624 Y45.0623
G01 X73.1653 Y45.0479
G01 X73.1393 Y45.0427
G01 X73.0441 Y45.0188
G01 X73.0188 Y45.0112
G01 X72.9264 Y44.9781
G01 X72.9019 Y44.9680
G01 X72.8132 Y44.9260
G01 X72.7898 Y44.9135
G01 X72.7056 Y44.8631
G01 X72.6836 Y44.8483
G01 X72.6048 Y44.7899
G01 X72.5843 Y44.7731
G01 X72.5116 Y44.7072
G01 X72.4928 Y44.6884
G01 X72.4269 Y44.6157
G01 X72.4101 Y44.5952
G01 X72.3517 Y44.5164
G01 X72.3369 Y44.4944
G01 X72.2865 Y44.4102
G01 X72.2740 Y44.3868
G01 X72.2320 Y44.2981
G01 X72.2219 Y44.2736
G01 X72.1888 Y44.1812
G01 X72.1812 Y44.1559
G01 X72.1573 Y44.0607
G01 X72.1521 Y44.0347
G01 X72.1377 Y43.9376
G01 X72.1351 Y43.9113
G01 X72.1303 Y43.8132
G01 X72.1303 Y43.7868
G01 X72.1351 Y43.6887
G01 X72.1377 Y43.6624
G01 X72.1521 Y43.5653
G01 X72.1573 Y43.5393
G01 X72.1812 Y43.4441
G01 X72.1888 Y43.4188
G01 X72.2219 Y43.3264
G01 X72.2320 Y43.3019
G01 X72.2740 Y43.2132
G01 X72.2865 Y43.1898
G01 X72.3369 Y43.1056
G01 X72.3517 Y43.0836
G01 X72.4101 Y43.0048
G01 X72.4269 Y42.9843
G01 X72.4928 Y42.9116
G01 X72.5116 Y42.8928
G01 X72.5843 Y42.8269
G01 X72.6048 Y42.8101
G01 X72.6836 Y42.7517
G01 X72.7056 Y42.7369
G01 X72.7898 Y42.6865
G01 X72.8132 Y42.6740
G01 X72.9019 Y42.6320
G01 X72.9264 Y42.6219
G01 X73.0188 Y42.5888
G01 X73.0441 Y42.5812
G01 X73.1393 Y42.5573
G01 X73.1653 Y42.5521
G01 X73.2624 Y42.5377
G01 X73.2887 Y42.5351
G01 X73.3868 Y42.5303
G01 X73.4132 Y42.5303
G01 X73.5113 Y42.5351
G01 X73.5376 Y42.5377
G01 X73.6347 Y42.5521
G01 X73.6607 Y42.5573
G01 X73.7559 Y42.5812
G01 X73.7812 Y42.5888
G01 X73.8736 Y42.6219
G01 X73.8981 Y42.6320
G01 X73.9868 Y42.6740
G01 X74.0102 Y42.6865
G01 X74.0944 Y42.7369
G01 X74.1164 Y42.7517
G01 X74.1952 Y42.8101
G01 X74.2157 Y42.8269
G01 X74.2884 Y42.8928
G01 X74.3072 Y42.9116
G01 X74.3731 Y42.9843
G01 X74.3899 Y43.0048
G01 X74.4084 Y43.0297
G00 Z2.0000
G00 X74.6584 Y46.7797
G01 F60.00
G01 Z-0.1500
G01 F120.00
G01 X77.5825 Y46.7797
G01 X77.6140 Y46.7132
G01 X77.6265 Y46.6898
G01 X77.6769 Y46.6056
G01 X77.6917 Y46.5836
G01 X77.7501 Y46.5048
G01 X77.7669 Y46.4843
G01 X77.8328 Y46.4116
G01 X77.8516 Y46.3928
G01 X77.9243 Y46.3269
G01 X77.9448 Y46.3101
G01 X78.0236 Y46.2517
G01 X78.0456 Y46.2369
G01 X78.1298 Y46.1865
G01 X78.1532 Y46.1740
G01 X78.2419 Y46.1320
G01 X78.2664 Y46.1219
G01 X78.3588 Y46.0888
G01 X78.3841 Y46.0812
G01 X78.4793 Y46.0573
G01 X78.5053 Y46.0521
G01 X78.6024 Y46.0377
G01 X78.6287 Y46.0351
G01 X78.7268 Y46.0303
G01 X78.7532 Y46.0303
G01 X78.8513 Y46.0351
G01 X78.8776 Y46.0377
G01 X78.9747 Y46.0521
G01 X79.0007 Y46.0573
G01 X79.0959 Y46.0812
G01 X79.1212 Y46.0888
G01 X79.2136 Y46.1219
G01 X79.2381 Y46.1320
G01 X79.3268 Y46.1740
G01 X79.3502 Y46.1865
G01 X79.4344 Y46.2369
G01 X79.4564 Y46.2517
G01 X79.5352 Y46.3101
G01 X79.5557 Y46.3269
G01 X79.6284 Y46.3928
G01 X79.6472 Y46.4116
G01 X79.7131 Y46.4843
G01 X79.7299 Y46.5048
G01 X79.7883 Y46.5836
G01 X79.8031 Y46.6056
G01 X79.8535 Y46.6898
G01 X79.8660 Y46.7132
G01 X79.9080 Y46.8019
G01 X79.9181 Y46.8264
G01 X79.9512 Y46.9188
G01 X79.9588 Y46.9441
G01 X79.9827 Y47.0393
G01 X79.9879 Y47.0653
G01 X80.0023 Y47.1624
G01 X80.0049 Y47.1887
G01 X80.0097 Y47.2868
G01 X80.0097 Y47.3132
G01 X80.0049 Y47.4113
G01 X80.0023 Y47.4376
G01 X79.9879 Y47.5347
G01 X79.9827 Y47.5607
G01 X79.9588 Y47.6559
G01 X79.9512 Y47.6812
G01 X79.9181 Y47.7736
G01 X79.9080 Y47.7981
G01 X79.8660 Y47.8868
G01 X79.8535 Y47.9102
G01 X79.8031 Y47.9944
G01 X79.7883 Y48.0164
G01 X79.7299 Y48.0952
G01 X79.7131 Y48.1157
G01 X79.6472 Y48.1884
G01 X79.6284 Y48.2072
G01 X79.5557 Y48.2731
G01 X79.5352 Y48.2899
G01 X79.4564 Y48.3483
G01 X79.4344 Y48.3631
G01 X79.3502 Y48.4135
G01 X79.3268 Y48.4260
G01 X79.2381 Y48.4680
G01 X79.2136 Y48.4781
G01 X79.1212 Y48.5112
G01 X79.0959 Y48.5188
G01 X79.0007 Y48.5427
G01 X78.9747 Y48.5479
G01 X78.8776 Y48.5623
G01 X78.8513 Y48.5649
G01 X78.7532 Y48.5697
G01 X78.7268 Y48.5697
G01 X78.6287 Y48.5649
G01 X78.6024 Y48.5623
G01 X78.5053 Y48.5479
G01 X78.4793 Y48.5427
G01 X78.3841 Y48.5188
G01 X78.3588 Y48.5112
G01 X78.2664 Y48.4781
G01 X78.2419 Y48.4680
G01 X78.1532 Y48.4260
G01 X78.1298 Y48.4135
G01 X78.0456 Y48.3631
G01 X78.0236 Y48.3483
G01 X77.9857 Y48.3203
G01 X74.6584 Y48.3203
G01 X74.6399 Y48.3452
G01 X74.6231 Y48.3657
G01 X74.5572 Y48.4384
G01 X74.5384 Y48.4572
G01 X74.4657 Y48.5231
G01 X74.4452 Y48.5399
G01 X74.3664 Y48.5983
G01 X74.3444 Y48.6131
G01 X74.2602 Y48.6635
G01 X74.2368 Y48.6760
G01 X74.1481 Y48.7180
G01 X74.1236 Y48.7281
G01 X74.0312 Y48.7612
G01 X74.0059 Y48.7688
G01 X73.9107 Y48.7927
G01 X73.8847 Y48.7979
G01 X73.7876 Y48.8123
G01 X73.7613 Y48.8149
G01 X73.6632 Y48.8197
G01 X73.6368 Y48.8197
G01 X73.5387 Y48.8149
G01 X73.5124 Y48.8123
G01 X73.4153 Y48.7979
G01 X73.3893 Y48.7927
G01 X73.2941 Y48.7688
G01 X73.2688 Y48.7612
G01 X73.1764 Y48.7281
G01 X73.1519 Y48.7180
G01 X73.0632 Y48.6760
G01 X73.0398 Y48.6635
G01 X72.9556 Y48.6131
G01 X72.9336 Y48.5983
G01 X72.8548 Y48.5399
G01 X72.8343 Y48.5231
G01 X72.7616 Y48.4572
G01 X72.7428 Y48.4384
G01 X72.6769 Y48.3657
G01 X72.6601 Y48.3452
G01 X72.6017 Y48.2664
G01 X72.5869 Y48.2444
G01 X72.5365 Y48.1602
G01 X72.5240 Y48.1368
G01 X72.4820 Y48.0481
G01 X72.4719 Y48.0236
G01 X72.4388 Y47.9312
G01 X72.4312 Y47.9059
G01 X72.4073 Y47.8107
G01 X72.4021 Y47.7847
G01 X72.3877 Y47.6876
G01 X72.3851 Y47.6613
G01 X72.3803 Y47.5632
G01 X72.3803 Y47.5368
G01 X72.3851 Y47.4387
G01 X72.3877 Y47.4124
G01 X72.4021 Y47.3153
G01 X72.4073 Y47.2893
G01 X72.4312 Y47.1941
G01 X72.4388 Y47.1688
G01 X72.4719 Y47.0764
G01 X72.4820 Y47.0519
G01 X72.5240 Y46.9632
G01 X72.5365 Y46.9398
G01 X72.5869 Y46.8556
G01 X72.6017 Y46.8336
G01 X72.6601 Y46.7548
G01 X72.6769 Y46.7343
G01 X72.7428 Y46.6616
G01 X72.7616 Y46.6428
G01 X72.8343 Y46.5769
G01 X72.8548 Y46.5601
G01 X72.9336 Y46.5017
G01 X72.9556 Y46.4869
G01 X73.0398 Y46.4365
G01 X73.0632 Y46.4240
G01 X73.1519 Y46.3820
G01 X73.1764 Y46.3719
G01 X73.2688 Y46.3388
G01 X73.2941 Y46.3312
G01 X73.3893 Y46.3073
G01 X73.4153 Y46.3021
G01 X73.5124 Y46.2877
G01 X73.5387 Y46.2851
G01 X73.6368 Y46.2803
G01 X73.6632 Y46.2803
G01 X73.7613 Y46.2851
G01 X73.7876 Y46.2877
G01 X73.8847 Y46.3021
G01 X73.9107 Y46.3073
G01 X74.0059 Y46.3312
G01 X74.0312 Y46.3388
G01 X74.1236 Y46.3719
G01 X74.1481 Y46.3820
G01 X74.2368 Y46.4240
G01 X74.2602 Y46.4365
G01 X74.3444 Y46.4869
G01 X74.3664 Y46.5017
G01 X74.4452 Y46.5601
G01 X74.4657 Y46.5769
G01 X74.5384 Y46.6428
G01 X74.5572 Y46.6616
G01 X74.6231 Y46.7343
G01 X74.6399 Y46.7548
G01 X74.6584 Y46.7797
G00 Z2.0000
G00 X76.8284 Y50.0423
G01 F60.00
