(G-CODE GENERATED BY FLATCAM v8.991 - www.flatcam.org - Version Date: 2019/12/27)

(Name: 3)
(Type: G-code from Geometry)
(Units: MM)

(Created on Tuesday, 14 April 2020 at 12:45)

(TOOL DIAMETER: 0.3 mm)
(Feedrate: 120.0 mm/min)
(Feedrate_Z: 60.0 mm/min)
(Feedrate rapids 1500.0 mm/min)

(Z_Cut: -0.15 mm)
(Z_Move: 2.0 mm)
(Z Toolchange: 15.0 mm)
(X,Y Toolchange: 0.0000, 0.0000 mm)
(Z Start: None mm)
(Z End: 4.0 mm)
(Steps per circle: 64)
(Preprocessor Geometry: default)

(X range:    3.0105 ...  126.7895  mm)
(Y range:    1.1905 ...   62.6895  mm)

(Spindle Speed: None RPM)
G21
G90
G94




G01 F120.00
G00 Z2.0000

M03
G00 X7.7761 Y5.0467
G01 F60.00
G01 Z-0.1500
G01 F120.00
G01 X7.7799 Y5.0848
G01 X7.7895 Y5.2809
G01 X7.7895 Y5.3191
G01 X7.7799 Y5.5152
G01 X7.7761 Y5.5533
G01 X7.7473 Y5.7474
G01 X7.7399 Y5.7849
G01 X7.6922 Y5.9753
G01 X7.6811 Y6.0120
G01 X7.6150 Y6.1968
G01 X7.6003 Y6.2321
G01 X7.5164 Y6.4095
G01 X7.4984 Y6.4433
G01 X7.3975 Y6.6116
G01 X7.3762 Y6.6435
G01 X7.2593 Y6.8011
G01 X7.2350 Y6.8307
G01 X7.1032 Y6.9761
G01 X7.0761 Y7.0032
G01 X6.9307 Y7.1350
G01 X6.9011 Y7.1593
G01 X6.7435 Y7.2762
G01 X6.7116 Y7.2975
G01 X6.5433 Y7.3984
G01 X6.5095 Y7.4164
G01 X6.3321 Y7.5003
G01 X6.2968 Y7.5150
G01 X6.1120 Y7.5811
G01 X6.0753 Y7.5922
G01 X5.8849 Y7.6399
G01 X5.8474 Y7.6473
G01 X5.6533 Y7.6761
G01 X5.6152 Y7.6799
G01 X5.4191 Y7.6895
G01 X5.3809 Y7.6895
G01 X5.1848 Y7.6799
G01 X5.1467 Y7.6761
G01 X4.9526 Y7.6473
G01 X4.9151 Y7.6399
G01 X4.7247 Y7.5922
G01 X4.6880 Y7.5811
G01 X4.5032 Y7.5150
G01 X4.4679 Y7.5003
G01 X4.2905 Y7.4164
G01 X4.2567 Y7.3984
G01 X4.0884 Y7.2975
G01 X4.0565 Y7.2762
G01 X3.8989 Y7.1593
G01 X3.8693 Y7.1350
G01 X3.7239 Y7.0032
G01 X3.6968 Y6.9761
G01 X3.5650 Y6.8307
G01 X3.5407 Y6.8011
G01 X3.4238 Y6.6435
G01 X3.4025 Y6.6116
G01 X3.3016 Y6.4433
G01 X3.2836 Y6.4095
G01 X3.1997 Y6.2321
G01 X3.1850 Y6.1968
G01 X3.1189 Y6.0120
G01 X3.1078 Y5.9753
G01 X3.0601 Y5.7849
G01 X3.0527 Y5.7474
G01 X3.0239 Y5.5533
G01 X3.0201 Y5.5152
G01 X3.0105 Y5.3191
G01 X3.0105 Y5.2809
G01 X3.0201 Y5.0848
G01 X3.0239 Y5.0467
G01 X3.0527 Y4.8526
G01 X3.0601 Y4.8151
G01 X3.1078 Y4.6247
G01 X3.1189 Y4.5880
G01 X3.1850 Y4.4032
G01 X3.1997 Y4.3679
G01 X3.2836 Y4.1905
G01 X3.3016 Y4.1567
G01 X3.4025 Y3.9884
G01 X3.4238 Y3.9565
G01 X3.5407 Y3.7989
G01 X3.5650 Y3.7693
G01 X3.6968 Y3.6239
G01 X3.7239 Y3.5968
G01 X3.8693 Y3.4650
G01 X3.8989 Y3.4407
G01 X4.0565 Y3.3238
G01 X4.0884 Y3.3025
G01 X4.2567 Y3.2016
G01 X4.2905 Y3.1836
G01 X4.4679 Y3.0997
G01 X4.5032 Y3.0850
G01 X4.6880 Y3.0189
G01 X4.7247 Y3.0078
G01 X4.9151 Y2.9601
G01 X4.9526 Y2.9527
G01 X5.1467 Y2.9239
G01 X5.1848 Y2.9201
G01 X5.3809 Y2.9105
G01 X5.4191 Y2.9105
G01 X5.6152 Y2.9201
G01 X5.6533 Y2.9239
G01 X5.8474 Y2.9527
G01 X5.8849 Y2.9601
G01 X6.0753 Y3.0078
G01 X6.1120 Y3.0189
G01 X6.2968 Y3.0850
G01 X6.3321 Y3.0997
G01 X6.5095 Y3.1836
G01 X6.5433 Y3.2016
G01 X6.7116 Y3.3025
G01 X6.7435 Y3.3238
G01 X6.9011 Y3.4407
G01 X6.9307 Y3.4650
G01 X7.0761 Y3.5968
G01 X7.1032 Y3.6239
G01 X7.2350 Y3.7693
G01 X7.2593 Y3.7989
G01 X7.3762 Y3.9565
G01 X7.3975 Y3.9884
G01 X7.4984 Y4.1567
G01 X7.5164 Y4.1905
G01 X7.6003 Y4.3679
G01 X7.6150 Y4.4032
G01 X7.6811 Y4.5880
G01 X7.6922 Y4.6247
G01 X7.7399 Y4.8151
G01 X7.7473 Y4.8526
G01 X7.7761 Y5.0467
G00 Z2.0000
G00 X18.7737 Y18.4977
G01 F60.00
G01 Z-0.1500
G01 F120.00
G01 X18.7775 Y18.5358
G01 X18.7895 Y18.7809
G01 X18.7895 Y18.8191
G01 X18.7775 Y19.0642
G01 X18.7737 Y19.1023
G01 X18.7377 Y19.3450
G01 X18.7303 Y19.3825
G01 X18.6707 Y19.6205
G01 X18.6596 Y19.6571
G01 X18.5769 Y19.8881
G01 X18.5623 Y19.9235
G01 X18.4574 Y20.1452
G01 X18.4393 Y20.1790
G01 X18.3132 Y20.3894
G01 X18.2919 Y20.4212
G01 X18.1458 Y20.6183
G01 X18.1215 Y20.6479
G01 X17.9567 Y20.8297
G01 X17.9297 Y20.8567
G01 X17.7479 Y21.0215
G01 X17.7183 Y21.0458
G01 X17.5212 Y21.1919
G01 X17.4894 Y21.2132
G01 X17.2790 Y21.3393
G01 X17.2452 Y21.3574
G01 X17.0235 Y21.4623
G01 X16.9881 Y21.4769
G01 X16.7571 Y21.5596
G01 X16.7205 Y21.5707
G01 X16.4825 Y21.6303
G01 X16.4450 Y21.6377
G01 X16.2023 Y21.6737
G01 X16.1642 Y21.6775
G01 X15.9191 Y21.6895
G01 X15.8809 Y21.6895
G01 X15.6358 Y21.6775
G01 X15.5977 Y21.6737
G01 X15.3550 Y21.6377
G01 X15.3175 Y21.6303
G01 X15.0795 Y21.5707
G01 X15.0429 Y21.5596
G01 X14.8119 Y21.4769
G01 X14.7765 Y21.4623
G01 X14.5548 Y21.3574
G01 X14.5210 Y21.3393
G01 X14.3106 Y21.2132
G01 X14.2788 Y21.1919
G01 X14.0817 Y21.0458
G01 X14.0521 Y21.0215
G01 X13.8703 Y20.8567
G01 X13.8433 Y20.8297
G01 X13.6785 Y20.6479
G01 X13.6542 Y20.6183
G01 X13.5081 Y20.4212
G01 X13.4868 Y20.3894
G01 X13.3607 Y20.1790
G01 X13.3426 Y20.1452
G01 X13.2377 Y19.9235
G01 X13.2231 Y19.8881
G01 X13.1404 Y19.6571
G01 X13.1293 Y19.6205
G01 X13.0697 Y19.3825
G01 X13.0623 Y19.3450
G01 X13.0263 Y19.1023
G01 X13.0225 Y19.0642
G01 X13.0105 Y18.8191
G01 X13.0105 Y18.7809
G01 X13.0225 Y18.5358
G01 X13.0263 Y18.4977
G01 X13.0623 Y18.2550
G01 X13.0697 Y18.2175
G01 X13.1293 Y17.9795
G01 X13.1404 Y17.9429
G01 X13.2231 Y17.7119
G01 X13.2377 Y17.6765
G01 X13.3426 Y17.4548
G01 X13.3607 Y17.4210
G01 X13.4868 Y17.2106
G01 X13.5081 Y17.1788
G01 X13.6542 Y16.9817
G01 X13.6785 Y16.9521
G01 X13.8433 Y16.7703
G01 X13.8703 Y16.7433
G01 X14.0521 Y16.5785
G01 X14.0817 Y16.5542
G01 X14.2788 Y16.4081
G01 X14.3106 Y16.3868
G01 X14.5210 Y16.2607
G01 X14.5548 Y16.2426
G01 X14.7765 Y16.1377
G01 X14.8119 Y16.1231
G01 X15.0429 Y16.0404
G01 X15.0795 Y16.0293
G01 X15.3175 Y15.9697
G01 X15.3550 Y15.9623
G01 X15.5977 Y15.9263
G01 X15.6358 Y15.9225
G01 X15.8809 Y15.9105
G01 X15.9191 Y15.9105
G01 X16.1642 Y15.9225
G01 X16.2023 Y15.9263
G01 X16.4450 Y15.9623
G01 X16.4825 Y15.9697
G01 X16.7205 Y16.0293
G01 X16.7571 Y16.0404
G01 X16.9881 Y16.1231
G01 X17.0235 Y16.1377
G01 X17.2452 Y16.2426
G01 X17.2790 Y16.2607
G01 X17.4894 Y16.3868
G01 X17.5212 Y16.4081
G01 X17.7183 Y16.5542
G01 X17.7479 Y16.5785
G01 X17.9297 Y16.7433
G01 X17.9567 Y16.7703
G01 X18.1215 Y16.9521
G01 X18.1458 Y16.9817
G01 X18.2919 Y17.1788
G01 X18.3132 Y17.2106
G01 X18.4393 Y17.4210
G01 X18.4574 Y17.4548
G01 X18.5623 Y17.6765
G01 X18.5769 Y17.7119
G01 X18.6596 Y17.9429
G01 X18.6707 Y17.9795
G01 X18.7303 Y18.2175
G01 X18.7377 Y18.2550
G01 X18.7737 Y18.4977
G00 Z2.0000
G00 X28.0127 Y29.4100
G01 F60.00
G01 Z-0.1500
G01 F120.00
G01 X28.0420 Y29.3979
G01 X28.1174 Y29.3622
G01 X28.1512 Y29.3441
G01 X28.2227 Y29.3013
G01 X28.2546 Y29.2800
G01 X28.3216 Y29.2303
G01 X28.3511 Y29.2060
G01 X28.4127 Y29.1503
G01 X29.4000 Y29.1503
G01 X29.4191 Y29.1498
G01 X29.4682 Y29.1474
G01 X29.5063 Y29.1436
G01 X29.5548 Y29.1364
G01 X29.5924 Y29.1290
G01 X29.6400 Y29.1170
G01 X29.6766 Y29.1059
G01 X29.7228 Y29.0894
G01 X29.7582 Y29.0747
G01 X29.8026 Y29.0537
G01 X29.8363 Y29.0357
G01 X29.8784 Y29.0105
G01 X29.9102 Y28.9892
G01 X29.9497 Y28.9599
G01 X29.9793 Y28.9357
G01 X30.0156 Y28.9027
G01 X30.0295 Y28.8895
G01 X33.7288 Y25.1903
G01 X33.7507 Y25.1903
G01 X29.0312 Y29.9097
G01 X28.7900 Y29.9097
G01 X28.7900 Y29.8000
G01 X28.7881 Y29.7618
G01 X28.7825 Y29.7239
G01 X28.7732 Y29.6868
G01 X28.7603 Y29.6508
G01 X28.7439 Y29.6162
G01 X28.7243 Y29.5833
G01 X28.7015 Y29.5526
G01 X28.6758 Y29.5242
G01 X28.6474 Y29.4985
G01 X28.6167 Y29.4757
G01 X28.5838 Y29.4561
G01 X28.5492 Y29.4397
G01 X28.5132 Y29.4268
G01 X28.4761 Y29.4175
G01 X28.4382 Y29.4119
G01 X28.4000 Y29.4100
G01 X28.0127 Y29.4100
G00 Z2.0000
G00 X38.7737 Y18.4977
G01 F60.00
G01 Z-0.1500
G01 F120.00
G01 X38.7775 Y18.5358
G01 X38.7895 Y18.7809
G01 X38.7895 Y18.8191
G01 X38.7775 Y19.0642
G01 X38.7737 Y19.1023
G01 X38.7377 Y19.3450
G01 X38.7303 Y19.3825
G01 X38.6707 Y19.6205
G01 X38.6596 Y19.6571
G01 X38.5769 Y19.8881
G01 X38.5623 Y19.9235
G01 X38.4574 Y20.1452
G01 X38.4393 Y20.1790
G01 X38.3132 Y20.3894
G01 X38.2919 Y20.4212
G01 X38.1458 Y20.6183
G01 X38.1215 Y20.6479
G01 X37.9567 Y20.8297
G01 X37.9297 Y20.8567
G01 X37.7479 Y21.0215
G01 X37.7183 Y21.0458
G01 X37.5212 Y21.1919
G01 X37.4894 Y21.2132
G01 X37.2790 Y21.3393
G01 X37.2452 Y21.3574
G01 X37.0235 Y21.4623
G01 X36.9881 Y21.4769
G01 X36.7571 Y21.5596
G01 X36.7205 Y21.5707
G01 X36.4825 Y21.6303
G01 X36.4450 Y21.6377
G01 X36.2023 Y21.6737
G01 X36.1642 Y21.6775
G01 X35.9191 Y21.6895
G01 X35.8809 Y21.6895
G01 X35.6358 Y21.6775
G01 X35.5977 Y21.6737
G01 X35.3550 Y21.6377
G01 X35.3175 Y21.6303
G01 X35.0795 Y21.5707
G01 X35.0429 Y21.5596
G01 X34.8119 Y21.4769
G01 X34.7765 Y21.4623
G01 X34.5548 Y21.3574
G01 X34.5210 Y21.3393
G01 X34.3106 Y21.2132
G01 X34.2788 Y21.1919
G01 X34.0817 Y21.0458
G01 X34.0521 Y21.0215
G01 X33.8703 Y20.8567
G01 X33.8433 Y20.8297
G01 X33.6785 Y20.6479
G01 X33.6542 Y20.6183
G01 X33.5081 Y20.4212
G01 X33.4868 Y20.3894
G01 X33.3607 Y20.1790
G01 X33.3426 Y20.1452
G01 X33.2377 Y19.9235
G01 X33.2231 Y19.8881
G01 X33.1404 Y19.6571
G01 X33.1293 Y19.6205
G01 X33.0697 Y19.3825
G01 X33.0623 Y19.3450
G01 X33.0263 Y19.1023
G01 X33.0225 Y19.0642
G01 X33.0105 Y18.8191
G01 X33.0105 Y18.7809
G01 X33.0225 Y18.5358
G01 X33.0263 Y18.4977
G01 X33.0623 Y18.2550
G01 X33.0697 Y18.2175
G01 X33.1293 Y17.9795
G01 X33.1404 Y17.9429
G01 X33.2231 Y17.7119
G01 X33.2377 Y17.6765
G01 X33.3426 Y17.4548
G01 X33.3607 Y17.4210
G01 X33.4868 Y17.2106
G01 X33.5081 Y17.1788
G01 X33.6542 Y16.9817
G01 X33.6785 Y16.9521
G01 X33.8433 Y16.7703
G01 X33.8703 Y16.7433
G01 X34.0521 Y16.5785
G01 X34.0817 Y16.5542
G01 X34.2788 Y16.4081
G01 X34.3106 Y16.3868
G01 X34.5210 Y16.2607
G01 X34.5548 Y16.2426
G01 X34.7765 Y16.1377
G01 X34.8119 Y16.1231
G01 X35.0429 Y16.0404
G01 X35.0795 Y16.0293
G01 X35.3175 Y15.9697
G01 X35.3550 Y15.9623
G01 X35.5977 Y15.9263
G01 X35.6358 Y15.9225
G01 X35.8809 Y15.9105
G01 X35.9191 Y15.9105
G01 X36.1642 Y15.9225
G01 X36.2023 Y15.9263
G01 X36.4450 Y15.9623
G01 X36.4825 Y15.9697
G01 X36.7205 Y16.0293
G01 X36.7571 Y16.0404
G01 X36.9881 Y16.1231
G01 X37.0235 Y16.1377
G01 X37.2452 Y16.2426
G01 X37.2790 Y16.2607
G01 X37.4894 Y16.3868
G01 X37.5212 Y16.4081
G01 X37.7183 Y16.5542
G01 X37.7479 Y16.5785
G01 X37.9297 Y16.7433
G01 X37.9567 Y16.7703
G01 X38.1215 Y16.9521
G01 X38.1458 Y16.9817
G01 X38.2919 Y17.1788
G01 X38.3132 Y17.2106
G01 X38.4393 Y17.4210
G01 X38.4574 Y17.4548
G01 X38.5623 Y17.6765
G01 X38.5769 Y17.7119
G01 X38.6596 Y17.9429
G01 X38.6707 Y17.9795
G01 X38.7303 Y18.2175
G01 X38.7377 Y18.2550
G01 X38.7737 Y18.4977
G00 Z2.0000
G00 X43.5097 Y24.7331
G01 F60.00
G01 Z-0.1500
G01 F120.00
G01 X43.5097 Y24.3858
G01 X43.5102 Y24.3667
G01 X43.5126 Y24.3176
G01 X43.5164 Y24.2795
G01 X43.5236 Y24.2310
G01 X43.5310 Y24.1934
G01 X43.5430 Y24.1458
G01 X43.5541 Y24.1092
G01 X43.5706 Y24.0630
G01 X43.5853 Y24.0276
G01 X43.6063 Y23.9832
G01 X43.6243 Y23.9495
G01 X43.6495 Y23.9074
G01 X43.6708 Y23.8755
G01 X43.7001 Y23.8361
G01 X43.7243 Y23.8065
G01 X43.7573 Y23.7701
G01 X43.7705 Y23.7563
G01 X44.0097 Y23.5170
G01 X44.0097 Y15.3000
G01 X44.0102 Y15.2809
G01 X44.0126 Y15.2318
G01 X44.0164 Y15.1937
G01 X44.0236 Y15.1452
G01 X44.0310 Y15.1076
G01 X44.0430 Y15.0600
G01 X44.0541 Y15.0234
G01 X44.0706 Y14.9772
G01 X44.0853 Y14.9418
G01 X44.1063 Y14.8974
G01 X44.1243 Y14.8637
G01 X44.1495 Y14.8216
G01 X44.1708 Y14.7898
G01 X44.2001 Y14.7503
G01 X44.2243 Y14.7207
G01 X44.2573 Y14.6844
G01 X44.2705 Y14.6705
G01 X45.7705 Y13.1705
G01 X45.7844 Y13.1573
G01 X45.8207 Y13.1243
G01 X45.8503 Y13.1001
G01 X45.8898 Y13.0708
G01 X45.9216 Y13.0495
G01 X45.9637 Y13.0243
G01 X45.9974 Y13.0063
G01 X46.0418 Y12.9853
G01 X46.0772 Y12.9706
G01 X46.1234 Y12.9541
G01 X46.1600 Y12.9430
G01 X46.2076 Y12.9310
G01 X46.2452 Y12.9236
G01 X46.2937 Y12.9164
G01 X46.3318 Y12.9126
G01 X46.3809 Y12.9102
G01 X46.4000 Y12.9097
G01 X53.9000 Y12.9097
G01 X53.9191 Y12.9102
G01 X53.9682 Y12.9126
G01 X54.0063 Y12.9164
G01 X54.0548 Y12.9236
G01 X54.0924 Y12.9310
G01 X54.1400 Y12.9430
G01 X54.1766 Y12.9541
G01 X54.2228 Y12.9706
G01 X54.2582 Y12.9853
G01 X54.3026 Y13.0063
G01 X54.3363 Y13.0243
G01 X54.3784 Y13.0495
G01 X54.4102 Y13.0708
G01 X54.4497 Y13.1001
G01 X54.4793 Y13.1243
G01 X54.5156 Y13.1573
G01 X54.5295 Y13.1705
G01 X55.0251 Y13.6661
G01 X55.0328 Y13.6653
G01 X55.1309 Y13.6605
G01 X55.1691 Y13.6605
G01 X55.2672 Y13.6653
G01 X55.3052 Y13.6690
G01 X55.4023 Y13.6834
G01 X55.4399 Y13.6909
G01 X55.5350 Y13.7147
G01 X55.5717 Y13.7259
G01 X55.6641 Y13.7589
G01 X55.6994 Y13.7736
G01 X55.7881 Y13.8155
G01 X55.8219 Y13.8336
G01 X55.9061 Y13.8840
G01 X55.9379 Y13.9053
G01 X56.0167 Y13.9637
G01 X56.0463 Y13.9880
G01 X56.1190 Y14.0539
G01 X56.1461 Y14.0810
G01 X56.2120 Y14.1537
G01 X56.2363 Y14.1833
G01 X56.2947 Y14.2621
G01 X56.3160 Y14.2939
G01 X56.3664 Y14.3781
G01 X56.3845 Y14.4119
G01 X56.4264 Y14.5006
G01 X56.4411 Y14.5359
G01 X56.4741 Y14.6283
G01 X56.4853 Y14.6650
G01 X56.5091 Y14.7601
G01 X56.5166 Y14.7977
G01 X56.5310 Y14.8948
G01 X56.5347 Y14.9328
G01 X56.5395 Y15.0309
G01 X56.5395 Y15.0691
G01 X56.5347 Y15.1672
G01 X56.5310 Y15.2052
G01 X56.5166 Y15.3023
G01 X56.5091 Y15.3399
G01 X56.4853 Y15.4350
G01 X56.4741 Y15.4717
G01 X56.4411 Y15.5641
G01 X56.4264 Y15.5994
G01 X56.3845 Y15.6881
G01 X56.3664 Y15.7219
G01 X56.3160 Y15.8061
G01 X56.2947 Y15.8379
G01 X56.2363 Y15.9167
G01 X56.2120 Y15.9463
G01 X56.1461 Y16.0190
G01 X56.1190 Y16.0461
G01 X56.0463 Y16.1120
G01 X56.0167 Y16.1363
G01 X55.9379 Y16.1947
G01 X55.9061 Y16.2160
G01 X55.8219 Y16.2664
G01 X55.7881 Y16.2845
G01 X55.6994 Y16.3264
G01 X55.6641 Y16.3411
G01 X55.5717 Y16.3741
G01 X55.5350 Y16.3853
G01 X55.4399 Y16.4091
G01 X55.4023 Y16.4166
G01 X55.3052 Y16.4310
G01 X55.2672 Y16.4347
G01 X55.1691 Y16.4395
G01 X55.1309 Y16.4395
G01 X55.0328 Y16.4347
G01 X54.9948 Y16.4310
G01 X54.8977 Y16.4166
G01 X54.8601 Y16.4091
G01 X54.7650 Y16.3853
G01 X54.7283 Y16.3741
G01 X54.6359 Y16.3411
G01 X54.6006 Y16.3264
G01 X54.5119 Y16.2845
G01 X54.4781 Y16.2664
G01 X54.3939 Y16.2160
G01 X54.3621 Y16.1947
G01 X54.2833 Y16.1363
G01 X54.2537 Y16.1120
G01 X54.1810 Y16.0461
G01 X54.1539 Y16.0190
G01 X54.0880 Y15.9463
G01 X54.0637 Y15.9167
G01 X54.0053 Y15.8379
G01 X53.9840 Y15.8061
G01 X53.9336 Y15.7219
G01 X53.9155 Y15.6881
G01 X53.8736 Y15.5994
G01 X53.8589 Y15.5641
G01 X53.8259 Y15.4717
G01 X53.8147 Y15.4350
G01 X53.7909 Y15.3399
G01 X53.7834 Y15.3023
G01 X53.7690 Y15.2052
G01 X53.7653 Y15.1672
G01 X53.7605 Y15.0691
G01 X53.7605 Y15.0309
G01 X53.7653 Y14.9328
G01 X53.7661 Y14.9251
G01 X53.5312 Y14.6903
G01 X46.7688 Y14.6903
G01 X45.7903 Y15.6688
G01 X45.7903 Y23.8858
G01 X45.7898 Y23.9049
G01 X45.7874 Y23.9540
G01 X45.7836 Y23.9920
G01 X45.7764 Y24.0406
G01 X45.7690 Y24.0781
G01 X45.7570 Y24.1258
G01 X45.7459 Y24.1624
G01 X45.7294 Y24.2086
G01 X45.7147 Y24.2440
G01 X45.6937 Y24.2883
G01 X45.6757 Y24.3221
G01 X45.6505 Y24.3642
G01 X45.6292 Y24.3960
G01 X45.5999 Y24.4355
G01 X45.5757 Y24.4651
G01 X45.5427 Y24.5014
G01 X45.5295 Y24.5153
G01 X45.3018 Y24.7430
G01 X45.3690 Y24.8039
G01 X45.3961 Y24.8310
G01 X45.4620 Y24.9037
G01 X45.4863 Y24.9333
G01 X45.5447 Y25.0121
G01 X45.5660 Y25.0439
G01 X45.6164 Y25.1281
G01 X45.6345 Y25.1619
G01 X45.6764 Y25.2506
G01 X45.6911 Y25.2859
G01 X45.7241 Y25.3783
G01 X45.7353 Y25.4150
G01 X45.7591 Y25.5101
G01 X45.7666 Y25.5477
G01 X45.7810 Y25.6448
G01 X45.7847 Y25.6828
G01 X45.7895 Y25.7809
G01 X45.7895 Y25.8191
G01 X45.7847 Y25.9172
G01 X45.7810 Y25.9552
G01 X45.7666 Y26.0523
G01 X45.7591 Y26.0899
G01 X45.7353 Y26.1850
G01 X45.7241 Y26.2217
G01 X45.6911 Y26.3141
G01 X45.6764 Y26.3494
G01 X45.6345 Y26.4381
G01 X45.6164 Y26.4719
G01 X45.5660 Y26.5561
G01 X45.5447 Y26.5879
G01 X45.4863 Y26.6667
G01 X45.4620 Y26.6963
G01 X45.3961 Y26.7690
G01 X45.3690 Y26.7961
G01 X45.2963 Y26.8620
G01 X45.2667 Y26.8863
G01 X45.1879 Y26.9447
G01 X45.1561 Y26.9660
G01 X45.0719 Y27.0164
G01 X45.0381 Y27.0345
G01 X44.9494 Y27.0764
G01 X44.9141 Y27.0911
G01 X44.8217 Y27.1241
G01 X44.7850 Y27.1353
G01 X44.6899 Y27.1591
G01 X44.6523 Y27.1666
G01 X44.5552 Y27.1810
G01 X44.5172 Y27.1847
G01 X44.4191 Y27.1895
G01 X44.3809 Y27.1895
G01 X44.2828 Y27.1847
G01 X44.2448 Y27.1810
G01 X44.1477 Y27.1666
G01 X44.1101 Y27.1591
G01 X44.0150 Y27.1353
G01 X43.9783 Y27.1241
G01 X43.8859 Y27.0911
G01 X43.8506 Y27.0764
G01 X43.7619 Y27.0345
G01 X43.7281 Y27.0164
G01 X43.6439 Y26.9660
G01 X43.6121 Y26.9447
G01 X43.5333 Y26.8863
G01 X43.5037 Y26.8620
G01 X43.4310 Y26.7961
G01 X43.4039 Y26.7690
G01 X43.3380 Y26.6963
G01 X43.3137 Y26.6667
G01 X43.2553 Y26.5879
G01 X43.2340 Y26.5561
G01 X43.1836 Y26.4719
G01 X43.1655 Y26.4381
G01 X43.1236 Y26.3494
G01 X43.1089 Y26.3141
G01 X43.0759 Y26.2217
G01 X43.0647 Y26.1850
G01 X43.0409 Y26.0899
G01 X43.0334 Y26.0523
G01 X43.0190 Y25.9552
G01 X43.0153 Y25.9172
G01 X43.0105 Y25.8191
G01 X43.0105 Y25.7809
G01 X43.0153 Y25.6828
G01 X43.0190 Y25.6448
G01 X43.0334 Y25.5477
G01 X43.0409 Y25.5101
G01 X43.0647 Y25.4150
G01 X43.0759 Y25.3783
G01 X43.1089 Y25.2859
G01 X43.1236 Y25.2506
G01 X43.1655 Y25.1619
G01 X43.1836 Y25.1281
G01 X43.2340 Y25.0439
G01 X43.2553 Y25.0121
G01 X43.3137 Y24.9333
G01 X43.3380 Y24.9037
G01 X43.4039 Y24.8310
G01 X43.4310 Y24.8039
G01 X43.5037 Y24.7380
G01 X43.5097 Y24.7331
G00 Z2.0000
G00 X49.1200 Y16.5300
G01 F60.00
G01 Z-0.1500
G01 F120.00
G01 X49.1582 Y16.5319
G01 X49.1961 Y16.5375
G01 X49.2332 Y16.5468
G01 X49.2692 Y16.5597
G01 X49.3038 Y16.5761
G01 X49.3367 Y16.5957
G01 X49.3674 Y16.6185
G01 X49.3958 Y16.6442
G01 X49.4215 Y16.6726
G01 X49.4443 Y16.7033
G01 X49.4639 Y16.7362
G01 X49.4803 Y16.7708
G01 X49.4932 Y16.8068
G01 X49.5025 Y16.8439
G01 X49.5081 Y16.8818
G01 X49.5100 Y16.9200
G01 X49.5100 Y17.2073
G01 X49.5221 Y17.1780
G01 X49.5578 Y17.1026
G01 X49.5759 Y17.0688
G01 X49.6187 Y16.9973
G01 X49.6400 Y16.9654
G01 X49.6897 Y16.8984
G01 X49.7140 Y16.8689
G01 X49.7700 Y16.8071
G01 X49.7971 Y16.7800
G01 X49.8589 Y16.7240
G01 X49.8884 Y16.6997
G01 X49.9554 Y16.6500
G01 X49.9873 Y16.6287
G01 X50.0588 Y16.5859
G01 X50.0926 Y16.5678
G01 X50.1680 Y16.5321
G01 X50.2033 Y16.5175
G01 X50.2819 Y16.4894
G01 X50.3185 Y16.4783
G01 X50.3994 Y16.4580
G01 X50.4369 Y16.4506
G01 X50.5195 Y16.4383
G01 X50.5575 Y16.4346
G01 X50.6409 Y16.4305
G01 X50.6791 Y16.4305
G01 X50.7625 Y16.4346
G01 X50.8005 Y16.4383
G01 X50.8831 Y16.4506
G01 X50.9206 Y16.4580
G01 X51.0015 Y16.4783
G01 X51.0381 Y16.4894
G01 X51.1167 Y16.5175
G01 X51.1520 Y16.5321
G01 X51.2274 Y16.5678
G01 X51.2612 Y16.5859
G01 X51.3327 Y16.6287
G01 X51.3646 Y16.6500
G01 X51.4316 Y16.6997
G01 X51.4611 Y16.7240
G01 X51.5229 Y16.7800
G01 X51.5500 Y16.8071
G01 X51.6060 Y16.8689
G01 X51.6303 Y16.8984
G01 X51.6800 Y16.9654
G01 X51.7013 Y16.9973
G01 X51.7441 Y17.0688
G01 X51.7622 Y17.1026
G01 X51.7979 Y17.1780
G01 X51.8125 Y17.2133
G01 X51.8406 Y17.2919
G01 X51.8517 Y17.3285
G01 X51.8720 Y17.4094
G01 X51.8794 Y17.4469
G01 X51.8917 Y17.5295
G01 X51.8954 Y17.5675
G01 X51.8995 Y17.6509
G01 X51.9000 Y17.6700
G01 X51.9000 Y18.1700
G01 X51.8995 Y18.1891
G01 X51.8954 Y18.2725
G01 X51.8917 Y18.3105
G01 X51.8794 Y18.3931
G01 X51.8720 Y18.4306
G01 X51.8517 Y18.5115
G01 X51.8406 Y18.5481
G01 X51.8125 Y18.6267
G01 X51.7979 Y18.6620
G01 X51.7622 Y18.7374
G01 X51.7441 Y18.7712
G01 X51.7013 Y18.8427
G01 X51.6800 Y18.8746
G01 X51.6303 Y18.9416
G01 X51.6060 Y18.9711
G01 X51.5500 Y19.0329
G01 X51.5229 Y19.0600
G01 X51.4611 Y19.1160
G01 X51.4316 Y19.1403
G01 X51.3646 Y19.1900
G01 X51.3327 Y19.2113
G01 X51.2612 Y19.2541
G01 X51.2274 Y19.2722
G01 X51.1520 Y19.3079
G01 X51.1167 Y19.3225
G01 X51.0381 Y19.3506
G01 X51.0015 Y19.3617
G01 X50.9206 Y19.3820
G01 X50.8831 Y19.3894
G01 X50.8005 Y19.4017
G01 X50.7625 Y19.4054
G01 X50.6791 Y19.4095
G01 X50.6409 Y19.4095
G01 X50.5575 Y19.4054
G01 X50.5195 Y19.4017
G01 X50.4369 Y19.3894
G01 X50.3994 Y19.3820
G01 X50.3185 Y19.3617
G01 X50.2819 Y19.3506
G01 X50.2033 Y19.3225
G01 X50.1680 Y19.3079
G01 X50.0926 Y19.2722
G01 X50.0588 Y19.2541
G01 X49.9873 Y19.2113
G01 X49.9554 Y19.1900
G01 X49.8884 Y19.1403
G01 X49.8589 Y19.1160
G01 X49.7971 Y19.0600
G01 X49.7700 Y19.0329
G01 X49.7140 Y18.9711
G01 X49.6897 Y18.9416
G01 X49.6400 Y18.8746
G01 X49.6187 Y18.8427
G01 X49.5759 Y18.7712
G01 X49.5578 Y18.7374
G01 X49.5221 Y18.6620
G01 X49.5100 Y18.6327
G01 X49.5100 Y18.9200
G01 X49.5081 Y18.9582
G01 X49.5025 Y18.9961
G01 X49.4932 Y19.0332
G01 X49.4803 Y19.0692
G01 X49.4639 Y19.1038
G01 X49.4443 Y19.1367
G01 X49.4215 Y19.1674
G01 X49.3958 Y19.1958
G01 X49.3674 Y19.2215
G01 X49.3367 Y19.2443
G01 X49.3038 Y19.2639
G01 X49.2692 Y19.2803
G01 X49.2332 Y19.2932
G01 X49.1961 Y19.3025
G01 X49.1582 Y19.3081
G01 X49.1200 Y19.3100
G01 X47.1200 Y19.3100
G01 X47.0818 Y19.3081
G01 X47.0439 Y19.3025
G01 X47.0068 Y19.2932
G01 X46.9708 Y19.2803
G01 X46.9362 Y19.2639
G01 X46.9033 Y19.2443
G01 X46.8726 Y19.2215
G01 X46.8442 Y19.1958
G01 X46.8185 Y19.1674
G01 X46.7957 Y19.1367
G01 X46.7761 Y19.1038
G01 X46.7597 Y19.0692
G01 X46.7468 Y19.0332
G01 X46.7375 Y18.9961
G01 X46.7319 Y18.9582
G01 X46.7300 Y18.9200
G01 X46.7300 Y16.9200
G01 X46.7319 Y16.8818
G01 X46.7375 Y16.8439
G01 X46.7468 Y16.8068
G01 X46.7597 Y16.7708
G01 X46.7761 Y16.7362
G01 X46.7957 Y16.7033
G01 X46.8185 Y16.6726
G01 X46.8442 Y16.6442
G01 X46.8726 Y16.6185
G01 X46.9033 Y16.5957
G01 X46.9362 Y16.5761
G01 X46.9708 Y16.5597
G01 X47.0068 Y16.5468
G01 X47.0439 Y16.5375
G01 X47.0818 Y16.5319
G01 X47.1200 Y16.5300
G01 X49.1200 Y16.5300
G00 Z2.0000
G00 X54.4317 Y17.5295
G01 F60.00
G01 Z-0.1500
G01 F120.00
G01 X54.4354 Y17.5675
G01 X54.4395 Y17.6509
G01 X54.4400 Y17.6700
G01 X54.4400 Y18.1700
G01 X54.4395 Y18.1891
G01 X54.4354 Y18.2725
G01 X54.4317 Y18.3105
G01 X54.4194 Y18.3931
G01 X54.4120 Y18.4306
G01 X54.3917 Y18.5115
G01 X54.3806 Y18.5481
G01 X54.3525 Y18.6267
G01 X54.3379 Y18.6620
G01 X54.3022 Y18.7374
G01 X54.2841 Y18.7712
G01 X54.2413 Y18.8427
G01 X54.2200 Y18.8746
G01 X54.1703 Y18.9416
G01 X54.1460 Y18.9711
G01 X54.0900 Y19.0329
G01 X54.0629 Y19.0600
G01 X54.0011 Y19.1160
G01 X53.9716 Y19.1403
G01 X53.9046 Y19.1900
G01 X53.8727 Y19.2113
G01 X53.8012 Y19.2541
G01 X53.7674 Y19.2722
G01 X53.6920 Y19.3079
G01 X53.6567 Y19.3225
G01 X53.5781 Y19.3506
G01 X53.5415 Y19.3617
G01 X53.4606 Y19.3820
G01 X53.4231 Y19.3894
G01 X53.3405 Y19.4017
G01 X53.3025 Y19.4054
G01 X53.2191 Y19.4095
G01 X53.1809 Y19.4095
G01 X53.0975 Y19.4054
G01 X53.0595 Y19.4017
G01 X52.9769 Y19.3894
G01 X52.9394 Y19.3820
G01 X52.8585 Y19.3617
G01 X52.8219 Y19.3506
G01 X52.7433 Y19.3225
G01 X52.7080 Y19.3079
G01 X52.6326 Y19.2722
G01 X52.5988 Y19.2541
G01 X52.5273 Y19.2113
G01 X52.4954 Y19.1900
G01 X52.4284 Y19.1403
G01 X52.3989 Y19.1160
G01 X52.3371 Y19.0600
G01 X52.3100 Y19.0329
G01 X52.2540 Y18.9711
G01 X52.2297 Y18.9416
G01 X52.1800 Y18.8746
G01 X52.1587 Y18.8427
G01 X52.1159 Y18.7712
G01 X52.0978 Y18.7374
G01 X52.0621 Y18.6620
G01 X52.0475 Y18.6267
G01 X52.0194 Y18.5481
G01 X52.0083 Y18.5115
G01 X51.9880 Y18.4306
G01 X51.9806 Y18.3931
G01 X51.9683 Y18.3105
G01 X51.9646 Y18.2725
G01 X51.9605 Y18.1891
G01 X51.9600 Y18.1700
G01 X51.9600 Y17.6700
G01 X51.9605 Y17.6509
G01 X51.9646 Y17.5675
G01 X51.9683 Y17.5295
G01 X51.9806 Y17.4469
G01 X51.9880 Y17.4094
G01 X52.0083 Y17.3285
G01 X52.0194 Y17.2919
G01 X52.0475 Y17.2133
G01 X52.0621 Y17.1780
G01 X52.0978 Y17.1026
G01 X52.1159 Y17.0688
G01 X52.1587 Y16.9973
G01 X52.1800 Y16.9654
G01 X52.2297 Y16.8984
G01 X52.2540 Y16.8689
G01 X52.3100 Y16.8071
G01 X52.3371 Y16.7800
G01 X52.3989 Y16.7240
G01 X52.4284 Y16.6997
G01 X52.4954 Y16.6500
G01 X52.5273 Y16.6287
G01 X52.5988 Y16.5859
G01 X52.6326 Y16.5678
G01 X52.7080 Y16.5321
G01 X52.7433 Y16.5175
G01 X52.8219 Y16.4894
G01 X52.8585 Y16.4783
G01 X52.9394 Y16.4580
G01 X52.9769 Y16.4506
G01 X53.0595 Y16.4383
G01 X53.0975 Y16.4346
G01 X53.1809 Y16.4305
G01 X53.2191 Y16.4305
G01 X53.3025 Y16.4346
G01 X53.3405 Y16.4383
G01 X53.4231 Y16.4506
G01 X53.4606 Y16.4580
G01 X53.5415 Y16.4783
G01 X53.5781 Y16.4894
G01 X53.6567 Y16.5175
G01 X53.6920 Y16.5321
G01 X53.7674 Y16.5678
G01 X53.8012 Y16.5859
G01 X53.8727 Y16.6287
G01 X53.9046 Y16.6500
G01 X53.9716 Y16.6997
G01 X54.0011 Y16.7240
G01 X54.0629 Y16.7800
G01 X54.0900 Y16.8071
G01 X54.1460 Y16.8689
G01 X54.1703 Y16.8984
G01 X54.2200 Y16.9654
G01 X54.2413 Y16.9973
G01 X54.2841 Y17.0688
G01 X54.3022 Y17.1026
G01 X54.3379 Y17.1780
G01 X54.3525 Y17.2133
G01 X54.3806 Y17.2919
G01 X54.3917 Y17.3285
G01 X54.4120 Y17.4094
G01 X54.4194 Y17.4469
G01 X54.4317 Y17.5295
G00 Z2.0000
G00 X56.5493 Y24.4097
G01 F60.00
G01 Z-0.1500
G01 F120.00
G01 X59.7688 Y21.1903
G01 X60.2507 Y21.1903
G01 X57.0312 Y24.4097
G01 X56.5493 Y24.4097
G00 Z2.0000
G00 X61.1753 Y22.7837
G01 F60.00
G01 Z-0.1500
G01 F120.00
G01 X61.1708 Y22.7898
G01 X61.1495 Y22.8216
G01 X61.1243 Y22.8637
G01 X61.1063 Y22.8974
G01 X61.0853 Y22.9418
G01 X61.0706 Y22.9772
G01 X61.0541 Y23.0234
G01 X61.0430 Y23.0600
G01 X61.0310 Y23.1076
G01 X61.0236 Y23.1452
G01 X61.0164 Y23.1937
G01 X61.0126 Y23.2318
G01 X61.0102 Y23.2809
G01 X61.0097 Y23.3000
G01 X61.0097 Y23.4312
G01 X59.7705 Y24.6705
G01 X59.7573 Y24.6844
G01 X59.7243 Y24.7207
G01 X59.7001 Y24.7503
G01 X59.6708 Y24.7898
G01 X59.6495 Y24.8216
G01 X59.6243 Y24.8637
G01 X59.6063 Y24.8974
G01 X59.5853 Y24.9418
G01 X59.5706 Y24.9772
G01 X59.5541 Y25.0234
G01 X59.5430 Y25.0600
G01 X59.5310 Y25.1076
G01 X59.5236 Y25.1452
G01 X59.5164 Y25.1937
G01 X59.5126 Y25.2318
G01 X59.5102 Y25.2809
G01 X59.5097 Y25.3000
G01 X59.5097 Y31.3000
G01 X59.5102 Y31.3191
G01 X59.5126 Y31.3682
G01 X59.5164 Y31.4063
G01 X59.5236 Y31.4548
G01 X59.5310 Y31.4924
G01 X59.5430 Y31.5400
G01 X59.5541 Y31.5766
G01 X59.5706 Y31.6228
G01 X59.5853 Y31.6582
G01 X59.6063 Y31.7026
G01 X59.6243 Y31.7363
G01 X59.6495 Y31.7784
G01 X59.6708 Y31.8102
G01 X59.7001 Y31.8497
G01 X59.7243 Y31.8793
G01 X59.7573 Y31.9156
G01 X59.7705 Y31.9295
G01 X63.2705 Y35.4295
G01 X63.2844 Y35.4427
G01 X63.3207 Y35.4757
G01 X63.3503 Y35.4999
G01 X63.3898 Y35.5292
G01 X63.4216 Y35.5505
G01 X63.4637 Y35.5757
G01 X63.4974 Y35.5937
G01 X63.5418 Y35.6147
G01 X63.5772 Y35.6294
G01 X63.6234 Y35.6459
G01 X63.6600 Y35.6570
G01 X63.7076 Y35.6690
G01 X63.7452 Y35.6764
G01 X63.7937 Y35.6836
G01 X63.8318 Y35.6874
G01 X63.8809 Y35.6898
G01 X63.9000 Y35.6903
G01 X81.4000 Y35.6903
G01 X81.4191 Y35.6898
G01 X81.4682 Y35.6874
G01 X81.5063 Y35.6836
G01 X81.5548 Y35.6764
G01 X81.5924 Y35.6690
G01 X81.6400 Y35.6570
G01 X81.6766 Y35.6459
G01 X81.7280 Y35.6272
G01 X81.4455 Y35.9097
G01 X70.9000 Y35.9097
G01 X70.8809 Y35.9102
G01 X70.8318 Y35.9126
G01 X70.7937 Y35.9164
G01 X70.7452 Y35.9236
G01 X70.7076 Y35.9310
G01 X70.6600 Y35.9430
G01 X70.6234 Y35.9541
G01 X70.5772 Y35.9706
G01 X70.5418 Y35.9853
G01 X70.4974 Y36.0063
G01 X70.4637 Y36.0243
G01 X70.4216 Y36.0495
G01 X70.3898 Y36.0708
G01 X70.3503 Y36.1001
G01 X70.3207 Y36.1243
G01 X70.2844 Y36.1573
G01 X70.2573 Y36.1844
G01 X70.2243 Y36.2207
G01 X70.2001 Y36.2503
G01 X70.1708 Y36.2898
G01 X70.1495 Y36.3216
G01 X70.1243 Y36.3637
G01 X70.1063 Y36.3974
G01 X70.0853 Y36.4418
G01 X70.0706 Y36.4772
G01 X70.0541 Y36.5234
G01 X70.0430 Y36.5600
G01 X70.0310 Y36.6076
G01 X70.0236 Y36.6452
G01 X70.0164 Y36.6937
G01 X70.0126 Y36.7318
G01 X70.0102 Y36.7809
G01 X70.0097 Y36.8000
G01 X70.0097 Y47.2634
G01 X69.9853 Y47.1650
G01 X69.9741 Y47.1283
G01 X69.9411 Y47.0359
G01 X69.9264 Y47.0006
G01 X69.8845 Y46.9119
G01 X69.8664 Y46.8781
G01 X69.8160 Y46.7939
G01 X69.7947 Y46.7621
G01 X69.7903 Y46.7561
G01 X69.7903 Y36.8000
G01 X69.7898 Y36.7809
G01 X69.7874 Y36.7318
G01 X69.7836 Y36.6937
G01 X69.7764 Y36.6452
G01 X69.7690 Y36.6076
G01 X69.7570 Y36.5600
G01 X69.7459 Y36.5234
G01 X69.7294 Y36.4772
G01 X69.7147 Y36.4418
G01 X69.6937 Y36.3974
G01 X69.6757 Y36.3637
G01 X69.6505 Y36.3216
G01 X69.6292 Y36.2898
G01 X69.5999 Y36.2503
G01 X69.5757 Y36.2207
G01 X69.5427 Y36.1844
G01 X69.5156 Y36.1573
G01 X69.4793 Y36.1243
G01 X69.4497 Y36.1001
G01 X69.4102 Y36.0708
G01 X69.3784 Y36.0495
G01 X69.3363 Y36.0243
G01 X69.3026 Y36.0063
G01 X69.2582 Y35.9853
G01 X69.2228 Y35.9706
G01 X69.1766 Y35.9541
G01 X69.1400 Y35.9430
G01 X69.0924 Y35.9310
G01 X69.0548 Y35.9236
G01 X69.0063 Y35.9164
G01 X68.9682 Y35.9126
G01 X68.9191 Y35.9102
G01 X68.9000 Y35.9097
G01 X63.2688 Y35.9097
G01 X59.2903 Y31.9312
G01 X59.2903 Y27.8000
G01 X59.2898 Y27.7809
G01 X59.2874 Y27.7318
G01 X59.2836 Y27.6937
G01 X59.2764 Y27.6452
G01 X59.2690 Y27.6076
G01 X59.2570 Y27.5600
G01 X59.2459 Y27.5234
G01 X59.2294 Y27.4772
G01 X59.2147 Y27.4418
G01 X59.1937 Y27.3974
G01 X59.1757 Y27.3637
G01 X59.1505 Y27.3216
G01 X59.1292 Y27.2898
G01 X59.0999 Y27.2503
G01 X59.0757 Y27.2207
G01 X59.0427 Y27.1844
G01 X59.0156 Y27.1573
G01 X58.9793 Y27.1243
G01 X58.9497 Y27.1001
G01 X58.9102 Y27.0708
G01 X58.8784 Y27.0495
G01 X58.8363 Y27.0243
G01 X58.8026 Y27.0063
G01 X58.7582 Y26.9853
G01 X58.7228 Y26.9706
G01 X58.6766 Y26.9541
G01 X58.6400 Y26.9430
G01 X58.5924 Y26.9310
G01 X58.5548 Y26.9236
G01 X58.5063 Y26.9164
G01 X58.4682 Y26.9126
G01 X58.4191 Y26.9102
G01 X58.4000 Y26.9097
G01 X55.9669 Y26.9097
G01 X55.9620 Y26.9037
G01 X55.8961 Y26.8310
G01 X55.8690 Y26.8039
G01 X55.7963 Y26.7380
G01 X55.7667 Y26.7137
G01 X55.6879 Y26.6553
G01 X55.6561 Y26.6340
G01 X55.5719 Y26.5836
G01 X55.5381 Y26.5655
G01 X55.4494 Y26.5236
G01 X55.4141 Y26.5089
G01 X55.3217 Y26.4759
G01 X55.2850 Y26.4647
G01 X55.1899 Y26.4409
G01 X55.1523 Y26.4334
G01 X55.0552 Y26.4190
G01 X55.0172 Y26.4153
G01 X54.9191 Y26.4105
G01 X54.8809 Y26.4105
G01 X54.7828 Y26.4153
G01 X54.7448 Y26.4190
G01 X54.6477 Y26.4334
G01 X54.6101 Y26.4409
G01 X54.5150 Y26.4647
G01 X54.4783 Y26.4759
G01 X54.3859 Y26.5089
G01 X54.3506 Y26.5236
G01 X54.2619 Y26.5655
G01 X54.2281 Y26.5836
G01 X54.1439 Y26.6340
G01 X54.1121 Y26.6553
G01 X54.0333 Y26.7137
G01 X54.0037 Y26.7380
G01 X53.9310 Y26.8039
G01 X53.9039 Y26.8310
G01 X53.8380 Y26.9037
G01 X53.8137 Y26.9333
G01 X53.7553 Y27.0121
G01 X53.7340 Y27.0439
G01 X53.6836 Y27.1281
G01 X53.6655 Y27.1619
G01 X53.6236 Y27.2506
G01 X53.6089 Y27.2859
G01 X53.5759 Y27.3783
G01 X53.5647 Y27.4150
G01 X53.5409 Y27.5101
G01 X53.5334 Y27.5477
G01 X53.5190 Y27.6448
G01 X53.5153 Y27.6828
G01 X53.5105 Y27.7809
G01 X53.5105 Y27.8191
G01 X53.5153 Y27.9172
G01 X53.5190 Y27.9552
G01 X53.5334 Y28.0523
G01 X53.5409 Y28.0899
G01 X53.5647 Y28.1850
G01 X53.5759 Y28.2217
G01 X53.6089 Y28.3141
G01 X53.6236 Y28.3494
G01 X53.6655 Y28.4381
G01 X53.6836 Y28.4719
G01 X53.7340 Y28.5561
G01 X53.7553 Y28.5879
G01 X53.8137 Y28.6667
G01 X53.8380 Y28.6963
G01 X53.9039 Y28.7690
G01 X53.9310 Y28.7961
G01 X54.0037 Y28.8620
G01 X54.0333 Y28.8863
G01 X54.1121 Y28.9447
G01 X54.1439 Y28.9660
G01 X54.2281 Y29.0164
G01 X54.2619 Y29.0345
G01 X54.3506 Y29.0764
G01 X54.3859 Y29.0911
G01 X54.4783 Y29.1241
G01 X54.5150 Y29.1353
G01 X54.6101 Y29.1591
G01 X54.6477 Y29.1666
G01 X54.7448 Y29.1810
G01 X54.7828 Y29.1847
G01 X54.8809 Y29.1895
G01 X54.9191 Y29.1895
G01 X55.0172 Y29.1847
G01 X55.0552 Y29.1810
G01 X55.1523 Y29.1666
G01 X55.1899 Y29.1591
G01 X55.2850 Y29.1353
G01 X55.3217 Y29.1241
G01 X55.4141 Y29.0911
G01 X55.4494 Y29.0764
G01 X55.5381 Y29.0345
G01 X55.5719 Y29.0164
G01 X55.6561 Y28.9660
G01 X55.6879 Y28.9447
G01 X55.7667 Y28.8863
G01 X55.7963 Y28.8620
G01 X55.8690 Y28.7961
G01 X55.8961 Y28.7690
G01 X55.9620 Y28.6963
G01 X55.9669 Y28.6903
G01 X57.5097 Y28.6903
G01 X57.5097 Y32.3000
G01 X57.5102 Y32.3191
G01 X57.5126 Y32.3682
G01 X57.5164 Y32.4063
G01 X57.5236 Y32.4548
G01 X57.5310 Y32.4924
G01 X57.5430 Y32.5400
G01 X57.5541 Y32.5766
G01 X57.5706 Y32.6228
G01 X57.5853 Y32.6582
G01 X57.6063 Y32.7026
G01 X57.6243 Y32.7363
G01 X57.6495 Y32.7784
G01 X57.6708 Y32.8102
G01 X57.7001 Y32.8497
G01 X57.7243 Y32.8793
G01 X57.7573 Y32.9156
G01 X57.7705 Y32.9295
G01 X62.2705 Y37.4295
G01 X62.2844 Y37.4427
G01 X62.3207 Y37.4757
G01 X62.3503 Y37.4999
G01 X62.3898 Y37.5292
G01 X62.4216 Y37.5505
G01 X62.4637 Y37.5757
G01 X62.4974 Y37.5937
G01 X62.5418 Y37.6147
G01 X62.5772 Y37.6294
G01 X62.6234 Y37.6459
G01 X62.6600 Y37.6570
G01 X62.7076 Y37.6690
G01 X62.7452 Y37.6764
G01 X62.7937 Y37.6836
G01 X62.8318 Y37.6874
G01 X62.8809 Y37.6898
G01 X62.9000 Y37.6903
G01 X68.0097 Y37.6903
G01 X68.0097 Y46.3166
G01 X67.9781 Y46.3336
G01 X67.8939 Y46.3840
G01 X67.8621 Y46.4053
G01 X67.7833 Y46.4637
G01 X67.7537 Y46.4880
G01 X67.6810 Y46.5539
G01 X67.6539 Y46.5810
G01 X67.5880 Y46.6537
G01 X67.5637 Y46.6833
G01 X67.5053 Y46.7621
G01 X67.4840 Y46.7939
G01 X67.4336 Y46.8781
G01 X67.4166 Y46.9097
G01 X57.7903 Y46.9097
G01 X57.7903 Y46.8000
G01 X57.7898 Y46.7809
G01 X57.7874 Y46.7318
G01 X57.7836 Y46.6937
G01 X57.7764 Y46.6452
G01 X57.7690 Y46.6076
G01 X57.7570 Y46.5600
G01 X57.7459 Y46.5234
G01 X57.7294 Y46.4772
G01 X57.7147 Y46.4418
G01 X57.6937 Y46.3974
G01 X57.6757 Y46.3637
G01 X57.6505 Y46.3216
G01 X57.6292 Y46.2898
G01 X57.5999 Y46.2503
G01 X57.5757 Y46.2207
G01 X57.5427 Y46.1844
G01 X57.5295 Y46.1705
G01 X54.5295 Y43.1705
G01 X54.5156 Y43.1573
G01 X54.4793 Y43.1243
G01 X54.4497 Y43.1001
G01 X54.4102 Y43.0708
G01 X54.3784 Y43.0495
G01 X54.3363 Y43.0243
G01 X54.3026 Y43.0063
G01 X54.2582 Y42.9853
G01 X54.2228 Y42.9706
G01 X54.1766 Y42.9541
G01 X54.1400 Y42.9430
G01 X54.0924 Y42.9310
G01 X54.0548 Y42.9236
G01 X54.0063 Y42.9164
G01 X53.9682 Y42.9126
G01 X53.9191 Y42.9102
G01 X53.9000 Y42.9097
G01 X53.2900 Y42.9097
G01 X53.2900 Y42.8000
G01 X53.2881 Y42.7618
G01 X53.2825 Y42.7239
G01 X53.2732 Y42.6868
G01 X53.2603 Y42.6508
G01 X53.2439 Y42.6162
G01 X53.2243 Y42.5833
G01 X53.2015 Y42.5526
G01 X53.1758 Y42.5242
G01 X53.1474 Y42.4985
G01 X53.1167 Y42.4757
G01 X53.0838 Y42.4561
G01 X53.0492 Y42.4397
G01 X53.0132 Y42.4268
G01 X52.9761 Y42.4175
G01 X52.9382 Y42.4119
G01 X52.9000 Y42.4100
G01 X50.9000 Y42.4100
G01 X50.8618 Y42.4119
G01 X50.8239 Y42.4175
G01 X50.7868 Y42.4268
G01 X50.7508 Y42.4397
G01 X50.7162 Y42.4561
G01 X50.6833 Y42.4757
G01 X50.6526 Y42.4985
G01 X50.6242 Y42.5242
G01 X50.5985 Y42.5526
G01 X50.5757 Y42.5833
G01 X50.5561 Y42.6162
G01 X50.5397 Y42.6508
G01 X50.5268 Y42.6868
G01 X50.5175 Y42.7239
G01 X50.5119 Y42.7618
G01 X50.5100 Y42.8000
G01 X50.5100 Y43.1873
G01 X50.4979 Y43.1580
G01 X50.4622 Y43.0826
G01 X50.4441 Y43.0488
G01 X50.4013 Y42.9773
G01 X50.3800 Y42.9454
G01 X50.3303 Y42.8784
G01 X50.3060 Y42.8489
G01 X50.2503 Y42.7873
G01 X50.2503 Y40.8127
G01 X50.3060 Y40.7511
G01 X50.3303 Y40.7216
G01 X50.3800 Y40.6546
G01 X50.4013 Y40.6227
G01 X50.4441 Y40.5512
G01 X50.4622 Y40.5174
G01 X50.4979 Y40.4420
G01 X50.5100 Y40.4127
G01 X50.5100 Y40.8000
G01 X50.5119 Y40.8382
G01 X50.5175 Y40.8761
G01 X50.5268 Y40.9132
G01 X50.5397 Y40.9492
G01 X50.5561 Y40.9838
G01 X50.5757 Y41.0167
G01 X50.5985 Y41.0474
G01 X50.6242 Y41.0758
G01 X50.6526 Y41.1015
G01 X50.6833 Y41.1243
G01 X50.7162 Y41.1439
G01 X50.7508 Y41.1603
G01 X50.7868 Y41.1732
G01 X50.8239 Y41.1825
G01 X50.8618 Y41.1881
G01 X50.9000 Y41.1900
G01 X52.9000 Y41.1900
G01 X52.9382 Y41.1881
G01 X52.9761 Y41.1825
G01 X53.0132 Y41.1732
G01 X53.0492 Y41.1603
G01 X53.0838 Y41.1439
G01 X53.1167 Y41.1243
G01 X53.1474 Y41.1015
G01 X53.1758 Y41.0758
G01 X53.2015 Y41.0474
G01 X53.2243 Y41.0167
G01 X53.2439 Y40.9838
G01 X53.2603 Y40.9492
G01 X53.2732 Y40.9132
G01 X53.2825 Y40.8761
G01 X53.2881 Y40.8382
G01 X53.2900 Y40.8000
G01 X53.2900 Y40.6903
G01 X53.5097 Y40.6903
G01 X53.5097 Y41.3000
G01 X53.5102 Y41.3191
G01 X53.5126 Y41.3682
G01 X53.5164 Y41.4063
G01 X53.5236 Y41.4548
G01 X53.5310 Y41.4924
G01 X53.5430 Y41.5400
G01 X53.5541 Y41.5766
G01 X53.5706 Y41.6228
G01 X53.5853 Y41.6582
G01 X53.6063 Y41.7026
G01 X53.6243 Y41.7363
G01 X53.6495 Y41.7784
G01 X53.6708 Y41.8102
G01 X53.7001 Y41.8497
G01 X53.7243 Y41.8793
G01 X53.7573 Y41.9156
G01 X53.7705 Y41.9295
G01 X56.2705 Y44.4295
G01 X56.2844 Y44.4427
G01 X56.3207 Y44.4757
G01 X56.3503 Y44.4999
G01 X56.3898 Y44.5292
G01 X56.4216 Y44.5505
G01 X56.4637 Y44.5757
G01 X56.4974 Y44.5937
G01 X56.5418 Y44.6147
G01 X56.5772 Y44.6294
G01 X56.6234 Y44.6459
G01 X56.6600 Y44.6570
G01 X56.7076 Y44.6690
G01 X56.7452 Y44.6764
G01 X56.7937 Y44.6836
G01 X56.8318 Y44.6874
G01 X56.8809 Y44.6898
G01 X56.9000 Y44.6903
G01 X65.3331 Y44.6903
G01 X65.3380 Y44.6963
G01 X65.4039 Y44.7690
G01 X65.4310 Y44.7961
G01 X65.5037 Y44.8620
G01 X65.5333 Y44.8863
G01 X65.6121 Y44.9447
G01 X65.6439 Y44.9660
G01 X65.7281 Y45.0164
G01 X65.7619 Y45.0345
G01 X65.8506 Y45.0764
G01 X65.8859 Y45.0911
G01 X65.9783 Y45.1241
G01 X66.0150 Y45.1353
G01 X66.1101 Y45.1591
G01 X66.1477 Y45.1666
G01 X66.2448 Y45.1810
G01 X66.2828 Y45.1847
G01 X66.3809 Y45.1895
G01 X66.4191 Y45.1895
G01 X66.5172 Y45.1847
G01 X66.5552 Y45.1810
G01 X66.6523 Y45.1666
G01 X66.6899 Y45.1591
G01 X66.7850 Y45.1353
G01 X66.8217 Y45.1241
G01 X66.9141 Y45.0911
G01 X66.9494 Y45.0764
G01 X67.0381 Y45.0345
G01 X67.0719 Y45.0164
G01 X67.1561 Y44.9660
G01 X67.1879 Y44.9447
G01 X67.2667 Y44.8863
G01 X67.2963 Y44.8620
G01 X67.3690 Y44.7961
G01 X67.3961 Y44.7690
G01 X67.4620 Y44.6963
G01 X67.4863 Y44.6667
G01 X67.5447 Y44.5879
G01 X67.5660 Y44.5561
G01 X67.6164 Y44.4719
G01 X67.6345 Y44.4381
G01 X67.6764 Y44.3494
G01 X67.6911 Y44.3141
G01 X67.7241 Y44.2217
G01 X67.7353 Y44.1850
G01 X67.7591 Y44.0899
G01 X67.7666 Y44.0523
G01 X67.7810 Y43.9552
G01 X67.7847 Y43.9172
G01 X67.7895 Y43.8191
G01 X67.7895 Y43.7809
G01 X67.7847 Y43.6828
G01 X67.7810 Y43.6448
G01 X67.7666 Y43.5477
G01 X67.7591 Y43.5101
G01 X67.7353 Y43.4150
G01 X67.7241 Y43.3783
G01 X67.6911 Y43.2859
G01 X67.6764 Y43.2506
G01 X67.6345 Y43.1619
G01 X67.6164 Y43.1281
G01 X67.5660 Y43.0439
G01 X67.5447 Y43.0121
G01 X67.4863 Y42.9333
G01 X67.4620 Y42.9037
G01 X67.3961 Y42.8310
G01 X67.3690 Y42.8039
G01 X67.2963 Y42.7380
G01 X67.2667 Y42.7137
G01 X67.1879 Y42.6553
G01 X67.1561 Y42.6340
G01 X67.0719 Y42.5836
G01 X67.0381 Y42.5655
G01 X66.9494 Y42.5236
G01 X66.9141 Y42.5089
G01 X66.8217 Y42.4759
G01 X66.7850 Y42.4647
G01 X66.6899 Y42.4409
G01 X66.6523 Y42.4334
G01 X66.5552 Y42.4190
G01 X66.5172 Y42.4153
G01 X66.4191 Y42.4105
G01 X66.3809 Y42.4105
G01 X66.2828 Y42.4153
G01 X66.2448 Y42.4190
G01 X66.1477 Y42.4334
G01 X66.1101 Y42.4409
G01 X66.0150 Y42.4647
G01 X65.9783 Y42.4759
G01 X65.8859 Y42.5089
G01 X65.8506 Y42.5236
G01 X65.7619 Y42.5655
G01 X65.7281 Y42.5836
G01 X65.6439 Y42.6340
G01 X65.6121 Y42.6553
G01 X65.5333 Y42.7137
G01 X65.5037 Y42.7380
G01 X65.4310 Y42.8039
G01 X65.4039 Y42.8310
G01 X65.3380 Y42.9037
G01 X65.3331 Y42.9097
G01 X57.2688 Y42.9097
G01 X55.2903 Y40.9312
G01 X55.2903 Y40.6903
G01 X58.4000 Y40.6903
G01 X58.4191 Y40.6898
G01 X58.4682 Y40.6874
G01 X58.5063 Y40.6836
G01 X58.5548 Y40.6764
G01 X58.5924 Y40.6690
G01 X58.6400 Y40.6570
G01 X58.6766 Y40.6459
G01 X58.7228 Y40.6294
G01 X58.7582 Y40.6147
G01 X58.8026 Y40.5937
G01 X58.8363 Y40.5757
G01 X58.8784 Y40.5505
G01 X58.9102 Y40.5292
G01 X58.9497 Y40.4999
G01 X58.9793 Y40.4757
G01 X59.0156 Y40.4427
G01 X59.0295 Y40.4295
G01 X60.0295 Y39.4295
G01 X60.0427 Y39.4156
G01 X60.0757 Y39.3793
G01 X60.0999 Y39.3497
G01 X60.1292 Y39.3102
G01 X60.1505 Y39.2784
G01 X60.1757 Y39.2363
G01 X60.1937 Y39.2026
G01 X60.2147 Y39.1582
G01 X60.2294 Y39.1228
G01 X60.2459 Y39.0766
G01 X60.2570 Y39.0400
G01 X60.2690 Y38.9924
G01 X60.2764 Y38.9548
G01 X60.2836 Y38.9063
G01 X60.2874 Y38.8682
G01 X60.2898 Y38.8191
G01 X60.2903 Y38.8000
G01 X60.2903 Y36.3000
G01 X60.2898 Y36.2809
G01 X60.2874 Y36.2318
G01 X60.2836 Y36.1937
G01 X60.2764 Y36.1452
G01 X60.2690 Y36.1076
G01 X60.2570 Y36.0600
G01 X60.2459 Y36.0234
G01 X60.2294 Y35.9772
G01 X60.2147 Y35.9418
G01 X60.1937 Y35.8974
G01 X60.1757 Y35.8637
G01 X60.1505 Y35.8216
G01 X60.1292 Y35.7898
G01 X60.0999 Y35.7503
G01 X60.0757 Y35.7207
G01 X60.0427 Y35.6844
G01 X60.0295 Y35.6705
G01 X57.2903 Y32.9312
G01 X57.2903 Y32.3858
G01 X57.2898 Y32.3667
G01 X57.2874 Y32.3176
G01 X57.2836 Y32.2795
G01 X57.2764 Y32.2310
G01 X57.2690 Y32.1934
G01 X57.2570 Y32.1458
G01 X57.2459 Y32.1092
G01 X57.2294 Y32.0630
G01 X57.2147 Y32.0276
G01 X57.1937 Y31.9832
G01 X57.1757 Y31.9495
G01 X57.1505 Y31.9074
G01 X57.1292 Y31.8755
G01 X57.0999 Y31.8361
G01 X57.0757 Y31.8065
G01 X57.0427 Y31.7701
G01 X57.0295 Y31.7563
G01 X55.9437 Y30.6705
G01 X55.9299 Y30.6573
G01 X55.8935 Y30.6243
G01 X55.8639 Y30.6001
G01 X55.8245 Y30.5708
G01 X55.7926 Y30.5495
G01 X55.7505 Y30.5243
G01 X55.7168 Y30.5063
G01 X55.6724 Y30.4853
G01 X55.6370 Y30.4706
G01 X55.5908 Y30.4541
G01 X55.5542 Y30.4430
G01 X55.5066 Y30.4310
G01 X55.4690 Y30.4236
G01 X55.4205 Y30.4164
G01 X55.3824 Y30.4126
G01 X55.3333 Y30.4102
G01 X55.3142 Y30.4097
G01 X54.9669 Y30.4097
G01 X54.9620 Y30.4037
G01 X54.8961 Y30.3310
G01 X54.8690 Y30.3039
G01 X54.7963 Y30.2380
G01 X54.7667 Y30.2137
G01 X54.6879 Y30.1553
G01 X54.6561 Y30.1340
G01 X54.5719 Y30.0836
G01 X54.5381 Y30.0655
G01 X54.4494 Y30.0236
G01 X54.4141 Y30.0089
G01 X54.3217 Y29.9759
G01 X54.2850 Y29.9647
G01 X54.1899 Y29.9409
G01 X54.1523 Y29.9334
G01 X54.0552 Y29.9190
G01 X54.0172 Y29.9153
G01 X53.9191 Y29.9105
G01 X53.8809 Y29.9105
G01 X53.7828 Y29.9153
G01 X53.7448 Y29.9190
G01 X53.6477 Y29.9334
G01 X53.6101 Y29.9409
G01 X53.5150 Y29.9647
G01 X53.4783 Y29.9759
G01 X53.3859 Y30.0089
G01 X53.3506 Y30.0236
G01 X53.2619 Y30.0655
G01 X53.2281 Y30.0836
G01 X53.1439 Y30.1340
G01 X53.1121 Y30.1553
G01 X53.0333 Y30.2137
G01 X53.0037 Y30.2380
G01 X52.9310 Y30.3039
G01 X52.9039 Y30.3310
G01 X52.8380 Y30.4037
G01 X52.8137 Y30.4333
G01 X52.7903 Y30.4650
G01 X52.7903 Y26.1903
G01 X57.4000 Y26.1903
G01 X57.4191 Y26.1898
G01 X57.4682 Y26.1874
G01 X57.5063 Y26.1836
G01 X57.5548 Y26.1764
G01 X57.5924 Y26.1690
G01 X57.6400 Y26.1570
G01 X57.6766 Y26.1459
G01 X57.7228 Y26.1294
G01 X57.7582 Y26.1147
G01 X57.8026 Y26.0937
G01 X57.8363 Y26.0757
G01 X57.8784 Y26.0505
G01 X57.9102 Y26.0292
G01 X57.9497 Y25.9999
G01 X57.9793 Y25.9757
G01 X58.0156 Y25.9427
G01 X58.0295 Y25.9295
G01 X61.1753 Y22.7837
G00 Z2.0000
G00 X62.4237 Y24.5353
G01 F60.00
G01 Z-0.1500
G01 F120.00
G01 X62.5295 Y24.4295
G01 X62.5427 Y24.4156
G01 X62.5757 Y24.3793
G01 X62.5999 Y24.3497
G01 X62.6292 Y24.3102
G01 X62.6505 Y24.2784
G01 X62.6757 Y24.2363
G01 X62.6937 Y24.2026
G01 X62.6996 Y24.1903
G01 X63.9899 Y24.1903
G01 X63.9571 Y24.2200
G01 X63.9300 Y24.2471
G01 X63.8740 Y24.3089
G01 X63.8497 Y24.3384
G01 X63.8265 Y24.3697
G01 X62.9400 Y24.3697
G01 X62.9209 Y24.3702
G01 X62.8718 Y24.3726
G01 X62.8337 Y24.3764
G01 X62.7852 Y24.3836
G01 X62.7476 Y24.3910
G01 X62.7000 Y24.4030
G01 X62.6634 Y24.4141
G01 X62.6172 Y24.4306
G01 X62.5818 Y24.4453
G01 X62.5374 Y24.4663
G01 X62.5037 Y24.4843
G01 X62.4616 Y24.5095
G01 X62.4298 Y24.5308
G01 X62.4237 Y24.5353
G00 Z2.0000
G00 X65.6501 Y24.1903
G01 F60.00
G01 Z-0.1500
G01 F120.00
G01 X66.0312 Y24.1903
G01 X66.3036 Y24.4626
G01 X66.2759 Y24.5088
G01 X66.2578 Y24.5426
G01 X66.2221 Y24.6180
G01 X66.2075 Y24.6533
G01 X66.1794 Y24.7319
G01 X66.1683 Y24.7685
G01 X66.1480 Y24.8494
G01 X66.1406 Y24.8869
G01 X66.1283 Y24.9695
G01 X66.1246 Y25.0075
G01 X66.1205 Y25.0909
G01 X66.1200 Y25.1100
G01 X66.1200 Y25.4100
G01 X66.1205 Y25.4291
G01 X66.1246 Y25.5125
G01 X66.1283 Y25.5505
G01 X66.1406 Y25.6331
G01 X66.1480 Y25.6706
G01 X66.1683 Y25.7515
G01 X66.1794 Y25.7881
G01 X66.2075 Y25.8667
G01 X66.2221 Y25.9020
G01 X66.2578 Y25.9774
G01 X66.2759 Y26.0112
G01 X66.3187 Y26.0827
G01 X66.3400 Y26.1146
G01 X66.3897 Y26.1816
G01 X66.4140 Y26.2111
G01 X66.4700 Y26.2729
G01 X66.4971 Y26.3000
G01 X66.5589 Y26.3560
G01 X66.5884 Y26.3803
G01 X66.6554 Y26.4300
G01 X66.6873 Y26.4513
G01 X66.7588 Y26.4941
G01 X66.7926 Y26.5122
G01 X66.8302 Y26.5300
G01 X66.7926 Y26.5478
G01 X66.7588 Y26.5659
G01 X66.6873 Y26.6087
G01 X66.6554 Y26.6300
G01 X66.5884 Y26.6797
G01 X66.5589 Y26.7040
G01 X66.4971 Y26.7600
G01 X66.4700 Y26.7871
G01 X66.4140 Y26.8489
G01 X66.3897 Y26.8784
G01 X66.3400 Y26.9454
G01 X66.3187 Y26.9773
G01 X66.2759 Y27.0488
G01 X66.2578 Y27.0826
G01 X66.2221 Y27.1580
G01 X66.2075 Y27.1933
G01 X66.1794 Y27.2719
G01 X66.1683 Y27.3085
G01 X66.1480 Y27.3894
G01 X66.1406 Y27.4269
G01 X66.1283 Y27.5095
G01 X66.1246 Y27.5475
G01 X66.1205 Y27.6309
G01 X66.1200 Y27.6500
G01 X66.1200 Y27.9500
G01 X66.1205 Y27.9691
G01 X66.1246 Y28.0525
G01 X66.1283 Y28.0905
G01 X66.1406 Y28.1731
G01 X66.1480 Y28.2106
G01 X66.1683 Y28.2915
G01 X66.1794 Y28.3281
G01 X66.2075 Y28.4067
G01 X66.2221 Y28.4420
G01 X66.2578 Y28.5174
G01 X66.2759 Y28.5512
G01 X66.3187 Y28.6227
G01 X66.3400 Y28.6546
G01 X66.3897 Y28.7216
G01 X66.4140 Y28.7511
G01 X66.4697 Y28.8127
G01 X66.4697 Y30.7600
G01 X66.4702 Y30.7791
G01 X66.4726 Y30.8282
G01 X66.4764 Y30.8663
G01 X66.4836 Y30.9148
G01 X66.4910 Y30.9524
G01 X66.5030 Y31.0000
G01 X66.5141 Y31.0366
G01 X66.5306 Y31.0828
G01 X66.5453 Y31.1182
G01 X66.5663 Y31.1626
G01 X66.5843 Y31.1963
G01 X66.6095 Y31.2384
G01 X66.6308 Y31.2702
G01 X66.6601 Y31.3097
G01 X66.6843 Y31.3393
G01 X66.7173 Y31.3756
G01 X66.7305 Y31.3895
G01 X67.7507 Y32.4097
G01 X67.2688 Y32.4097
G01 X65.0295 Y30.1705
G01 X65.0156 Y30.1573
G01 X64.9793 Y30.1243
G01 X64.9497 Y30.1001
G01 X64.9102 Y30.0708
G01 X64.8784 Y30.0495
G01 X64.8363 Y30.0243
G01 X64.8026 Y30.0063
G01 X64.7582 Y29.9853
G01 X64.7228 Y29.9706
G01 X64.6766 Y29.9541
G01 X64.6400 Y29.9430
G01 X64.5924 Y29.9310
G01 X64.5548 Y29.9236
G01 X64.5063 Y29.9164
G01 X64.4682 Y29.9126
G01 X64.4191 Y29.9102
G01 X64.4000 Y29.9097
G01 X63.2903 Y29.9097
G01 X63.2903 Y26.1688
G01 X63.3088 Y26.1503
G01 X63.8265 Y26.1503
G01 X63.8497 Y26.1816
G01 X63.8740 Y26.2111
G01 X63.9300 Y26.2729
G01 X63.9571 Y26.3000
G01 X64.0189 Y26.3560
G01 X64.0484 Y26.3803
G01 X64.1154 Y26.4300
G01 X64.1473 Y26.4513
G01 X64.2188 Y26.4941
G01 X64.2526 Y26.5122
G01 X64.2902 Y26.5300
G01 X64.2526 Y26.5478
G01 X64.2188 Y26.5659
G01 X64.1473 Y26.6087
G01 X64.1154 Y26.6300
G01 X64.0484 Y26.6797
G01 X64.0189 Y26.7040
G01 X63.9571 Y26.7600
G01 X63.9300 Y26.7871
G01 X63.8740 Y26.8489
G01 X63.8497 Y26.8784
G01 X63.8000 Y26.9454
G01 X63.7787 Y26.9773
G01 X63.7359 Y27.0488
G01 X63.7178 Y27.0826
G01 X63.6821 Y27.1580
G01 X63.6675 Y27.1933
G01 X63.6394 Y27.2719
G01 X63.6283 Y27.3085
G01 X63.6080 Y27.3894
G01 X63.6006 Y27.4269
G01 X63.5883 Y27.5095
G01 X63.5846 Y27.5475
G01 X63.5805 Y27.6309
G01 X63.5800 Y27.6500
G01 X63.5800 Y27.9500
G01 X63.5805 Y27.9691
G01 X63.5846 Y28.0525
G01 X63.5883 Y28.0905
G01 X63.6006 Y28.1731
G01 X63.6080 Y28.2106
G01 X63.6283 Y28.2915
G01 X63.6394 Y28.3281
G01 X63.6675 Y28.4067
G01 X63.6821 Y28.4420
G01 X63.7178 Y28.5174
G01 X63.7359 Y28.5512
G01 X63.7787 Y28.6227
G01 X63.8000 Y28.6546
G01 X63.8497 Y28.7216
G01 X63.8740 Y28.7511
G01 X63.9300 Y28.8129
G01 X63.9571 Y28.8400
G01 X64.0189 Y28.8960
G01 X64.0484 Y28.9203
G01 X64.1154 Y28.9700
G01 X64.1473 Y28.9913
G01 X64.2188 Y29.0341
G01 X64.2526 Y29.0522
G01 X64.3280 Y29.0879
G01 X64.3633 Y29.1025
G01 X64.4419 Y29.1306
G01 X64.4785 Y29.1417
G01 X64.5594 Y29.1620
G01 X64.5969 Y29.1694
G01 X64.6795 Y29.1817
G01 X64.7175 Y29.1854
G01 X64.8009 Y29.1895
G01 X64.8391 Y29.1895
G01 X64.9225 Y29.1854
G01 X64.9605 Y29.1817
G01 X65.0431 Y29.1694
G01 X65.0806 Y29.1620
G01 X65.1615 Y29.1417
G01 X65.1981 Y29.1306
G01 X65.2767 Y29.1025
G01 X65.3120 Y29.0879
G01 X65.3874 Y29.0522
G01 X65.4212 Y29.0341
G01 X65.4927 Y28.9913
G01 X65.5246 Y28.9700
G01 X65.5916 Y28.9203
G01 X65.6211 Y28.8960
G01 X65.6829 Y28.8400
G01 X65.7100 Y28.8129
G01 X65.7660 Y28.7511
G01 X65.7903 Y28.7216
G01 X65.8400 Y28.6546
G01 X65.8613 Y28.6227
G01 X65.9041 Y28.5512
G01 X65.9222 Y28.5174
G01 X65.9579 Y28.4420
G01 X65.9725 Y28.4067
G01 X66.0006 Y28.3281
G01 X66.0117 Y28.2915
G01 X66.0320 Y28.2106
G01 X66.0394 Y28.1731
G01 X66.0517 Y28.0905
G01 X66.0554 Y28.0525
G01 X66.0595 Y27.9691
G01 X66.0600 Y27.9500
G01 X66.0600 Y27.6500
G01 X66.0595 Y27.6309
G01 X66.0554 Y27.5475
G01 X66.0517 Y27.5095
G01 X66.0394 Y27.4269
G01 X66.0320 Y27.3894
G01 X66.0117 Y27.3085
G01 X66.0006 Y27.2719
G01 X65.9725 Y27.1933
G01 X65.9579 Y27.1580
G01 X65.9222 Y27.0826
G01 X65.9041 Y27.0488
G01 X65.8613 Y26.9773
G01 X65.8400 Y26.9454
G01 X65.7903 Y26.8784
G01 X65.7660 Y26.8489
G01 X65.7100 Y26.7871
G01 X65.6829 Y26.7600
G01 X65.6211 Y26.7040
G01 X65.5916 Y26.6797
G01 X65.5246 Y26.6300
G01 X65.4927 Y26.6087
G01 X65.4212 Y26.5659
G01 X65.3874 Y26.5478
G01 X65.3498 Y26.5300
G01 X65.3874 Y26.5122
G01 X65.4212 Y26.4941
G01 X65.4927 Y26.4513
G01 X65.5246 Y26.4300
G01 X65.5916 Y26.3803
G01 X65.6211 Y26.3560
G01 X65.6829 Y26.3000
G01 X65.7100 Y26.2729
G01 X65.7660 Y26.2111
G01 X65.7903 Y26.1816
G01 X65.8400 Y26.1146
G01 X65.8613 Y26.0827
G01 X65.9041 Y26.0112
G01 X65.9222 Y25.9774
G01 X65.9579 Y25.9020
G01 X65.9725 Y25.8667
G01 X66.0006 Y25.7881
G01 X66.0117 Y25.7515
G01 X66.0320 Y25.6706
G01 X66.0394 Y25.6331
G01 X66.0517 Y25.5505
G01 X66.0554 Y25.5125
G01 X66.0595 Y25.4291
G01 X66.0600 Y25.4100
G01 X66.0600 Y25.1100
G01 X66.0595 Y25.0909
G01 X66.0554 Y25.0075
G01 X66.0517 Y24.9695
G01 X66.0394 Y24.8869
G01 X66.0320 Y24.8494
G01 X66.0117 Y24.7685
G01 X66.0006 Y24.7319
G01 X65.9725 Y24.6533
G01 X65.9579 Y24.6180
G01 X65.9222 Y24.5426
G01 X65.9041 Y24.5088
G01 X65.8613 Y24.4373
G01 X65.8400 Y24.4054
G01 X65.7903 Y24.3384
G01 X65.7660 Y24.3089
G01 X65.7100 Y24.2471
G01 X65.6829 Y24.2200
G01 X65.6501 Y24.1903
G00 Z2.0000
G00 X72.2117 Y17.5295
G01 F60.00
G01 Z-0.1500
G01 F120.00
G01 X72.2154 Y17.5675
G01 X72.2195 Y17.6509
G01 X72.2200 Y17.6700
G01 X72.2200 Y18.1700
G01 X72.2195 Y18.1891
G01 X72.2154 Y18.2725
G01 X72.2117 Y18.3105
G01 X72.1994 Y18.3931
G01 X72.1920 Y18.4306
G01 X72.1717 Y18.5115
G01 X72.1606 Y18.5481
G01 X72.1325 Y18.6267
G01 X72.1179 Y18.6620
G01 X72.0822 Y18.7374
G01 X72.0641 Y18.7712
G01 X72.0213 Y18.8427
G01 X72.0000 Y18.8746
G01 X71.9503 Y18.9416
G01 X71.9260 Y18.9711
G01 X71.8700 Y19.0329
G01 X71.8429 Y19.0600
G01 X71.7811 Y19.1160
G01 X71.7516 Y19.1403
G01 X71.6846 Y19.1900
G01 X71.6527 Y19.2113
G01 X71.5812 Y19.2541
G01 X71.5474 Y19.2722
G01 X71.4720 Y19.3079
G01 X71.4367 Y19.3225
G01 X71.3581 Y19.3506
G01 X71.3215 Y19.3617
G01 X71.2406 Y19.3820
G01 X71.2031 Y19.3894
G01 X71.1205 Y19.4017
G01 X71.0825 Y19.4054
G01 X70.9991 Y19.4095
G01 X70.9609 Y19.4095
G01 X70.8775 Y19.4054
G01 X70.8395 Y19.4017
G01 X70.7569 Y19.3894
G01 X70.7194 Y19.3820
G01 X70.6385 Y19.3617
G01 X70.6019 Y19.3506
G01 X70.5233 Y19.3225
G01 X70.4880 Y19.3079
G01 X70.4126 Y19.2722
G01 X70.3788 Y19.2541
G01 X70.3073 Y19.2113
G01 X70.2754 Y19.1900
G01 X70.2084 Y19.1403
G01 X70.1789 Y19.1160
G01 X70.1171 Y19.0600
G01 X70.0900 Y19.0329
G01 X70.0340 Y18.9711
G01 X70.0097 Y18.9416
G01 X69.9600 Y18.8746
G01 X69.9387 Y18.8427
G01 X69.8959 Y18.7712
G01 X69.8778 Y18.7374
G01 X69.8421 Y18.6620
G01 X69.8275 Y18.6267
G01 X69.7994 Y18.5481
G01 X69.7883 Y18.5115
G01 X69.7680 Y18.4306
G01 X69.7606 Y18.3931
G01 X69.7483 Y18.3105
G01 X69.7446 Y18.2725
G01 X69.7405 Y18.1891
G01 X69.7400 Y18.1700
G01 X69.7400 Y17.6700
G01 X69.7405 Y17.6509
G01 X69.7446 Y17.5675
G01 X69.7483 Y17.5295
G01 X69.7606 Y17.4469
G01 X69.7680 Y17.4094
G01 X69.7883 Y17.3285
G01 X69.7994 Y17.2919
G01 X69.8275 Y17.2133
G01 X69.8421 Y17.1780
G01 X69.8778 Y17.1026
G01 X69.8959 Y17.0688
G01 X69.9387 Y16.9973
G01 X69.9600 Y16.9654
G01 X70.0097 Y16.8984
G01 X70.0340 Y16.8689
G01 X70.0900 Y16.8071
G01 X70.1171 Y16.7800
G01 X70.1789 Y16.7240
G01 X70.2084 Y16.6997
G01 X70.2754 Y16.6500
G01 X70.3073 Y16.6287
G01 X70.3788 Y16.5859
G01 X70.4126 Y16.5678
G01 X70.4880 Y16.5321
G01 X70.5233 Y16.5175
G01 X70.6019 Y16.4894
G01 X70.6385 Y16.4783
G01 X70.7194 Y16.4580
G01 X70.7569 Y16.4506
G01 X70.8395 Y16.4383
G01 X70.8775 Y16.4346
G01 X70.9609 Y16.4305
G01 X70.9991 Y16.4305
G01 X71.0825 Y16.4346
G01 X71.1205 Y16.4383
G01 X71.2031 Y16.4506
G01 X71.2406 Y16.4580
G01 X71.3215 Y16.4783
G01 X71.3581 Y16.4894
G01 X71.4367 Y16.5175
G01 X71.4720 Y16.5321
G01 X71.5474 Y16.5678
G01 X71.5812 Y16.5859
G01 X71.6527 Y16.6287
G01 X71.6846 Y16.6500
G01 X71.7516 Y16.6997
G01 X71.7811 Y16.7240
G01 X71.8429 Y16.7800
G01 X71.8700 Y16.8071
G01 X71.9260 Y16.8689
G01 X71.9503 Y16.8984
G01 X72.0000 Y16.9654
G01 X72.0213 Y16.9973
G01 X72.0641 Y17.0688
G01 X72.0822 Y17.1026
G01 X72.1179 Y17.1780
G01 X72.1325 Y17.2133
G01 X72.1606 Y17.2919
G01 X72.1717 Y17.3285
G01 X72.1920 Y17.4094
G01 X72.1994 Y17.4469
G01 X72.2117 Y17.5295
G00 Z2.0000
G00 X74.7350 Y21.9097
G01 F60.00
G01 Z-0.1500
G01 F120.00
G01 X74.7667 Y21.8863
G01 X74.7963 Y21.8620
G01 X74.8690 Y21.7961
G01 X74.8961 Y21.7690
G01 X74.9620 Y21.6963
G01 X74.9863 Y21.6667
G01 X75.0447 Y21.5879
G01 X75.0660 Y21.5561
G01 X75.1164 Y21.4719
G01 X75.1345 Y21.4381
G01 X75.1697 Y21.3636
G01 X75.1697 Y21.7712
G01 X75.0312 Y21.9097
G01 X74.7350 Y21.9097
G00 Z2.0000
G00 X80.2497 Y21.6272
G01 F60.00
G01 Z-0.1500
G01 F120.00
G01 X80.2497 Y23.0361
G01 X80.2459 Y23.0234
G01 X80.2294 Y22.9772
G01 X80.2147 Y22.9418
G01 X80.1937 Y22.8974
G01 X80.1757 Y22.8637
G01 X80.1505 Y22.8216
G01 X80.1292 Y22.7898
G01 X80.0999 Y22.7503
G01 X80.0757 Y22.7207
G01 X80.0427 Y22.6844
G01 X80.0295 Y22.6705
G01 X79.7903 Y22.4312
G01 X79.7903 Y22.3669
G01 X79.7963 Y22.3620
G01 X79.8690 Y22.2961
G01 X79.8961 Y22.2690
G01 X79.9620 Y22.1963
G01 X79.9863 Y22.1667
G01 X80.0447 Y22.0879
G01 X80.0660 Y22.0561
G01 X80.1164 Y21.9719
G01 X80.1345 Y21.9381
G01 X80.1764 Y21.8494
G01 X80.1911 Y21.8141
G01 X80.2241 Y21.7217
G01 X80.2353 Y21.6850
G01 X80.2497 Y21.6272
G00 Z2.0000
G00 X79.8317 Y17.5295
G01 F60.00
G01 Z-0.1500
G01 F120.00
G01 X79.8354 Y17.5675
G01 X79.8395 Y17.6509
G01 X79.8400 Y17.6700
G01 X79.8400 Y18.1700
G01 X79.8395 Y18.1891
G01 X79.8354 Y18.2725
G01 X79.8317 Y18.3105
G01 X79.8194 Y18.3931
G01 X79.8120 Y18.4306
G01 X79.7917 Y18.5115
G01 X79.7806 Y18.5481
G01 X79.7525 Y18.6267
G01 X79.7379 Y18.6620
G01 X79.7022 Y18.7374
G01 X79.6841 Y18.7712
G01 X79.6413 Y18.8427
G01 X79.6200 Y18.8746
G01 X79.5703 Y18.9416
G01 X79.5460 Y18.9711
G01 X79.4900 Y19.0329
G01 X79.4629 Y19.0600
G01 X79.4011 Y19.1160
G01 X79.3716 Y19.1403
G01 X79.3046 Y19.1900
G01 X79.2727 Y19.2113
G01 X79.2012 Y19.2541
G01 X79.1674 Y19.2722
G01 X79.0920 Y19.3079
G01 X79.0567 Y19.3225
G01 X78.9781 Y19.3506
G01 X78.9415 Y19.3617
G01 X78.8606 Y19.3820
G01 X78.8231 Y19.3894
G01 X78.7405 Y19.4017
G01 X78.7025 Y19.4054
G01 X78.6191 Y19.4095
G01 X78.5809 Y19.4095
G01 X78.4975 Y19.4054
G01 X78.4595 Y19.4017
G01 X78.3769 Y19.3894
G01 X78.3394 Y19.3820
G01 X78.2585 Y19.3617
G01 X78.2219 Y19.3506
G01 X78.1433 Y19.3225
G01 X78.1080 Y19.3079
G01 X78.0326 Y19.2722
G01 X77.9988 Y19.2541
G01 X77.9273 Y19.2113
G01 X77.8954 Y19.1900
G01 X77.8284 Y19.1403
G01 X77.7989 Y19.1160
G01 X77.7371 Y19.0600
G01 X77.7100 Y19.0329
G01 X77.6540 Y18.9711
G01 X77.6297 Y18.9416
G01 X77.5800 Y18.8746
G01 X77.5587 Y18.8427
G01 X77.5159 Y18.7712
G01 X77.4978 Y18.7374
G01 X77.4621 Y18.6620
G01 X77.4475 Y18.6267
G01 X77.4194 Y18.5481
G01 X77.4083 Y18.5115
G01 X77.3880 Y18.4306
G01 X77.3806 Y18.3931
G01 X77.3683 Y18.3105
G01 X77.3646 Y18.2725
G01 X77.3605 Y18.1891
G01 X77.3600 Y18.1700
G01 X77.3600 Y17.6700
G01 X77.3605 Y17.6509
G01 X77.3646 Y17.5675
G01 X77.3683 Y17.5295
G01 X77.3806 Y17.4469
G01 X77.3880 Y17.4094
G01 X77.4083 Y17.3285
G01 X77.4194 Y17.2919
G01 X77.4475 Y17.2133
G01 X77.4621 Y17.1780
G01 X77.4978 Y17.1026
G01 X77.5159 Y17.0688
G01 X77.5587 Y16.9973
G01 X77.5800 Y16.9654
G01 X77.6297 Y16.8984
G01 X77.6540 Y16.8689
G01 X77.7100 Y16.8071
G01 X77.7371 Y16.7800
G01 X77.7989 Y16.7240
G01 X77.8284 Y16.6997
G01 X77.8954 Y16.6500
G01 X77.9273 Y16.6287
G01 X77.9988 Y16.5859
G01 X78.0326 Y16.5678
G01 X78.1080 Y16.5321
G01 X78.1433 Y16.5175
G01 X78.2219 Y16.4894
G01 X78.2585 Y16.4783
G01 X78.3394 Y16.4580
G01 X78.3769 Y16.4506
G01 X78.4595 Y16.4383
G01 X78.4975 Y16.4346
G01 X78.5809 Y16.4305
G01 X78.6191 Y16.4305
G01 X78.7025 Y16.4346
G01 X78.7405 Y16.4383
G01 X78.8231 Y16.4506
G01 X78.8606 Y16.4580
G01 X78.9415 Y16.4783
G01 X78.9781 Y16.4894
G01 X79.0567 Y16.5175
G01 X79.0920 Y16.5321
G01 X79.1674 Y16.5678
G01 X79.2012 Y16.5859
G01 X79.2727 Y16.6287
G01 X79.3046 Y16.6500
G01 X79.3716 Y16.6997
G01 X79.4011 Y16.7240
G01 X79.4629 Y16.7800
G01 X79.4900 Y16.8071
G01 X79.5460 Y16.8689
G01 X79.5703 Y16.8984
G01 X79.6200 Y16.9654
G01 X79.6413 Y16.9973
G01 X79.6841 Y17.0688
G01 X79.7022 Y17.1026
G01 X79.7379 Y17.1780
G01 X79.7525 Y17.2133
G01 X79.7806 Y17.2919
G01 X79.7917 Y17.3285
G01 X79.8120 Y17.4094
G01 X79.8194 Y17.4469
G01 X79.8317 Y17.5295
G00 Z2.0000
G00 X87.2903 Y24.4650
G01 F60.00
G01 Z-0.1500
G01 F120.00
G01 X87.2903 Y12.1350
G01 X87.3137 Y12.1667
G01 X87.3380 Y12.1963
G01 X87.4039 Y12.2690
G01 X87.4310 Y12.2961
G01 X87.5037 Y12.3620
G01 X87.5097 Y12.3669
G01 X87.5097 Y19.8000
G01 X87.5102 Y19.8191
G01 X87.5126 Y19.8682
G01 X87.5164 Y19.9063
G01 X87.5236 Y19.9548
G01 X87.5310 Y19.9924
G01 X87.5430 Y20.0400
G01 X87.5541 Y20.0766
G01 X87.5706 Y20.1228
G01 X87.5853 Y20.1582
G01 X87.6063 Y20.2026
G01 X87.6243 Y20.2363
G01 X87.6495 Y20.2784
G01 X87.6708 Y20.3102
G01 X87.7001 Y20.3497
G01 X87.7243 Y20.3793
G01 X87.7573 Y20.4156
G01 X87.7705 Y20.4295
G01 X90.0097 Y22.6688
G01 X90.0097 Y22.7331
G01 X90.0037 Y22.7380
G01 X89.9310 Y22.8039
G01 X89.9039 Y22.8310
G01 X89.8380 Y22.9037
G01 X89.8137 Y22.9333
G01 X89.7553 Y23.0121
G01 X89.7340 Y23.0439
G01 X89.6836 Y23.1281
G01 X89.6655 Y23.1619
G01 X89.6236 Y23.2506
G01 X89.6089 Y23.2859
G01 X89.5759 Y23.3783
G01 X89.5647 Y23.4150
G01 X89.5409 Y23.5101
G01 X89.5334 Y23.5477
G01 X89.5190 Y23.6448
G01 X89.5153 Y23.6828
G01 X89.5105 Y23.7809
G01 X89.5105 Y23.8191
G01 X89.5153 Y23.9172
G01 X89.5190 Y23.9552
G01 X89.5334 Y24.0523
G01 X89.5409 Y24.0899
G01 X89.5647 Y24.1850
G01 X89.5759 Y24.2217
G01 X89.6089 Y24.3141
G01 X89.6236 Y24.3494
G01 X89.6655 Y24.4381
G01 X89.6836 Y24.4719
G01 X89.7340 Y24.5561
G01 X89.7553 Y24.5879
G01 X89.8137 Y24.6667
G01 X89.8380 Y24.6963
G01 X89.9039 Y24.7690
G01 X89.9310 Y24.7961
G01 X90.0037 Y24.8620
G01 X90.0333 Y24.8863
G01 X90.1121 Y24.9447
G01 X90.1439 Y24.9660
G01 X90.2281 Y25.0164
G01 X90.2619 Y25.0345
G01 X90.3506 Y25.0764
G01 X90.3859 Y25.0911
G01 X90.4783 Y25.1241
G01 X90.5150 Y25.1353
G01 X90.6101 Y25.1591
G01 X90.6477 Y25.1666
G01 X90.7448 Y25.1810
G01 X90.7828 Y25.1847
G01 X90.8809 Y25.1895
G01 X90.9191 Y25.1895
G01 X91.0172 Y25.1847
G01 X91.0552 Y25.1810
G01 X91.1523 Y25.1666
G01 X91.1899 Y25.1591
G01 X91.2850 Y25.1353
G01 X91.3217 Y25.1241
G01 X91.4141 Y25.0911
G01 X91.4494 Y25.0764
G01 X91.5381 Y25.0345
G01 X91.5719 Y25.0164
G01 X91.6561 Y24.9660
G01 X91.6879 Y24.9447
G01 X91.7667 Y24.8863
G01 X91.7963 Y24.8620
G01 X91.8690 Y24.7961
G01 X91.8961 Y24.7690
G01 X91.9620 Y24.6963
G01 X91.9863 Y24.6667
G01 X92.0447 Y24.5879
G01 X92.0660 Y24.5561
G01 X92.1164 Y24.4719
G01 X92.1345 Y24.4381
G01 X92.1764 Y24.3494
G01 X92.1911 Y24.3141
G01 X92.2241 Y24.2217
G01 X92.2353 Y24.1850
G01 X92.2591 Y24.0899
G01 X92.2666 Y24.0523
G01 X92.2810 Y23.9552
G01 X92.2847 Y23.9172
G01 X92.2895 Y23.8191
G01 X92.2895 Y23.7809
G01 X92.2847 Y23.6828
G01 X92.2810 Y23.6448
G01 X92.2666 Y23.5477
G01 X92.2591 Y23.5101
G01 X92.2353 Y23.4150
G01 X92.2241 Y23.3783
G01 X92.1911 Y23.2859
G01 X92.1764 Y23.2506
G01 X92.1345 Y23.1619
G01 X92.1164 Y23.1281
G01 X92.0660 Y23.0439
G01 X92.0447 Y23.0121
G01 X91.9863 Y22.9333
G01 X91.9620 Y22.9037
G01 X91.8961 Y22.8310
G01 X91.8690 Y22.8039
G01 X91.7963 Y22.7380
G01 X91.7903 Y22.7331
G01 X91.7903 Y22.3000
G01 X91.7898 Y22.2809
G01 X91.7874 Y22.2318
G01 X91.7836 Y22.1937
G01 X91.7764 Y22.1452
G01 X91.7690 Y22.1076
G01 X91.7570 Y22.0600
G01 X91.7459 Y22.0234
G01 X91.7294 Y21.9772
G01 X91.7147 Y21.9418
G01 X91.6937 Y21.8974
G01 X91.6757 Y21.8637
G01 X91.6505 Y21.8216
G01 X91.6292 Y21.7898
G01 X91.5999 Y21.7503
G01 X91.5757 Y21.7207
G01 X91.5427 Y21.6844
G01 X91.5295 Y21.6705
G01 X89.2903 Y19.4312
G01 X89.2903 Y12.3669
G01 X89.2963 Y12.3620
G01 X89.3690 Y12.2961
G01 X89.3961 Y12.2690
G01 X89.4620 Y12.1963
G01 X89.4863 Y12.1667
G01 X89.5447 Y12.0879
G01 X89.5660 Y12.0561
G01 X89.6164 Y11.9719
G01 X89.6345 Y11.9381
G01 X89.6764 Y11.8494
G01 X89.6911 Y11.8141
G01 X89.7241 Y11.7217
G01 X89.7353 Y11.6850
G01 X89.7591 Y11.5899
G01 X89.7666 Y11.5523
G01 X89.7810 Y11.4552
G01 X89.7847 Y11.4172
G01 X89.7895 Y11.3191
G01 X89.7895 Y11.2809
G01 X89.7847 Y11.1828
G01 X89.7810 Y11.1448
G01 X89.7666 Y11.0477
G01 X89.7591 Y11.0101
G01 X89.7353 Y10.9150
G01 X89.7241 Y10.8783
G01 X89.6911 Y10.7859
G01 X89.6764 Y10.7506
G01 X89.6345 Y10.6619
G01 X89.6164 Y10.6281
G01 X89.5660 Y10.5439
G01 X89.5447 Y10.5121
G01 X89.4863 Y10.4333
G01 X89.4620 Y10.4037
G01 X89.3961 Y10.3310
G01 X89.3690 Y10.3039
G01 X89.2963 Y10.2380
G01 X89.2667 Y10.2137
G01 X89.1879 Y10.1553
G01 X89.1561 Y10.1340
G01 X89.0719 Y10.0836
G01 X89.0381 Y10.0655
G01 X88.9494 Y10.0236
G01 X88.9141 Y10.0089
G01 X88.8217 Y9.9759
G01 X88.7850 Y9.9647
G01 X88.6899 Y9.9409
G01 X88.6523 Y9.9334
G01 X88.5552 Y9.9190
G01 X88.5172 Y9.9153
G01 X88.4191 Y9.9105
G01 X88.3809 Y9.9105
G01 X88.2828 Y9.9153
G01 X88.2448 Y9.9190
G01 X88.1477 Y9.9334
G01 X88.1101 Y9.9409
G01 X88.0150 Y9.9647
G01 X87.9783 Y9.9759
G01 X87.8859 Y10.0089
G01 X87.8506 Y10.0236
G01 X87.7619 Y10.0655
G01 X87.7281 Y10.0836
G01 X87.6439 Y10.1340
G01 X87.6121 Y10.1553
G01 X87.5333 Y10.2137
G01 X87.5037 Y10.2380
G01 X87.4310 Y10.3039
G01 X87.4039 Y10.3310
G01 X87.3380 Y10.4037
G01 X87.3137 Y10.4333
G01 X87.2903 Y10.4650
G01 X87.2903 Y6.1350
G01 X87.3137 Y6.1667
G01 X87.3380 Y6.1963
G01 X87.4039 Y6.2690
G01 X87.4310 Y6.2961
G01 X87.5037 Y6.3620
G01 X87.5333 Y6.3863
G01 X87.6121 Y6.4447
G01 X87.6439 Y6.4660
G01 X87.7281 Y6.5164
G01 X87.7619 Y6.5345
G01 X87.8506 Y6.5764
G01 X87.8859 Y6.5911
G01 X87.9783 Y6.6241
G01 X88.0150 Y6.6353
G01 X88.1078 Y6.6585
G01 X88.0333 Y6.7137
G01 X88.0037 Y6.7380
G01 X87.9310 Y6.8039
G01 X87.9039 Y6.8310
G01 X87.8380 Y6.9037
G01 X87.8137 Y6.9333
G01 X87.7553 Y7.0121
G01 X87.7340 Y7.0439
G01 X87.6836 Y7.1281
G01 X87.6655 Y7.1619
G01 X87.6236 Y7.2506
G01 X87.6089 Y7.2859
G01 X87.5759 Y7.3783
G01 X87.5647 Y7.4150
G01 X87.5409 Y7.5101
G01 X87.5334 Y7.5477
G01 X87.5190 Y7.6448
G01 X87.5153 Y7.6828
G01 X87.5105 Y7.7809
G01 X87.5105 Y7.8191
G01 X87.5153 Y7.9172
G01 X87.5190 Y7.9552
G01 X87.5334 Y8.0523
G01 X87.5409 Y8.0899
G01 X87.5647 Y8.1850
G01 X87.5759 Y8.2217
G01 X87.6089 Y8.3141
G01 X87.6236 Y8.3494
G01 X87.6655 Y8.4381
G01 X87.6836 Y8.4719
G01 X87.7340 Y8.5561
G01 X87.7553 Y8.5879
G01 X87.8137 Y8.6667
G01 X87.8380 Y8.6963
G01 X87.9039 Y8.7690
G01 X87.9310 Y8.7961
G01 X88.0037 Y8.8620
G01 X88.0333 Y8.8863
G01 X88.1121 Y8.9447
G01 X88.1439 Y8.9660
G01 X88.2281 Y9.0164
G01 X88.2619 Y9.0345
G01 X88.3506 Y9.0764
G01 X88.3859 Y9.0911
G01 X88.4783 Y9.1241
G01 X88.5150 Y9.1353
G01 X88.6101 Y9.1591
G01 X88.6477 Y9.1666
G01 X88.7448 Y9.1810
G01 X88.7828 Y9.1847
G01 X88.8809 Y9.1895
G01 X88.9191 Y9.1895
G01 X89.0172 Y9.1847
G01 X89.0552 Y9.1810
G01 X89.1523 Y9.1666
G01 X89.1899 Y9.1591
G01 X89.2850 Y9.1353
G01 X89.3217 Y9.1241
G01 X89.4141 Y9.0911
G01 X89.4494 Y9.0764
G01 X89.5381 Y9.0345
G01 X89.5719 Y9.0164
G01 X89.6561 Y8.9660
G01 X89.6879 Y8.9447
G01 X89.7667 Y8.8863
G01 X89.7963 Y8.8620
G01 X89.8690 Y8.7961
G01 X89.8961 Y8.7690
G01 X89.9620 Y8.6963
G01 X89.9669 Y8.6903
G01 X91.3342 Y8.6903
G01 X96.5537 Y13.9097
G01 X93.9000 Y13.9097
G01 X93.8809 Y13.9102
G01 X93.8318 Y13.9126
G01 X93.7937 Y13.9164
G01 X93.7452 Y13.9236
G01 X93.7076 Y13.9310
G01 X93.6600 Y13.9430
G01 X93.6234 Y13.9541
G01 X93.5772 Y13.9706
G01 X93.5418 Y13.9853
G01 X93.4974 Y14.0063
G01 X93.4637 Y14.0243
G01 X93.4216 Y14.0495
G01 X93.3898 Y14.0708
G01 X93.3503 Y14.1001
G01 X93.3207 Y14.1243
G01 X93.2844 Y14.1573
G01 X93.2705 Y14.1705
G01 X93.0312 Y14.4097
G01 X92.9669 Y14.4097
G01 X92.9620 Y14.4037
G01 X92.8961 Y14.3310
G01 X92.8690 Y14.3039
G01 X92.7963 Y14.2380
G01 X92.7667 Y14.2137
G01 X92.6879 Y14.1553
G01 X92.6561 Y14.1340
G01 X92.5719 Y14.0836
G01 X92.5381 Y14.0655
G01 X92.4494 Y14.0236
G01 X92.4141 Y14.0089
G01 X92.3217 Y13.9759
G01 X92.2850 Y13.9647
G01 X92.1899 Y13.9409
G01 X92.1523 Y13.9334
G01 X92.0552 Y13.9190
G01 X92.0172 Y13.9153
G01 X91.9191 Y13.9105
G01 X91.8809 Y13.9105
G01 X91.7828 Y13.9153
G01 X91.7448 Y13.9190
G01 X91.6477 Y13.9334
G01 X91.6101 Y13.9409
G01 X91.5150 Y13.9647
G01 X91.4783 Y13.9759
G01 X91.3859 Y14.0089
G01 X91.3506 Y14.0236
G01 X91.2619 Y14.0655
G01 X91.2281 Y14.0836
G01 X91.1439 Y14.1340
G01 X91.1121 Y14.1553
G01 X91.0333 Y14.2137
G01 X91.0037 Y14.2380
G01 X90.9310 Y14.3039
G01 X90.9039 Y14.3310
G01 X90.8380 Y14.4037
G01 X90.8137 Y14.4333
G01 X90.7553 Y14.5121
G01 X90.7340 Y14.5439
G01 X90.6836 Y14.6281
G01 X90.6655 Y14.6619
G01 X90.6236 Y14.7506
G01 X90.6089 Y14.7859
G01 X90.5759 Y14.8783
G01 X90.5647 Y14.9150
G01 X90.5409 Y15.0101
G01 X90.5334 Y15.0477
G01 X90.5190 Y15.1448
G01 X90.5153 Y15.1828
G01 X90.5105 Y15.2809
G01 X90.5105 Y15.3191
G01 X90.5153 Y15.4172
G01 X90.5190 Y15.4552
G01 X90.5334 Y15.5523
G01 X90.5409 Y15.5899
G01 X90.5647 Y15.6850
G01 X90.5759 Y15.7217
G01 X90.6089 Y15.8141
G01 X90.6236 Y15.8494
G01 X90.6655 Y15.9381
G01 X90.6836 Y15.9719
G01 X90.7340 Y16.0561
G01 X90.7553 Y16.0879
G01 X90.8137 Y16.1667
G01 X90.8380 Y16.1963
G01 X90.9039 Y16.2690
G01 X90.9310 Y16.2961
G01 X91.0037 Y16.3620
G01 X91.0333 Y16.3863
G01 X91.1121 Y16.4447
G01 X91.1439 Y16.4660
G01 X91.2281 Y16.5164
G01 X91.2619 Y16.5345
G01 X91.3506 Y16.5764
G01 X91.3859 Y16.5911
G01 X91.4783 Y16.6241
G01 X91.5150 Y16.6353
G01 X91.6101 Y16.6591
G01 X91.6477 Y16.6666
G01 X91.7448 Y16.6810
G01 X91.7828 Y16.6847
G01 X91.8809 Y16.6895
G01 X91.9191 Y16.6895
G01 X92.0172 Y16.6847
G01 X92.0552 Y16.6810
G01 X92.1523 Y16.6666
G01 X92.1899 Y16.6591
G01 X92.2850 Y16.6353
G01 X92.3217 Y16.6241
G01 X92.4141 Y16.5911
G01 X92.4494 Y16.5764
G01 X92.5381 Y16.5345
G01 X92.5719 Y16.5164
G01 X92.6561 Y16.4660
G01 X92.6879 Y16.4447
G01 X92.7667 Y16.3863
G01 X92.7963 Y16.3620
G01 X92.8690 Y16.2961
G01 X92.8961 Y16.2690
G01 X92.9620 Y16.1963
G01 X92.9669 Y16.1903
G01 X93.4000 Y16.1903
G01 X93.4191 Y16.1898
G01 X93.4682 Y16.1874
G01 X93.5063 Y16.1836
G01 X93.5548 Y16.1764
G01 X93.5924 Y16.1690
G01 X93.6400 Y16.1570
G01 X93.6766 Y16.1459
G01 X93.7228 Y16.1294
G01 X93.7582 Y16.1147
G01 X93.8026 Y16.0937
G01 X93.8363 Y16.0757
G01 X93.8784 Y16.0505
G01 X93.9102 Y16.0292
G01 X93.9497 Y15.9999
G01 X93.9793 Y15.9757
G01 X94.0156 Y15.9427
G01 X94.0295 Y15.9295
G01 X94.2688 Y15.6903
G01 X99.0312 Y15.6903
G01 X100.2300 Y16.8890
G01 X100.2300 Y17.3400
G01 X100.2305 Y17.3591
G01 X100.2353 Y17.4572
G01 X100.2390 Y17.4952
G01 X100.2534 Y17.5923
G01 X100.2609 Y17.6299
G01 X100.2847 Y17.7250
G01 X100.2959 Y17.7617
G01 X100.3289 Y17.8541
G01 X100.3436 Y17.8894
G01 X100.3855 Y17.9781
G01 X100.4036 Y18.0119
G01 X100.4540 Y18.0961
G01 X100.4753 Y18.1279
G01 X100.5337 Y18.2067
G01 X100.5580 Y18.2363
G01 X100.6239 Y18.3090
G01 X100.6510 Y18.3361
G01 X100.7237 Y18.4020
G01 X100.7533 Y18.4263
G01 X100.8321 Y18.4847
G01 X100.8639 Y18.5060
G01 X100.9481 Y18.5564
G01 X100.9819 Y18.5745
G01 X101.0706 Y18.6164
G01 X101.1059 Y18.6311
G01 X101.1983 Y18.6641
G01 X101.2350 Y18.6753
G01 X101.3301 Y18.6991
G01 X101.3677 Y18.7066
G01 X101.4648 Y18.7210
G01 X101.5028 Y18.7247
G01 X101.6009 Y18.7295
G01 X101.6391 Y18.7295
G01 X101.7372 Y18.7247
G01 X101.7752 Y18.7210
G01 X101.8723 Y18.7066
G01 X101.9099 Y18.6991
G01 X102.0050 Y18.6753
G01 X102.0417 Y18.6641
G01 X102.1341 Y18.6311
G01 X102.1694 Y18.6164
G01 X102.2581 Y18.5745
G01 X102.2919 Y18.5564
G01 X102.3761 Y18.5060
G01 X102.4079 Y18.4847
G01 X102.4867 Y18.4263
G01 X102.5163 Y18.4020
G01 X102.5890 Y18.3361
G01 X102.6161 Y18.3090
G01 X102.6820 Y18.2363
G01 X102.7063 Y18.2067
G01 X102.7647 Y18.1279
G01 X102.7860 Y18.0961
G01 X102.8364 Y18.0119
G01 X102.8545 Y17.9781
G01 X102.8900 Y17.9030
G01 X102.9255 Y17.9781
G01 X102.9436 Y18.0119
G01 X102.9940 Y18.0961
G01 X103.0153 Y18.1279
G01 X103.0737 Y18.2067
G01 X103.0980 Y18.2363
G01 X103.1639 Y18.3090
G01 X103.1910 Y18.3361
G01 X103.2637 Y18.4020
G01 X103.2933 Y18.4263
G01 X103.3721 Y18.4847
G01 X103.4039 Y18.5060
G01 X103.4881 Y18.5564
G01 X103.5219 Y18.5745
G01 X103.6106 Y18.6164
G01 X103.6459 Y18.6311
G01 X103.7383 Y18.6641
G01 X103.7750 Y18.6753
G01 X103.8701 Y18.6991
G01 X103.9077 Y18.7066
G01 X104.0048 Y18.7210
G01 X104.0428 Y18.7247
G01 X104.1409 Y18.7295
G01 X104.1791 Y18.7295
G01 X104.2772 Y18.7247
G01 X104.3152 Y18.7210
G01 X104.4123 Y18.7066
G01 X104.4499 Y18.6991
G01 X104.5450 Y18.6753
G01 X104.5817 Y18.6641
G01 X104.6741 Y18.6311
G01 X104.7094 Y18.6164
G01 X104.7981 Y18.5745
G01 X104.8319 Y18.5564
G01 X104.9161 Y18.5060
G01 X104.9479 Y18.4847
G01 X105.0267 Y18.4263
G01 X105.0563 Y18.4020
G01 X105.1290 Y18.3361
G01 X105.1561 Y18.3090
G01 X105.2220 Y18.2363
G01 X105.2463 Y18.2067
G01 X105.3047 Y18.1279
G01 X105.3260 Y18.0961
G01 X105.3764 Y18.0119
G01 X105.3945 Y17.9781
G01 X105.4300 Y17.9030
G01 X105.4655 Y17.9781
G01 X105.4836 Y18.0119
G01 X105.5340 Y18.0961
G01 X105.5553 Y18.1279
G01 X105.6137 Y18.2067
G01 X105.6380 Y18.2363
G01 X105.7039 Y18.3090
G01 X105.7310 Y18.3361
G01 X105.8037 Y18.4020
G01 X105.8333 Y18.4263
G01 X105.9121 Y18.4847
G01 X105.9439 Y18.5060
G01 X106.0281 Y18.5564
G01 X106.0619 Y18.5745
G01 X106.1506 Y18.6164
G01 X106.1859 Y18.6311
G01 X106.2783 Y18.6641
G01 X106.3150 Y18.6753
G01 X106.4101 Y18.6991
G01 X106.4477 Y18.7066
G01 X106.5448 Y18.7210
G01 X106.5828 Y18.7247
G01 X106.6809 Y18.7295
G01 X106.7191 Y18.7295
G01 X106.8172 Y18.7247
G01 X106.8552 Y18.7210
G01 X106.9523 Y18.7066
G01 X106.9899 Y18.6991
G01 X107.0850 Y18.6753
G01 X107.1217 Y18.6641
G01 X107.2141 Y18.6311
G01 X107.2494 Y18.6164
G01 X107.3381 Y18.5745
G01 X107.3719 Y18.5564
G01 X107.4561 Y18.5060
G01 X107.4879 Y18.4847
G01 X107.5667 Y18.4263
G01 X107.5963 Y18.4020
G01 X107.6690 Y18.3361
G01 X107.6961 Y18.3090
G01 X107.7620 Y18.2363
G01 X107.7863 Y18.2067
G01 X107.8447 Y18.1279
G01 X107.8660 Y18.0961
G01 X107.9164 Y18.0119
G01 X107.9345 Y17.9781
G01 X107.9700 Y17.9030
G01 X108.0055 Y17.9781
G01 X108.0236 Y18.0119
G01 X108.0740 Y18.0961
G01 X108.0953 Y18.1279
G01 X108.1537 Y18.2067
G01 X108.1780 Y18.2363
G01 X108.2439 Y18.3090
G01 X108.2710 Y18.3361
G01 X108.3437 Y18.4020
G01 X108.3497 Y18.4069
G01 X108.3497 Y23.0912
G01 X106.6112 Y24.8297
G01 X101.9127 Y24.8297
G01 X101.8511 Y24.7740
G01 X101.8216 Y24.7497
G01 X101.7546 Y24.7000
G01 X101.7227 Y24.6787
G01 X101.6512 Y24.6359
G01 X101.6174 Y24.6178
G01 X101.5420 Y24.5821
G01 X101.5067 Y24.5675
G01 X101.4281 Y24.5394
G01 X101.3915 Y24.5283
G01 X101.3106 Y24.5080
G01 X101.2731 Y24.5006
G01 X101.1905 Y24.4883
G01 X101.1525 Y24.4846
G01 X101.0691 Y24.4805
G01 X101.0500 Y24.4800
G01 X100.7500 Y24.4800
G01 X100.7309 Y24.4805
G01 X100.6475 Y24.4846
G01 X100.6095 Y24.4883
G01 X100.5269 Y24.5006
G01 X100.4894 Y24.5080
G01 X100.4085 Y24.5283
G01 X100.3719 Y24.5394
G01 X100.2933 Y24.5675
G01 X100.2580 Y24.5821
G01 X100.1826 Y24.6178
G01 X100.1488 Y24.6359
G01 X100.0773 Y24.6787
G01 X100.0454 Y24.7000
G01 X99.9784 Y24.7497
G01 X99.9489 Y24.7740
G01 X99.8871 Y24.8300
G01 X99.8600 Y24.8571
G01 X99.8040 Y24.9189
G01 X99.7797 Y24.9484
G01 X99.7300 Y25.0154
G01 X99.7087 Y25.0473
G01 X99.6659 Y25.1188
G01 X99.6478 Y25.1526
G01 X99.6121 Y25.2280
G01 X99.5975 Y25.2633
G01 X99.5694 Y25.3419
G01 X99.5583 Y25.3785
G01 X99.5380 Y25.4594
G01 X99.5306 Y25.4969
G01 X99.5183 Y25.5795
G01 X99.5146 Y25.6175
G01 X99.5105 Y25.7009
G01 X99.5105 Y25.7391
G01 X99.5146 Y25.8225
G01 X99.5183 Y25.8605
G01 X99.5306 Y25.9431
G01 X99.5380 Y25.9806
G01 X99.5583 Y26.0615
G01 X99.5694 Y26.0981
G01 X99.5975 Y26.1767
G01 X99.6121 Y26.2120
G01 X99.6478 Y26.2874
G01 X99.6659 Y26.3212
G01 X99.7087 Y26.3927
G01 X99.7300 Y26.4246
G01 X99.7797 Y26.4916
G01 X99.8040 Y26.5211
G01 X99.8600 Y26.5829
G01 X99.8871 Y26.6100
G01 X99.9489 Y26.6660
G01 X99.9784 Y26.6903
G01 X100.0454 Y26.7400
G01 X100.0773 Y26.7613
G01 X100.1488 Y26.8041
G01 X100.1826 Y26.8222
G01 X100.2580 Y26.8579
G01 X100.2933 Y26.8725
G01 X100.3719 Y26.9006
G01 X100.4085 Y26.9117
G01 X100.4894 Y26.9320
G01 X100.5269 Y26.9394
G01 X100.6095 Y26.9517
G01 X100.6475 Y26.9554
G01 X100.7309 Y26.9595
G01 X100.7500 Y26.9600
G01 X101.0500 Y26.9600
G01 X101.0691 Y26.9595
G01 X101.1525 Y26.9554
G01 X101.1905 Y26.9517
G01 X101.2731 Y26.9394
G01 X101.3106 Y26.9320
G01 X101.3915 Y26.9117
G01 X101.4281 Y26.9006
G01 X101.5067 Y26.8725
G01 X101.5420 Y26.8579
G01 X101.6174 Y26.8222
G01 X101.6512 Y26.8041
G01 X101.7227 Y26.7613
G01 X101.7546 Y26.7400
G01 X101.8216 Y26.6903
G01 X101.8511 Y26.6660
G01 X101.9127 Y26.6103
G01 X106.9800 Y26.6103
G01 X106.9991 Y26.6098
G01 X107.0482 Y26.6074
G01 X107.0863 Y26.6036
G01 X107.1348 Y26.5964
G01 X107.1724 Y26.5890
G01 X107.2200 Y26.5770
G01 X107.2566 Y26.5659
G01 X107.3028 Y26.5494
G01 X107.3382 Y26.5347
G01 X107.3826 Y26.5137
G01 X107.4163 Y26.4957
G01 X107.4584 Y26.4705
G01 X107.4902 Y26.4492
G01 X107.5297 Y26.4199
G01 X107.5593 Y26.3957
G01 X107.5956 Y26.3627
G01 X107.6095 Y26.3495
G01 X109.8695 Y24.0895
G01 X109.8827 Y24.0756
G01 X109.9157 Y24.0393
G01 X109.9399 Y24.0097
G01 X109.9692 Y23.9702
G01 X109.9905 Y23.9384
G01 X110.0157 Y23.8963
G01 X110.0337 Y23.8626
G01 X110.0547 Y23.8182
G01 X110.0694 Y23.7828
G01 X110.0859 Y23.7366
G01 X110.0970 Y23.7000
G01 X110.1090 Y23.6524
G01 X110.1164 Y23.6148
G01 X110.1236 Y23.5663
G01 X110.1274 Y23.5282
G01 X110.1298 Y23.4791
G01 X110.1303 Y23.4600
G01 X110.1303 Y18.4069
G01 X110.1363 Y18.4020
G01 X110.2090 Y18.3361
G01 X110.2361 Y18.3090
G01 X110.3020 Y18.2363
G01 X110.3263 Y18.2067
G01 X110.3847 Y18.1279
G01 X110.4060 Y18.0961
G01 X110.4564 Y18.0119
G01 X110.4745 Y17.9781
G01 X110.5100 Y17.9030
G01 X110.5100 Y18.3000
G01 X110.5119 Y18.3382
G01 X110.5175 Y18.3761
G01 X110.5268 Y18.4132
G01 X110.5397 Y18.4492
G01 X110.5561 Y18.4838
G01 X110.5757 Y18.5167
G01 X110.5985 Y18.5474
G01 X110.6242 Y18.5758
G01 X110.6526 Y18.6015
G01 X110.6833 Y18.6243
G01 X110.7162 Y18.6439
G01 X110.7508 Y18.6603
G01 X110.7868 Y18.6732
G01 X110.8239 Y18.6825
G01 X110.8618 Y18.6881
G01 X110.9000 Y18.6900
G01 X111.0097 Y18.6900
G01 X111.0097 Y23.4312
G01 X108.7705 Y25.6705
G01 X108.7573 Y25.6844
G01 X108.7243 Y25.7207
G01 X108.7001 Y25.7503
G01 X108.6708 Y25.7898
G01 X108.6495 Y25.8216
G01 X108.6243 Y25.8637
G01 X108.6063 Y25.8974
G01 X108.5853 Y25.9418
G01 X108.5706 Y25.9772
G01 X108.5541 Y26.0234
G01 X108.5430 Y26.0600
G01 X108.5310 Y26.1076
G01 X108.5236 Y26.1452
G01 X108.5164 Y26.1937
G01 X108.5126 Y26.2318
G01 X108.5102 Y26.2809
G01 X108.5097 Y26.3000
G01 X108.5097 Y28.7665
G01 X108.4784 Y28.7897
G01 X108.4489 Y28.8140
G01 X108.3873 Y28.8697
G01 X106.7288 Y28.8697
G01 X105.4895 Y27.6305
G01 X105.4756 Y27.6173
G01 X105.4393 Y27.5843
G01 X105.4097 Y27.5601
G01 X105.3702 Y27.5308
G01 X105.3384 Y27.5095
G01 X105.2963 Y27.4843
G01 X105.2626 Y27.4663
G01 X105.2182 Y27.4453
G01 X105.1828 Y27.4306
G01 X105.1366 Y27.4141
G01 X105.1000 Y27.4030
G01 X105.0524 Y27.3910
G01 X105.0148 Y27.3836
G01 X104.9663 Y27.3764
G01 X104.9282 Y27.3726
G01 X104.8791 Y27.3702
G01 X104.8600 Y27.3697
G01 X101.9127 Y27.3697
G01 X101.8511 Y27.3140
G01 X101.8216 Y27.2897
G01 X101.7546 Y27.2400
G01 X101.7227 Y27.2187
G01 X101.6512 Y27.1759
G01 X101.6174 Y27.1578
G01 X101.5420 Y27.1221
G01 X101.5067 Y27.1075
G01 X101.4281 Y27.0794
G01 X101.3915 Y27.0683
G01 X101.3106 Y27.0480
G01 X101.2731 Y27.0406
G01 X101.1905 Y27.0283
G01 X101.1525 Y27.0246
G01 X101.0691 Y27.0205
G01 X101.0500 Y27.0200
G01 X100.7500 Y27.0200
G01 X100.7309 Y27.0205
G01 X100.6475 Y27.0246
G01 X100.6095 Y27.0283
G01 X100.5269 Y27.0406
G01 X100.4894 Y27.0480
G01 X100.4085 Y27.0683
G01 X100.3719 Y27.0794
G01 X100.2933 Y27.1075
G01 X100.2580 Y27.1221
G01 X100.1826 Y27.1578
G01 X100.1488 Y27.1759
G01 X100.0773 Y27.2187
G01 X100.0454 Y27.2400
G01 X99.9784 Y27.2897
G01 X99.9489 Y27.3140
G01 X99.8873 Y27.3697
G01 X98.7288 Y27.3697
G01 X97.5295 Y26.1705
G01 X97.5156 Y26.1573
G01 X97.4793 Y26.1243
G01 X97.4497 Y26.1001
G01 X97.4102 Y26.0708
G01 X97.3784 Y26.0495
G01 X97.3363 Y26.0243
G01 X97.3026 Y26.0063
G01 X97.2582 Y25.9853
G01 X97.2228 Y25.9706
G01 X97.1766 Y25.9541
G01 X97.1400 Y25.9430
G01 X97.0924 Y25.9310
G01 X97.0548 Y25.9236
G01 X97.0063 Y25.9164
G01 X96.9682 Y25.9126
G01 X96.9191 Y25.9102
G01 X96.9000 Y25.9097
G01 X90.2688 Y25.9097
G01 X89.7839 Y25.4249
G01 X89.7847 Y25.4172
G01 X89.7895 Y25.3191
G01 X89.7895 Y25.2809
G01 X89.7847 Y25.1828
G01 X89.7810 Y25.1448
G01 X89.7666 Y25.0477
G01 X89.7591 Y25.0101
G01 X89.7353 Y24.9150
G01 X89.7241 Y24.8783
G01 X89.6911 Y24.7859
G01 X89.6764 Y24.7506
G01 X89.6345 Y24.6619
G01 X89.6164 Y24.6281
G01 X89.5660 Y24.5439
G01 X89.5447 Y24.5121
G01 X89.4863 Y24.4333
G01 X89.4620 Y24.4037
G01 X89.3961 Y24.3310
G01 X89.3690 Y24.3039
G01 X89.2963 Y24.2380
G01 X89.2667 Y24.2137
G01 X89.1879 Y24.1553
G01 X89.1561 Y24.1340
G01 X89.0719 Y24.0836
G01 X89.0381 Y24.0655
G01 X88.9494 Y24.0236
G01 X88.9141 Y24.0089
G01 X88.8217 Y23.9759
G01 X88.7850 Y23.9647
G01 X88.6899 Y23.9409
G01 X88.6523 Y23.9334
G01 X88.5552 Y23.9190
G01 X88.5172 Y23.9153
G01 X88.4191 Y23.9105
G01 X88.3809 Y23.9105
G01 X88.2828 Y23.9153
G01 X88.2448 Y23.9190
G01 X88.1477 Y23.9334
G01 X88.1101 Y23.9409
G01 X88.0150 Y23.9647
G01 X87.9783 Y23.9759
G01 X87.8859 Y24.0089
G01 X87.8506 Y24.0236
G01 X87.7619 Y24.0655
G01 X87.7281 Y24.0836
G01 X87.6439 Y24.1340
G01 X87.6121 Y24.1553
G01 X87.5333 Y24.2137
G01 X87.5037 Y24.2380
G01 X87.4310 Y24.3039
G01 X87.4039 Y24.3310
G01 X87.3380 Y24.4037
G01 X87.3137 Y24.4333
G01 X87.2903 Y24.4650
G00 Z2.0000
G00 X87.2903 Y27.9650
G01 F60.00
G01 Z-0.1500
G01 F120.00
G01 X87.2903 Y26.1350
G01 X87.3137 Y26.1667
G01 X87.3380 Y26.1963
G01 X87.4039 Y26.2690
G01 X87.4310 Y26.2961
G01 X87.5037 Y26.3620
G01 X87.5333 Y26.3863
G01 X87.6121 Y26.4447
G01 X87.6439 Y26.4660
G01 X87.7281 Y26.5164
G01 X87.7619 Y26.5345
G01 X87.8506 Y26.5764
G01 X87.8859 Y26.5911
G01 X87.9783 Y26.6241
G01 X88.0150 Y26.6353
G01 X88.1101 Y26.6591
G01 X88.1477 Y26.6666
G01 X88.2448 Y26.6810
G01 X88.2828 Y26.6847
G01 X88.3809 Y26.6895
G01 X88.4191 Y26.6895
G01 X88.5172 Y26.6847
G01 X88.5249 Y26.6839
G01 X89.2705 Y27.4295
G01 X89.2844 Y27.4427
G01 X89.3207 Y27.4757
G01 X89.3503 Y27.4999
G01 X89.3898 Y27.5292
G01 X89.4216 Y27.5505
G01 X89.4637 Y27.5757
G01 X89.4974 Y27.5937
G01 X89.5418 Y27.6147
G01 X89.5772 Y27.6294
G01 X89.6234 Y27.6459
G01 X89.6600 Y27.6570
G01 X89.7076 Y27.6690
G01 X89.7452 Y27.6764
G01 X89.7937 Y27.6836
G01 X89.8318 Y27.6874
G01 X89.8809 Y27.6898
G01 X89.9000 Y27.6903
G01 X96.5312 Y27.6903
G01 X96.9163 Y28.0753
G01 X96.9102 Y28.0708
G01 X96.8784 Y28.0495
G01 X96.8363 Y28.0243
G01 X96.8026 Y28.0063
G01 X96.7582 Y27.9853
G01 X96.7228 Y27.9706
G01 X96.6766 Y27.9541
G01 X96.6400 Y27.9430
G01 X96.5924 Y27.9310
G01 X96.5548 Y27.9236
G01 X96.5063 Y27.9164
G01 X96.4682 Y27.9126
G01 X96.4191 Y27.9102
G01 X96.4000 Y27.9097
G01 X89.4669 Y27.9097
G01 X89.4620 Y27.9037
G01 X89.3961 Y27.8310
G01 X89.3690 Y27.8039
G01 X89.2963 Y27.7380
G01 X89.2667 Y27.7137
G01 X89.1879 Y27.6553
G01 X89.1561 Y27.6340
G01 X89.0719 Y27.5836
G01 X89.0381 Y27.5655
G01 X88.9494 Y27.5236
G01 X88.9141 Y27.5089
G01 X88.8217 Y27.4759
G01 X88.7850 Y27.4647
G01 X88.6899 Y27.4409
G01 X88.6523 Y27.4334
G01 X88.5552 Y27.4190
G01 X88.5172 Y27.4153
G01 X88.4191 Y27.4105
G01 X88.3809 Y27.4105
G01 X88.2828 Y27.4153
G01 X88.2448 Y27.4190
G01 X88.1477 Y27.4334
G01 X88.1101 Y27.4409
G01 X88.0150 Y27.4647
G01 X87.9783 Y27.4759
G01 X87.8859 Y27.5089
G01 X87.8506 Y27.5236
G01 X87.7619 Y27.5655
G01 X87.7281 Y27.5836
G01 X87.6439 Y27.6340
G01 X87.6121 Y27.6553
G01 X87.5333 Y27.7137
G01 X87.5037 Y27.7380
G01 X87.4310 Y27.8039
G01 X87.4039 Y27.8310
G01 X87.3380 Y27.9037
G01 X87.3137 Y27.9333
G01 X87.2903 Y27.9650
G00 Z2.0000
G00 X87.2272 Y30.1280
G01 F60.00
G01 Z-0.1500
G01 F120.00
G01 X87.2459 Y30.0766
G01 X87.2570 Y30.0400
G01 X87.2690 Y29.9924
G01 X87.2764 Y29.9548
G01 X87.2836 Y29.9063
G01 X87.2874 Y29.8682
G01 X87.2898 Y29.8191
G01 X87.2903 Y29.8000
G01 X87.2903 Y29.6350
G01 X87.3137 Y29.6667
G01 X87.3380 Y29.6963
G01 X87.4039 Y29.7690
G01 X87.4310 Y29.7961
G01 X87.4982 Y29.8570
G01 X87.2272 Y30.1280
G00 Z2.0000
G00 X80.2497 Y29.5639
G01 F60.00
G01 Z-0.1500
G01 F120.00
G01 X80.2497 Y29.6912
G01 X80.1247 Y29.8163
G01 X80.1292 Y29.8102
G01 X80.1505 Y29.7784
G01 X80.1757 Y29.7363
G01 X80.1937 Y29.7026
G01 X80.2147 Y29.6582
G01 X80.2294 Y29.6228
G01 X80.2459 Y29.5766
G01 X80.2497 Y29.5639
G00 Z2.0000
G00 X75.1669 Y39.1098
G01 F60.00
G01 Z-0.1500
G01 F120.00
G01 X77.9400 Y39.1098
G01 X77.9591 Y39.1102
G01 X78.0082 Y39.1126
G01 X78.0463 Y39.1164
G01 X78.0948 Y39.1236
G01 X78.1324 Y39.1311
G01 X78.1800 Y39.1430
G01 X78.2166 Y39.1541
G01 X78.2628 Y39.1706
G01 X78.2982 Y39.1853
G01 X78.3426 Y39.2063
G01 X78.3763 Y39.2243
G01 X78.4184 Y39.2495
G01 X78.4502 Y39.2708
G01 X78.4897 Y39.3001
G01 X78.5193 Y39.3243
G01 X78.5556 Y39.3573
G01 X78.5695 Y39.3705
G01 X78.6151 Y39.4161
G01 X78.6228 Y39.4153
G01 X78.7209 Y39.4105
G01 X78.7591 Y39.4105
G01 X78.8572 Y39.4153
G01 X78.8952 Y39.4190
G01 X78.9923 Y39.4334
G01 X79.0299 Y39.4409
G01 X79.1250 Y39.4647
G01 X79.1617 Y39.4759
G01 X79.2541 Y39.5089
G01 X79.2894 Y39.5236
G01 X79.3781 Y39.5655
G01 X79.4119 Y39.5836
G01 X79.4961 Y39.6340
G01 X79.5279 Y39.6553
G01 X79.6067 Y39.7137
G01 X79.6363 Y39.7380
G01 X79.7090 Y39.8039
G01 X79.7361 Y39.8310
G01 X79.8020 Y39.9037
G01 X79.8263 Y39.9333
G01 X79.8847 Y40.0121
G01 X79.9060 Y40.0439
G01 X79.9564 Y40.1281
G01 X79.9745 Y40.1619
G01 X80.0164 Y40.2506
G01 X80.0311 Y40.2859
G01 X80.0641 Y40.3783
G01 X80.0753 Y40.4150
G01 X80.0991 Y40.5101
G01 X80.1066 Y40.5477
G01 X80.1210 Y40.6448
G01 X80.1247 Y40.6828
G01 X80.1295 Y40.7809
G01 X80.1295 Y40.8191
G01 X80.1247 Y40.9172
G01 X80.1210 Y40.9552
G01 X80.1066 Y41.0523
G01 X80.0991 Y41.0899
G01 X80.0753 Y41.1850
G01 X80.0641 Y41.2217
G01 X80.0311 Y41.3141
G01 X80.0164 Y41.3494
G01 X79.9745 Y41.4381
G01 X79.9564 Y41.4719
G01 X79.9060 Y41.5561
G01 X79.8847 Y41.5879
G01 X79.8263 Y41.6667
G01 X79.8020 Y41.6963
G01 X79.7361 Y41.7690
G01 X79.7090 Y41.7961
G01 X79.6363 Y41.8620
G01 X79.6067 Y41.8863
G01 X79.5279 Y41.9447
G01 X79.4961 Y41.9660
G01 X79.4119 Y42.0164
G01 X79.3781 Y42.0345
G01 X79.2894 Y42.0764
G01 X79.2541 Y42.0911
G01 X79.1617 Y42.1241
G01 X79.1250 Y42.1353
G01 X79.0299 Y42.1591
G01 X78.9923 Y42.1666
G01 X78.8952 Y42.1810
G01 X78.8572 Y42.1847
G01 X78.7591 Y42.1895
G01 X78.7209 Y42.1895
G01 X78.6228 Y42.1847
G01 X78.5848 Y42.1810
G01 X78.4877 Y42.1666
G01 X78.4501 Y42.1591
G01 X78.3550 Y42.1353
G01 X78.3183 Y42.1241
G01 X78.2259 Y42.0911
G01 X78.1906 Y42.0764
G01 X78.1019 Y42.0345
G01 X78.0681 Y42.0164
G01 X77.9839 Y41.9660
G01 X77.9521 Y41.9447
G01 X77.8733 Y41.8863
G01 X77.8437 Y41.8620
G01 X77.7710 Y41.7961
G01 X77.7439 Y41.7690
G01 X77.6780 Y41.6963
G01 X77.6537 Y41.6667
G01 X77.5953 Y41.5879
G01 X77.5740 Y41.5561
G01 X77.5236 Y41.4719
G01 X77.5055 Y41.4381
G01 X77.4636 Y41.3494
G01 X77.4489 Y41.3141
G01 X77.4159 Y41.2217
G01 X77.4047 Y41.1850
G01 X77.3809 Y41.0899
G01 X77.3734 Y41.0523
G01 X77.3590 Y40.9552
G01 X77.3553 Y40.9172
G01 X77.3540 Y40.8903
G01 X75.1669 Y40.8903
G01 X75.1620 Y40.8963
G01 X75.0961 Y40.9690
G01 X75.0690 Y40.9961
G01 X74.9963 Y41.0620
G01 X74.9667 Y41.0863
G01 X74.8879 Y41.1447
G01 X74.8561 Y41.1660
G01 X74.7719 Y41.2164
G01 X74.7381 Y41.2345
G01 X74.6494 Y41.2764
G01 X74.6141 Y41.2911
G01 X74.5217 Y41.3241
G01 X74.4850 Y41.3353
G01 X74.3899 Y41.3591
G01 X74.3523 Y41.3666
G01 X74.2552 Y41.3810
G01 X74.2172 Y41.3847
G01 X74.1191 Y41.3895
G01 X74.0809 Y41.3895
G01 X73.9828 Y41.3847
G01 X73.9448 Y41.3810
G01 X73.8477 Y41.3666
G01 X73.8101 Y41.3591
G01 X73.7150 Y41.3353
G01 X73.6783 Y41.3241
G01 X73.5859 Y41.2911
G01 X73.5506 Y41.2764
G01 X73.4619 Y41.2345
G01 X73.4281 Y41.2164
G01 X73.3439 Y41.1660
G01 X73.3121 Y41.1447
G01 X73.2333 Y41.0863
G01 X73.2037 Y41.0620
G01 X73.1310 Y40.9961
G01 X73.1039 Y40.9690
G01 X73.0380 Y40.8963
G01 X73.0137 Y40.8667
G01 X72.9553 Y40.7879
G01 X72.9340 Y40.7561
G01 X72.8836 Y40.6719
G01 X72.8655 Y40.6381
G01 X72.8236 Y40.5494
G01 X72.8089 Y40.5141
G01 X72.7759 Y40.4217
G01 X72.7647 Y40.3850
G01 X72.7409 Y40.2899
G01 X72.7334 Y40.2523
G01 X72.7190 Y40.1552
G01 X72.7153 Y40.1172
G01 X72.7105 Y40.0191
G01 X72.7105 Y39.9809
G01 X72.7153 Y39.8828
G01 X72.7190 Y39.8448
G01 X72.7334 Y39.7477
G01 X72.7409 Y39.7101
G01 X72.7647 Y39.6150
G01 X72.7759 Y39.5783
G01 X72.8089 Y39.4859
G01 X72.8236 Y39.4506
G01 X72.8655 Y39.3619
G01 X72.8836 Y39.3281
G01 X72.9340 Y39.2439
G01 X72.9553 Y39.2121
G01 X73.0137 Y39.1333
G01 X73.0380 Y39.1037
G01 X73.1039 Y39.0310
G01 X73.1310 Y39.0039
G01 X73.2037 Y38.9380
G01 X73.2333 Y38.9137
G01 X73.3121 Y38.8553
G01 X73.3439 Y38.8340
G01 X73.4281 Y38.7836
G01 X73.4619 Y38.7655
G01 X73.5506 Y38.7236
G01 X73.5859 Y38.7089
G01 X73.6783 Y38.6759
G01 X73.7150 Y38.6647
G01 X73.8101 Y38.6409
G01 X73.8477 Y38.6334
G01 X73.9448 Y38.6190
G01 X73.9828 Y38.6153
G01 X74.0809 Y38.6105
G01 X74.1191 Y38.6105
G01 X74.2172 Y38.6153
G01 X74.2552 Y38.6190
G01 X74.3523 Y38.6334
G01 X74.3899 Y38.6409
G01 X74.4850 Y38.6647
G01 X74.5217 Y38.6759
G01 X74.6141 Y38.7089
G01 X74.6494 Y38.7236
G01 X74.7381 Y38.7655
G01 X74.7719 Y38.7836
G01 X74.8561 Y38.8340
G01 X74.8879 Y38.8553
G01 X74.9667 Y38.9137
G01 X74.9963 Y38.9380
G01 X75.0690 Y39.0039
G01 X75.0961 Y39.0310
G01 X75.1620 Y39.1037
G01 X75.1669 Y39.1098
G00 Z2.0000
G00 X74.4669 Y42.9097
G01 F60.00
G01 Z-0.1500
G01 F120.00
G01 X77.6731 Y42.9097
G01 X77.6780 Y42.9037
G01 X77.7439 Y42.8310
G01 X77.7710 Y42.8039
G01 X77.8437 Y42.7380
G01 X77.8733 Y42.7137
G01 X77.9521 Y42.6553
G01 X77.9839 Y42.6340
G01 X78.0681 Y42.5836
G01 X78.1019 Y42.5655
G01 X78.1906 Y42.5236
G01 X78.2259 Y42.5089
G01 X78.3183 Y42.4759
G01 X78.3550 Y42.4647
G01 X78.4501 Y42.4409
G01 X78.4877 Y42.4334
G01 X78.5848 Y42.4190
G01 X78.6228 Y42.4153
G01 X78.7209 Y42.4105
G01 X78.7591 Y42.4105
G01 X78.8572 Y42.4153
G01 X78.8952 Y42.4190
G01 X78.9923 Y42.4334
G01 X79.0299 Y42.4409
G01 X79.1250 Y42.4647
G01 X79.1617 Y42.4759
G01 X79.2541 Y42.5089
G01 X79.2894 Y42.5236
G01 X79.3781 Y42.5655
G01 X79.4119 Y42.5836
G01 X79.4961 Y42.6340
G01 X79.5279 Y42.6553
G01 X79.6067 Y42.7137
G01 X79.6363 Y42.7380
G01 X79.7090 Y42.8039
G01 X79.7361 Y42.8310
G01 X79.8020 Y42.9037
G01 X79.8263 Y42.9333
G01 X79.8847 Y43.0121
G01 X79.9060 Y43.0439
G01 X79.9564 Y43.1281
G01 X79.9745 Y43.1619
G01 X80.0164 Y43.2506
G01 X80.0311 Y43.2859
G01 X80.0641 Y43.3783
G01 X80.0753 Y43.4150
G01 X80.0991 Y43.5101
G01 X80.1066 Y43.5477
G01 X80.1210 Y43.6448
G01 X80.1247 Y43.6828
G01 X80.1295 Y43.7809
G01 X80.1295 Y43.8191
G01 X80.1247 Y43.9172
G01 X80.1210 Y43.9552
G01 X80.1066 Y44.0523
G01 X80.0991 Y44.0899
G01 X80.0753 Y44.1850
G01 X80.0641 Y44.2217
G01 X80.0311 Y44.3141
G01 X80.0164 Y44.3494
G01 X79.9745 Y44.4381
G01 X79.9564 Y44.4719
G01 X79.9060 Y44.5561
G01 X79.8847 Y44.5879
G01 X79.8263 Y44.6667
G01 X79.8020 Y44.6963
G01 X79.7361 Y44.7690
G01 X79.7090 Y44.7961
G01 X79.6363 Y44.8620
G01 X79.6067 Y44.8863
G01 X79.5279 Y44.9447
G01 X79.4961 Y44.9660
G01 X79.4119 Y45.0164
G01 X79.3781 Y45.0345
G01 X79.2894 Y45.0764
G01 X79.2541 Y45.0911
G01 X79.1617 Y45.1241
G01 X79.1250 Y45.1353
G01 X79.0299 Y45.1591
G01 X78.9923 Y45.1666
G01 X78.8952 Y45.1810
G01 X78.8572 Y45.1847
G01 X78.7591 Y45.1895
G01 X78.7209 Y45.1895
G01 X78.6228 Y45.1847
G01 X78.5848 Y45.1810
G01 X78.4877 Y45.1666
G01 X78.4501 Y45.1591
G01 X78.3550 Y45.1353
G01 X78.3183 Y45.1241
G01 X78.2259 Y45.0911
G01 X78.1906 Y45.0764
G01 X78.1019 Y45.0345
G01 X78.0681 Y45.0164
G01 X77.9839 Y44.9660
G01 X77.9521 Y44.9447
G01 X77.8733 Y44.8863
G01 X77.8437 Y44.8620
G01 X77.7710 Y44.7961
G01 X77.7439 Y44.7690
G01 X77.6780 Y44.6963
G01 X77.6731 Y44.6903
G01 X74.4669 Y44.6903
G01 X74.4620 Y44.6963
G01 X74.3961 Y44.7690
G01 X74.3690 Y44.7961
G01 X74.2963 Y44.8620
G01 X74.2667 Y44.8863
G01 X74.1879 Y44.9447
G01 X74.1561 Y44.9660
G01 X74.0719 Y45.0164
G01 X74.0381 Y45.0345
G01 X73.9494 Y45.0764
G01 X73.9141 Y45.0911
G01 X73.8217 Y45.1241
G01 X73.7850 Y45.1353
G01 X73.6899 Y45.1591
G01 X73.6523 Y45.1666
G01 X73.5552 Y45.1810
G01 X73.5172 Y45.1847
G01 X73.4191 Y45.1895
G01 X73.3809 Y45.1895
G01 X73.2828 Y45.1847
G01 X73.2448 Y45.1810
G01 X73.1477 Y45.1666
G01 X73.1101 Y45.1591
G01 X73.0150 Y45.1353
G01 X72.9783 Y45.1241
G01 X72.8859 Y45.0911
G01 X72.8506 Y45.0764
G01 X72.7619 Y45.0345
G01 X72.7281 Y45.0164
G01 X72.6439 Y44.9660
G01 X72.6121 Y44.9447
G01 X72.5333 Y44.8863
G01 X72.5037 Y44.8620
G01 X72.4310 Y44.7961
G01 X72.4039 Y44.7690
G01 X72.3380 Y44.6963
G01 X72.3137 Y44.6667
G01 X72.2553 Y44.5879
G01 X72.2340 Y44.5561
G01 X72.1836 Y44.4719
G01 X72.1655 Y44.4381
G01 X72.1236 Y44.3494
G01 X72.1089 Y44.3141
G01 X72.0759 Y44.2217
G01 X72.0647 Y44.1850
G01 X72.0409 Y44.0899
G01 X72.0334 Y44.0523
G01 X72.0190 Y43.9552
G01 X72.0153 Y43.9172
G01 X72.0105 Y43.8191
G01 X72.0105 Y43.7809
G01 X72.0153 Y43.6828
G01 X72.0190 Y43.6448
G01 X72.0334 Y43.5477
G01 X72.0409 Y43.5101
G01 X72.0647 Y43.4150
G01 X72.0759 Y43.3783
G01 X72.1089 Y43.2859
G01 X72.1236 Y43.2506
G01 X72.1655 Y43.1619
G01 X72.1836 Y43.1281
G01 X72.2340 Y43.0439
G01 X72.2553 Y43.0121
G01 X72.3137 Y42.9333
G01 X72.3380 Y42.9037
G01 X72.4039 Y42.8310
G01 X72.4310 Y42.8039
G01 X72.5037 Y42.7380
G01 X72.5333 Y42.7137
G01 X72.6121 Y42.6553
G01 X72.6439 Y42.6340
G01 X72.7281 Y42.5836
G01 X72.7619 Y42.5655
G01 X72.8506 Y42.5236
G01 X72.8859 Y42.5089
G01 X72.9783 Y42.4759
G01 X73.0150 Y42.4647
G01 X73.1101 Y42.4409
G01 X73.1477 Y42.4334
G01 X73.2448 Y42.4190
G01 X73.2828 Y42.4153
G01 X73.3809 Y42.4105
G01 X73.4191 Y42.4105
G01 X73.5172 Y42.4153
G01 X73.5552 Y42.4190
G01 X73.6523 Y42.4334
G01 X73.6899 Y42.4409
G01 X73.7850 Y42.4647
G01 X73.8217 Y42.4759
G01 X73.9141 Y42.5089
G01 X73.9494 Y42.5236
G01 X74.0381 Y42.5655
G01 X74.0719 Y42.5836
G01 X74.1561 Y42.6340
G01 X74.1879 Y42.6553
G01 X74.2667 Y42.7137
G01 X74.2963 Y42.7380
G01 X74.3690 Y42.8039
G01 X74.3961 Y42.8310
G01 X74.4620 Y42.9037
G01 X74.4669 Y42.9097
G00 Z2.0000
G00 X74.7169 Y46.6597
G01 F60.00
G01 Z-0.1500
G01 F120.00
G01 X77.5066 Y46.6597
G01 X77.5236 Y46.6281
G01 X77.5740 Y46.5439
G01 X77.5953 Y46.5121
G01 X77.6537 Y46.4333
G01 X77.6780 Y46.4037
G01 X77.7439 Y46.3310
G01 X77.7710 Y46.3039
G01 X77.8437 Y46.2380
G01 X77.8733 Y46.2137
G01 X77.9521 Y46.1553
G01 X77.9839 Y46.1340
G01 X78.0681 Y46.0836
G01 X78.1019 Y46.0655
G01 X78.1906 Y46.0236
G01 X78.2259 Y46.0089
G01 X78.3183 Y45.9759
G01 X78.3550 Y45.9647
G01 X78.4501 Y45.9409
G01 X78.4877 Y45.9334
G01 X78.5848 Y45.9190
G01 X78.6228 Y45.9153
G01 X78.7209 Y45.9105
G01 X78.7591 Y45.9105
G01 X78.8572 Y45.9153
G01 X78.8952 Y45.9190
G01 X78.9923 Y45.9334
G01 X79.0299 Y45.9409
G01 X79.1250 Y45.9647
G01 X79.1617 Y45.9759
G01 X79.2541 Y46.0089
G01 X79.2894 Y46.0236
G01 X79.3781 Y46.0655
G01 X79.4119 Y46.0836
G01 X79.4961 Y46.1340
G01 X79.5279 Y46.1553
G01 X79.6067 Y46.2137
G01 X79.6363 Y46.2380
G01 X79.7090 Y46.3039
G01 X79.7361 Y46.3310
G01 X79.8020 Y46.4037
G01 X79.8263 Y46.4333
G01 X79.8847 Y46.5121
G01 X79.9060 Y46.5439
G01 X79.9564 Y46.6281
G01 X79.9745 Y46.6619
G01 X80.0164 Y46.7506
G01 X80.0311 Y46.7859
G01 X80.0641 Y46.8783
G01 X80.0753 Y46.9150
G01 X80.0991 Y47.0101
G01 X80.1066 Y47.0477
G01 X80.1210 Y47.1448
G01 X80.1247 Y47.1828
G01 X80.1295 Y47.2809
G01 X80.1295 Y47.3191
G01 X80.1247 Y47.4172
G01 X80.1210 Y47.4552
G01 X80.1066 Y47.5523
G01 X80.0991 Y47.5899
G01 X80.0753 Y47.6850
G01 X80.0641 Y47.7217
G01 X80.0311 Y47.8141
G01 X80.0164 Y47.8494
G01 X79.9745 Y47.9381
G01 X79.9564 Y47.9719
G01 X79.9060 Y48.0561
G01 X79.8847 Y48.0879
G01 X79.8263 Y48.1667
G01 X79.8020 Y48.1963
G01 X79.7361 Y48.2690
G01 X79.7090 Y48.2961
G01 X79.6363 Y48.3620
G01 X79.6067 Y48.3863
G01 X79.5279 Y48.4447
G01 X79.4961 Y48.4660
G01 X79.4119 Y48.5164
G01 X79.3781 Y48.5345
G01 X79.2894 Y48.5764
G01 X79.2541 Y48.5911
G01 X79.1617 Y48.6241
G01 X79.1250 Y48.6353
G01 X79.0299 Y48.6591
G01 X78.9923 Y48.6666
G01 X78.8952 Y48.6810
G01 X78.8572 Y48.6847
G01 X78.7591 Y48.6895
G01 X78.7209 Y48.6895
G01 X78.6228 Y48.6847
G01 X78.5848 Y48.6810
G01 X78.4877 Y48.6666
G01 X78.4501 Y48.6591
G01 X78.3550 Y48.6353
G01 X78.3183 Y48.6241
G01 X78.2259 Y48.5911
G01 X78.1906 Y48.5764
G01 X78.1019 Y48.5345
G01 X78.0681 Y48.5164
G01 X77.9839 Y48.4660
G01 X77.9521 Y48.4447
G01 X77.9461 Y48.4403
G01 X74.7169 Y48.4403
G01 X74.7120 Y48.4463
G01 X74.6461 Y48.5190
G01 X74.6190 Y48.5461
G01 X74.5463 Y48.6120
G01 X74.5167 Y48.6363
G01 X74.4379 Y48.6947
G01 X74.4061 Y48.7160
G01 X74.3219 Y48.7664
G01 X74.2881 Y48.7845
G01 X74.1994 Y48.8264
G01 X74.1641 Y48.8411
G01 X74.0717 Y48.8741
G01 X74.0350 Y48.8853
G01 X73.9399 Y48.9091
G01 X73.9023 Y48.9166
G01 X73.8052 Y48.9310
G01 X73.7672 Y48.9347
G01 X73.6691 Y48.9395
G01 X73.6309 Y48.9395
G01 X73.5328 Y48.9347
G01 X73.4948 Y48.9310
G01 X73.3977 Y48.9166
G01 X73.3601 Y48.9091
G01 X73.2650 Y48.8853
G01 X73.2283 Y48.8741
G01 X73.1359 Y48.8411
G01 X73.1006 Y48.8264
G01 X73.0119 Y48.7845
G01 X72.9781 Y48.7664
G01 X72.8939 Y48.7160
G01 X72.8621 Y48.6947
G01 X72.7833 Y48.6363
G01 X72.7537 Y48.6120
G01 X72.6810 Y48.5461
G01 X72.6539 Y48.5190
G01 X72.5880 Y48.4463
G01 X72.5637 Y48.4167
G01 X72.5053 Y48.3379
G01 X72.4840 Y48.3061
G01 X72.4336 Y48.2219
G01 X72.4155 Y48.1881
G01 X72.3736 Y48.0994
G01 X72.3589 Y48.0641
G01 X72.3259 Y47.9717
G01 X72.3147 Y47.9350
G01 X72.2909 Y47.8399
G01 X72.2834 Y47.8023
G01 X72.2690 Y47.7052
G01 X72.2653 Y47.6672
G01 X72.2605 Y47.5691
G01 X72.2605 Y47.5309
G01 X72.2653 Y47.4328
G01 X72.2690 Y47.3948
G01 X72.2834 Y47.2977
G01 X72.2909 Y47.2601
G01 X72.3147 Y47.1650
G01 X72.3259 Y47.1283
G01 X72.3589 Y47.0359
G01 X72.3736 Y47.0006
G01 X72.4155 Y46.9119
G01 X72.4336 Y46.8781
G01 X72.4840 Y46.7939
G01 X72.5053 Y46.7621
G01 X72.5637 Y46.6833
G01 X72.5880 Y46.6537
G01 X72.6539 Y46.5810
G01 X72.6810 Y46.5539
G01 X72.7537 Y46.4880
G01 X72.7833 Y46.4637
G01 X72.8621 Y46.4053
G01 X72.8939 Y46.3840
G01 X72.9781 Y46.3336
G01 X73.0119 Y46.3155
G01 X73.1006 Y46.2736
G01 X73.1359 Y46.2589
G01 X73.2283 Y46.2259
G01 X73.2650 Y46.2147
G01 X73.3601 Y46.1909
G01 X73.3977 Y46.1834
G01 X73.4948 Y46.1690
G01 X73.5328 Y46.1653
G01 X73.6309 Y46.1605
G01 X73.6691 Y46.1605
G01 X73.7672 Y46.1653
G01 X73.8052 Y46.1690
G01 X73.9023 Y46.1834
G01 X73.9399 Y46.1909
G01 X74.0350 Y46.2147
G01 X74.0717 Y46.2259
G01 X74.1641 Y46.2589
G01 X74.1994 Y46.2736
G01 X74.2881 Y46.3155
G01 X74.3219 Y46.3336
G01 X74.4061 Y46.3840
G01 X74.4379 Y46.4053
G01 X74.5167 Y46.4637
G01 X74.5463 Y46.4880
G01 X74.6190 Y46.5539
G01 X74.6461 Y46.5810
G01 X74.7120 Y46.6537
G01 X74.7169 Y46.6597
G00 Z2.0000
G00 X76.7849 Y49.9161
G01 F60.00
G01 Z-0.1500
G01 F120.00
G01 X77.0305 Y49.6705
G01 X77.0444 Y49.6573
G01 X77.0807 Y49.6243
G01 X77.1103 Y49.6001
G01 X77.1498 Y49.5708
G01 X77.1816 Y49.5495
G01 X77.2237 Y49.5243
G01 X77.2574 Y49.5063
G01 X77.3018 Y49.4853
G01 X77.3372 Y49.4706
G01 X77.3834 Y49.4541
G01 X77.4200 Y49.4430
G01 X77.4676 Y49.4311
G01 X77.5052 Y49.4236
G01 X77.5537 Y49.4164
G01 X77.5918 Y49.4126
G01 X77.6409 Y49.4102
G01 X77.6600 Y49.4098
G01 X83.5312 Y49.4098
G01 X85.5097 Y47.4312
G01 X85.5097 Y35.3000
G01 X85.5102 Y35.2809
G01 X85.5126 Y35.2318
G01 X85.5164 Y35.1937
G01 X85.5236 Y35.1452
G01 X85.5310 Y35.1076
G01 X85.5430 Y35.0600
G01 X85.5541 Y35.0234
G01 X85.5706 Y34.9772
G01 X85.5853 Y34.9418
G01 X85.6063 Y34.8974
G01 X85.6243 Y34.8637
G01 X85.6495 Y34.8216
G01 X85.6708 Y34.7898
G01 X85.7001 Y34.7503
G01 X85.7243 Y34.7207
G01 X85.7573 Y34.6844
G01 X85.7705 Y34.6705
G01 X89.2705 Y31.1705
G01 X89.2844 Y31.1573
G01 X89.3207 Y31.1243
G01 X89.3503 Y31.1001
G01 X89.3898 Y31.0708
G01 X89.4216 Y31.0495
G01 X89.4637 Y31.0243
G01 X89.4974 Y31.0063
G01 X89.5418 Y30.9853
G01 X89.5772 Y30.9706
G01 X89.6234 Y30.9541
G01 X89.6600 Y30.9430
G01 X89.7076 Y30.9310
G01 X89.7452 Y30.9236
G01 X89.7937 Y30.9164
G01 X89.8306 Y30.9128
G01 X89.8380 Y30.9037
G01 X89.9039 Y30.8310
G01 X89.9310 Y30.8039
G01 X90.0037 Y30.7380
G01 X90.0333 Y30.7137
G01 X90.1121 Y30.6553
G01 X90.1439 Y30.6340
G01 X90.2281 Y30.5836
G01 X90.2619 Y30.5655
G01 X90.3506 Y30.5236
G01 X90.3859 Y30.5089
G01 X90.4783 Y30.4759
G01 X90.5150 Y30.4647
G01 X90.6101 Y30.4409
G01 X90.6477 Y30.4334
G01 X90.7448 Y30.4190
G01 X90.7828 Y30.4153
G01 X90.8809 Y30.4105
G01 X90.9191 Y30.4105
G01 X91.0172 Y30.4153
G01 X91.0552 Y30.4190
G01 X91.1523 Y30.4334
G01 X91.1899 Y30.4409
G01 X91.2850 Y30.4647
G01 X91.3217 Y30.4759
G01 X91.4141 Y30.5089
G01 X91.4494 Y30.5236
G01 X91.5381 Y30.5655
G01 X91.5719 Y30.5836
G01 X91.6561 Y30.6340
G01 X91.6879 Y30.6553
G01 X91.7667 Y30.7137
G01 X91.7963 Y30.7380
G01 X91.8690 Y30.8039
G01 X91.8961 Y30.8310
G01 X91.9620 Y30.9037
G01 X91.9863 Y30.9333
G01 X92.0447 Y31.0121
G01 X92.0660 Y31.0439
G01 X92.1164 Y31.1281
G01 X92.1345 Y31.1619
G01 X92.1764 Y31.2506
G01 X92.1911 Y31.2859
G01 X92.2241 Y31.3783
G01 X92.2353 Y31.4150
G01 X92.2591 Y31.5101
G01 X92.2666 Y31.5477
G01 X92.2810 Y31.6448
G01 X92.2847 Y31.6828
G01 X92.2895 Y31.7809
G01 X92.2895 Y31.8191
G01 X92.2847 Y31.9172
G01 X92.2810 Y31.9552
G01 X92.2666 Y32.0523
G01 X92.2591 Y32.0899
G01 X92.2353 Y32.1850
G01 X92.2241 Y32.2217
G01 X92.1911 Y32.3141
G01 X92.1764 Y32.3494
G01 X92.1345 Y32.4381
G01 X92.1164 Y32.4719
G01 X92.0660 Y32.5561
G01 X92.0447 Y32.5879
G01 X91.9863 Y32.6667
G01 X91.9620 Y32.6963
G01 X91.8961 Y32.7690
G01 X91.8690 Y32.7961
G01 X91.7963 Y32.8620
G01 X91.7667 Y32.8863
G01 X91.6879 Y32.9447
G01 X91.6561 Y32.9660
G01 X91.5719 Y33.0164
G01 X91.5381 Y33.0345
G01 X91.4494 Y33.0764
G01 X91.4141 Y33.0911
G01 X91.3217 Y33.1241
G01 X91.2850 Y33.1353
G01 X91.1899 Y33.1591
G01 X91.1523 Y33.1666
G01 X91.0552 Y33.1810
G01 X91.0172 Y33.1847
G01 X90.9191 Y33.1895
G01 X90.8809 Y33.1895
G01 X90.7828 Y33.1847
G01 X90.7448 Y33.1810
G01 X90.6477 Y33.1666
G01 X90.6101 Y33.1591
G01 X90.5150 Y33.1353
G01 X90.4783 Y33.1241
G01 X90.3859 Y33.0911
G01 X90.3506 Y33.0764
G01 X90.2619 Y33.0345
G01 X90.2281 Y33.0164
G01 X90.1439 Y32.9660
G01 X90.1121 Y32.9447
G01 X90.0559 Y32.9031
G01 X87.2903 Y35.6688
G01 X87.2903 Y47.8000
G01 X87.2898 Y47.8191
G01 X87.2874 Y47.8682
G01 X87.2836 Y47.9063
G01 X87.2764 Y47.9548
G01 X87.2690 Y47.9924
G01 X87.2570 Y48.0400
G01 X87.2459 Y48.0766
G01 X87.2294 Y48.1228
G01 X87.2147 Y48.1582
G01 X87.1937 Y48.2026
G01 X87.1757 Y48.2363
G01 X87.1505 Y48.2784
G01 X87.1292 Y48.3102
G01 X87.0999 Y48.3497
G01 X87.0757 Y48.3793
G01 X87.0427 Y48.4156
G01 X87.0295 Y48.4295
G01 X84.5295 Y50.9295
G01 X84.5156 Y50.9427
G01 X84.4793 Y50.9757
G01 X84.4497 Y51.0000
G01 X84.4102 Y51.0292
G01 X84.3784 Y51.0505
G01 X84.3363 Y51.0757
G01 X84.3026 Y51.0937
G01 X84.2582 Y51.1147
G01 X84.2228 Y51.1294
G01 X84.1766 Y51.1459
G01 X84.1400 Y51.1570
G01 X84.0924 Y51.1690
G01 X84.0548 Y51.1764
G01 X84.0063 Y51.1836
G01 X83.9682 Y51.1874
G01 X83.9191 Y51.1898
G01 X83.9000 Y51.1903
G01 X78.0451 Y51.1903
G01 X78.0495 Y51.2809
G01 X78.0495 Y51.3191
G01 X78.0447 Y51.4172
G01 X78.0439 Y51.4249
G01 X79.3695 Y52.7505
G01 X79.3827 Y52.7644
G01 X79.4157 Y52.8007
G01 X79.4399 Y52.8303
G01 X79.4692 Y52.8698
G01 X79.4905 Y52.9016
G01 X79.5157 Y52.9437
G01 X79.5337 Y52.9774
G01 X79.5547 Y53.0218
G01 X79.5694 Y53.0572
G01 X79.5859 Y53.1034
G01 X79.5970 Y53.1400
G01 X79.6090 Y53.1876
G01 X79.6164 Y53.2252
G01 X79.6236 Y53.2737
G01 X79.6274 Y53.3118
G01 X79.6298 Y53.3609
G01 X79.6303 Y53.3800
G01 X79.6303 Y55.3117
G01 X79.6474 Y55.3306
G01 X79.6717 Y55.3602
G01 X79.7184 Y55.4232
G01 X79.7397 Y55.4550
G01 X79.7801 Y55.5224
G01 X79.7981 Y55.5561
G01 X79.8317 Y55.6271
G01 X79.8463 Y55.6625
G01 X79.8728 Y55.7364
G01 X79.8839 Y55.7730
G01 X79.9029 Y55.8492
G01 X79.9104 Y55.8867
G01 X79.9219 Y55.9644
G01 X79.9257 Y56.0024
G01 X79.9295 Y56.0809
G01 X79.9300 Y56.1000
G01 X79.9300 Y56.5000
G01 X79.9295 Y56.5191
G01 X79.9257 Y56.5976
G01 X79.9219 Y56.6356
G01 X79.9104 Y56.7133
G01 X79.9029 Y56.7508
G01 X79.8839 Y56.8270
G01 X79.8728 Y56.8636
G01 X79.8463 Y56.9375
G01 X79.8317 Y56.9729
G01 X79.7981 Y57.0439
G01 X79.7801 Y57.0776
G01 X79.7397 Y57.1450
G01 X79.7184 Y57.1768
G01 X79.6717 Y57.2398
G01 X79.6474 Y57.2694
G01 X79.5947 Y57.3276
G01 X79.5676 Y57.3547
G01 X79.5094 Y57.4074
G01 X79.4798 Y57.4317
G01 X79.4168 Y57.4784
G01 X79.3850 Y57.4997
G01 X79.3176 Y57.5401
G01 X79.2839 Y57.5581
G01 X79.2129 Y57.5917
G01 X79.1775 Y57.6063
G01 X79.1036 Y57.6328
G01 X79.0670 Y57.6439
G01 X78.9908 Y57.6629
G01 X78.9533 Y57.6704
G01 X78.8756 Y57.6819
G01 X78.8376 Y57.6857
G01 X78.7591 Y57.6895
G01 X78.7209 Y57.6895
G01 X78.6424 Y57.6857
G01 X78.6044 Y57.6819
G01 X78.5267 Y57.6704
G01 X78.4892 Y57.6629
G01 X78.4130 Y57.6439
G01 X78.3764 Y57.6328
G01 X78.3025 Y57.6063
G01 X78.2671 Y57.5917
G01 X78.1961 Y57.5581
G01 X78.1624 Y57.5401
G01 X78.0950 Y57.4997
G01 X78.0632 Y57.4784
G01 X78.0002 Y57.4317
G01 X77.9706 Y57.4074
G01 X77.9124 Y57.3547
G01 X77.8853 Y57.3276
G01 X77.8326 Y57.2694
G01 X77.8083 Y57.2398
G01 X77.7616 Y57.1768
G01 X77.7403 Y57.1450
G01 X77.6999 Y57.0776
G01 X77.6819 Y57.0439
G01 X77.6483 Y56.9729
G01 X77.6337 Y56.9375
G01 X77.6072 Y56.8636
G01 X77.5961 Y56.8270
G01 X77.5771 Y56.7508
G01 X77.5696 Y56.7133
G01 X77.5581 Y56.6356
G01 X77.5543 Y56.5976
G01 X77.5505 Y56.5191
G01 X77.5500 Y56.5000
G01 X77.5500 Y56.1000
G01 X77.5505 Y56.0809
G01 X77.5543 Y56.0024
G01 X77.5581 Y55.9644
G01 X77.5696 Y55.8867
G01 X77.5771 Y55.8492
G01 X77.5961 Y55.7730
G01 X77.6072 Y55.7364
G01 X77.6337 Y55.6625
G01 X77.6483 Y55.6271
G01 X77.6819 Y55.5561
G01 X77.6999 Y55.5224
G01 X77.7403 Y55.4550
G01 X77.7616 Y55.4232
G01 X77.8083 Y55.3602
G01 X77.8326 Y55.3306
G01 X77.8497 Y55.3117
G01 X77.8497 Y53.7488
G01 X76.7849 Y52.6839
G01 X76.7772 Y52.6847
G01 X76.6791 Y52.6895
G01 X76.6409 Y52.6895
G01 X76.5428 Y52.6847
G01 X76.5048 Y52.6810
G01 X76.4077 Y52.6666
G01 X76.3701 Y52.6591
G01 X76.2750 Y52.6353
G01 X76.2383 Y52.6241
G01 X76.1459 Y52.5911
G01 X76.1106 Y52.5764
G01 X76.0219 Y52.5345
G01 X75.9881 Y52.5164
G01 X75.9039 Y52.4660
G01 X75.8721 Y52.4447
G01 X75.7933 Y52.3863
G01 X75.7637 Y52.3620
G01 X75.6910 Y52.2961
