(G-CODE GENERATED BY FLATCAM v8.991 - www.flatcam.org - Version Date: 2019/12/27)

(Name: 4)
(Type: G-code from Geometry)
(Units: MM)

(Created on Tuesday, 14 April 2020 at 12:44)

(TOOL DIAMETER: 0.3 mm)
(Feedrate: 120.0 mm/min)
(Feedrate_Z: 60.0 mm/min)
(Feedrate rapids 1500.0 mm/min)

(Z_Cut: -0.15 mm)
(Z_Move: 2.0 mm)
(Z Toolchange: 15.0 mm)
(X,Y Toolchange: 0.0000, 0.0000 mm)
(Z Start: None mm)
(Z End: 4.0 mm)
(Steps per circle: 64)
(Preprocessor Geometry: default)

(X range:    2.8906 ...  126.9094  mm)
(Y range:    1.0706 ...   62.8094  mm)

(Spindle Speed: None RPM)
G21
G90
G94




G01 F120.00
G00 Z2.0000

M03
G00 X7.8948 Y5.0291
G01 F60.00
G01 Z-0.1500
G01 F120.00
G01 X7.8998 Y5.0789
G01 X7.9094 Y5.2750
G01 X7.9094 Y5.3250
G01 X7.8998 Y5.5211
G01 X7.8948 Y5.5709
G01 X7.8661 Y5.7650
G01 X7.8563 Y5.8141
G01 X7.8086 Y6.0045
G01 X7.7941 Y6.0524
G01 X7.7279 Y6.2372
G01 X7.7088 Y6.2834
G01 X7.6249 Y6.4608
G01 X7.6013 Y6.5050
G01 X7.5004 Y6.6733
G01 X7.4726 Y6.7149
G01 X7.3557 Y6.8726
G01 X7.3239 Y6.9113
G01 X7.1921 Y7.0567
G01 X7.1567 Y7.0921
G01 X7.0113 Y7.2239
G01 X6.9726 Y7.2557
G01 X6.8149 Y7.3726
G01 X6.7733 Y7.4004
G01 X6.6050 Y7.5013
G01 X6.5608 Y7.5249
G01 X6.3834 Y7.6088
G01 X6.3372 Y7.6279
G01 X6.1524 Y7.6941
G01 X6.1045 Y7.7086
G01 X5.9141 Y7.7563
G01 X5.8650 Y7.7661
G01 X5.6709 Y7.7948
G01 X5.6211 Y7.7998
G01 X5.4250 Y7.8094
G01 X5.3750 Y7.8094
G01 X5.1789 Y7.7998
G01 X5.1291 Y7.7948
G01 X4.9350 Y7.7661
G01 X4.8859 Y7.7563
G01 X4.6955 Y7.7086
G01 X4.6476 Y7.6941
G01 X4.4628 Y7.6279
G01 X4.4166 Y7.6088
G01 X4.2392 Y7.5249
G01 X4.1950 Y7.5013
G01 X4.0267 Y7.4004
G01 X3.9851 Y7.3726
G01 X3.8274 Y7.2557
G01 X3.7887 Y7.2239
G01 X3.6433 Y7.0921
G01 X3.6079 Y7.0567
G01 X3.4761 Y6.9113
G01 X3.4443 Y6.8726
G01 X3.3274 Y6.7149
G01 X3.2996 Y6.6733
G01 X3.1987 Y6.5050
G01 X3.1751 Y6.4608
G01 X3.0912 Y6.2834
G01 X3.0721 Y6.2372
G01 X3.0059 Y6.0524
G01 X2.9914 Y6.0045
G01 X2.9437 Y5.8141
G01 X2.9339 Y5.7650
G01 X2.9052 Y5.5709
G01 X2.9002 Y5.5211
G01 X2.8906 Y5.3250
G01 X2.8906 Y5.2750
G01 X2.9002 Y5.0789
G01 X2.9052 Y5.0291
G01 X2.9339 Y4.8350
G01 X2.9437 Y4.7859
G01 X2.9914 Y4.5955
G01 X3.0059 Y4.5476
G01 X3.0721 Y4.3628
G01 X3.0912 Y4.3166
G01 X3.1751 Y4.1392
G01 X3.1987 Y4.0950
G01 X3.2996 Y3.9267
G01 X3.3274 Y3.8851
G01 X3.4443 Y3.7274
G01 X3.4761 Y3.6887
G01 X3.6079 Y3.5433
G01 X3.6433 Y3.5079
G01 X3.7887 Y3.3761
G01 X3.8274 Y3.3443
G01 X3.9851 Y3.2274
G01 X4.0267 Y3.1996
G01 X4.1950 Y3.0987
G01 X4.2392 Y3.0751
G01 X4.4166 Y2.9912
G01 X4.4628 Y2.9721
G01 X4.6476 Y2.9059
G01 X4.6955 Y2.8914
G01 X4.8859 Y2.8437
G01 X4.9350 Y2.8339
G01 X5.1291 Y2.8052
G01 X5.1789 Y2.8002
G01 X5.3750 Y2.7906
G01 X5.4250 Y2.7906
G01 X5.6211 Y2.8002
G01 X5.6709 Y2.8052
G01 X5.8650 Y2.8339
G01 X5.9141 Y2.8437
G01 X6.1045 Y2.8914
G01 X6.1524 Y2.9059
G01 X6.3372 Y2.9721
G01 X6.3834 Y2.9912
G01 X6.5608 Y3.0751
G01 X6.6050 Y3.0987
G01 X6.7733 Y3.1996
G01 X6.8149 Y3.2274
G01 X6.9726 Y3.3443
G01 X7.0113 Y3.3761
G01 X7.1567 Y3.5079
G01 X7.1921 Y3.5433
G01 X7.3239 Y3.6887
G01 X7.3557 Y3.7274
G01 X7.4726 Y3.8851
G01 X7.5004 Y3.9267
G01 X7.6013 Y4.0950
G01 X7.6249 Y4.1392
G01 X7.7088 Y4.3166
G01 X7.7279 Y4.3628
G01 X7.7941 Y4.5476
G01 X7.8086 Y4.5955
G01 X7.8563 Y4.7859
G01 X7.8661 Y4.8350
G01 X7.8948 Y5.0291
G00 Z2.0000
G00 X18.8924 Y18.4801
G01 F60.00
G01 Z-0.1500
G01 F120.00
G01 X18.8973 Y18.5299
G01 X18.9094 Y18.7750
G01 X18.9094 Y18.8250
G01 X18.8973 Y19.0701
G01 X18.8924 Y19.1199
G01 X18.8564 Y19.3626
G01 X18.8467 Y19.4116
G01 X18.7871 Y19.6496
G01 X18.7725 Y19.6975
G01 X18.6899 Y19.9285
G01 X18.6707 Y19.9748
G01 X18.5658 Y20.1965
G01 X18.5422 Y20.2407
G01 X18.4161 Y20.4511
G01 X18.3883 Y20.4927
G01 X18.2422 Y20.6898
G01 X18.2104 Y20.7285
G01 X18.0457 Y20.9103
G01 X18.0103 Y20.9457
G01 X17.8285 Y21.1104
G01 X17.7898 Y21.1422
G01 X17.5927 Y21.2883
G01 X17.5511 Y21.3161
G01 X17.3407 Y21.4422
G01 X17.2965 Y21.4658
G01 X17.0748 Y21.5707
G01 X17.0285 Y21.5899
G01 X16.7975 Y21.6725
G01 X16.7496 Y21.6871
G01 X16.5116 Y21.7467
G01 X16.4626 Y21.7564
G01 X16.2199 Y21.7924
G01 X16.1701 Y21.7973
G01 X15.9250 Y21.8094
G01 X15.8750 Y21.8094
G01 X15.6299 Y21.7973
G01 X15.5801 Y21.7924
G01 X15.3374 Y21.7564
G01 X15.2884 Y21.7467
G01 X15.0504 Y21.6871
G01 X15.0025 Y21.6725
G01 X14.7715 Y21.5899
G01 X14.7252 Y21.5707
G01 X14.5035 Y21.4658
G01 X14.4593 Y21.4422
G01 X14.2489 Y21.3161
G01 X14.2073 Y21.2883
G01 X14.0102 Y21.1422
G01 X13.9715 Y21.1104
G01 X13.7897 Y20.9457
G01 X13.7543 Y20.9103
G01 X13.5896 Y20.7285
G01 X13.5578 Y20.6898
G01 X13.4117 Y20.4927
G01 X13.3839 Y20.4511
G01 X13.2578 Y20.2407
G01 X13.2342 Y20.1965
G01 X13.1293 Y19.9748
G01 X13.1101 Y19.9285
G01 X13.0275 Y19.6975
G01 X13.0129 Y19.6496
G01 X12.9533 Y19.4116
G01 X12.9436 Y19.3626
G01 X12.9076 Y19.1199
G01 X12.9027 Y19.0701
G01 X12.8906 Y18.8250
G01 X12.8906 Y18.7750
G01 X12.9027 Y18.5299
G01 X12.9076 Y18.4801
G01 X12.9436 Y18.2374
G01 X12.9533 Y18.1884
G01 X13.0129 Y17.9504
G01 X13.0275 Y17.9025
G01 X13.1101 Y17.6715
G01 X13.1293 Y17.6252
G01 X13.2342 Y17.4035
G01 X13.2578 Y17.3593
G01 X13.3839 Y17.1489
G01 X13.4117 Y17.1073
G01 X13.5578 Y16.9102
G01 X13.5896 Y16.8715
G01 X13.7543 Y16.6897
G01 X13.7897 Y16.6543
G01 X13.9715 Y16.4896
G01 X14.0102 Y16.4578
G01 X14.2073 Y16.3117
G01 X14.2489 Y16.2839
G01 X14.4593 Y16.1578
G01 X14.5035 Y16.1342
G01 X14.7252 Y16.0293
G01 X14.7715 Y16.0101
G01 X15.0025 Y15.9275
G01 X15.0504 Y15.9129
G01 X15.2884 Y15.8533
G01 X15.3374 Y15.8436
G01 X15.5801 Y15.8076
G01 X15.6299 Y15.8027
G01 X15.8750 Y15.7906
G01 X15.9250 Y15.7906
G01 X16.1701 Y15.8027
G01 X16.2199 Y15.8076
G01 X16.4626 Y15.8436
G01 X16.5116 Y15.8533
G01 X16.7496 Y15.9129
G01 X16.7975 Y15.9275
G01 X17.0285 Y16.0101
G01 X17.0748 Y16.0293
G01 X17.2965 Y16.1342
G01 X17.3407 Y16.1578
G01 X17.5511 Y16.2839
G01 X17.5927 Y16.3117
G01 X17.7898 Y16.4578
G01 X17.8285 Y16.4896
G01 X18.0103 Y16.6543
G01 X18.0457 Y16.6897
G01 X18.2104 Y16.8715
G01 X18.2422 Y16.9102
G01 X18.3883 Y17.1073
G01 X18.4161 Y17.1489
G01 X18.5422 Y17.3593
G01 X18.5658 Y17.4035
G01 X18.6707 Y17.6252
G01 X18.6899 Y17.6715
G01 X18.7725 Y17.9025
G01 X18.7871 Y17.9504
G01 X18.8467 Y18.1884
G01 X18.8564 Y18.2374
G01 X18.8924 Y18.4801
G00 Z2.0000
G00 X24.9300 Y15.5241
G01 F60.00
G01 Z-0.1500
G01 F120.00
G01 X24.9011 Y15.4806
G01 X24.8426 Y15.4018
G01 X24.8109 Y15.3631
G01 X24.7450 Y15.2904
G01 X24.7096 Y15.2550
G01 X24.6703 Y15.2193
G01 X24.6703 Y14.3400
G01 X24.6696 Y14.3150
G01 X24.6672 Y14.2659
G01 X24.6623 Y14.2161
G01 X24.6551 Y14.1676
G01 X24.6454 Y14.1185
G01 X24.6334 Y14.0709
G01 X24.6189 Y14.0230
G01 X24.6024 Y13.9767
G01 X24.5832 Y13.9305
G01 X24.5622 Y13.8861
G01 X24.5386 Y13.8420
G01 X24.5134 Y13.7999
G01 X24.4856 Y13.7583
G01 X24.4563 Y13.7188
G01 X24.4246 Y13.6801
G01 X24.4103 Y13.6643
G01 X24.4103 Y9.5397
G01 X24.4147 Y9.5699
G01 X24.4245 Y9.6190
G01 X24.4483 Y9.7142
G01 X24.4629 Y9.7621
G01 X24.4959 Y9.8545
G01 X24.5151 Y9.9007
G01 X24.5570 Y9.9894
G01 X24.5806 Y10.0336
G01 X24.6311 Y10.1178
G01 X24.6589 Y10.1594
G01 X24.7174 Y10.2382
G01 X24.7491 Y10.2769
G01 X24.8150 Y10.3496
G01 X24.8504 Y10.3850
G01 X24.8897 Y10.4207
G01 X24.8897 Y14.0400
G01 X24.8904 Y14.0650
G01 X24.8928 Y14.1141
G01 X24.8977 Y14.1639
G01 X24.9049 Y14.2124
G01 X24.9146 Y14.2615
G01 X24.9266 Y14.3091
G01 X24.9411 Y14.3570
G01 X24.9576 Y14.4033
G01 X24.9768 Y14.4495
G01 X24.9978 Y14.4939
G01 X25.0214 Y14.5380
G01 X25.0466 Y14.5801
G01 X25.0744 Y14.6217
G01 X25.1037 Y14.6612
G01 X25.1354 Y14.6999
G01 X25.1684 Y14.7362
G01 X25.1897 Y14.7585
G01 X25.1897 Y15.2193
G01 X25.1504 Y15.2550
G01 X25.1150 Y15.2904
G01 X25.0491 Y15.3631
G01 X25.0174 Y15.4018
G01 X24.9589 Y15.4806
G01 X24.9300 Y15.5241
G00 Z2.0000
G00 X30.3897 Y14.7905
G01 F60.00
G01 Z-0.1500
G01 F120.00
G01 X30.3500 Y14.7925
G01 X30.3005 Y14.7998
G01 X30.2520 Y14.8120
G01 X30.2048 Y14.8288
G01 X30.1596 Y14.8502
G01 X30.1167 Y14.8760
G01 X30.0765 Y14.9058
G01 X30.0394 Y14.9394
G01 X30.0058 Y14.9765
G01 X29.9760 Y15.0167
G01 X29.9502 Y15.0596
G01 X29.9288 Y15.1048
G01 X29.9120 Y15.1520
G01 X29.8998 Y15.2005
G01 X29.8925 Y15.2500
G01 X29.8900 Y15.3000
G01 X29.8900 Y15.3621
G01 X29.8250 Y15.2904
G01 X29.7896 Y15.2550
G01 X29.7503 Y15.2193
G01 X29.7503 Y3.8785
G01 X29.8185 Y3.8103
G01 X31.7006 Y3.8103
G01 X31.6785 Y3.8146
G01 X31.6309 Y3.8266
G01 X31.5830 Y3.8411
G01 X31.5367 Y3.8576
G01 X31.4905 Y3.8768
G01 X31.4461 Y3.8978
G01 X31.4020 Y3.9214
G01 X31.3599 Y3.9466
G01 X31.3183 Y3.9744
G01 X31.2788 Y4.0037
G01 X31.2401 Y4.0354
G01 X31.2038 Y4.0684
G01 X31.1856 Y4.0856
G01 X30.6856 Y4.5856
G01 X30.6684 Y4.6038
G01 X30.6354 Y4.6401
G01 X30.6037 Y4.6788
G01 X30.5744 Y4.7183
G01 X30.5466 Y4.7599
G01 X30.5214 Y4.8020
G01 X30.4978 Y4.8461
G01 X30.4768 Y4.8905
G01 X30.4576 Y4.9367
G01 X30.4411 Y4.9830
G01 X30.4266 Y5.0309
G01 X30.4146 Y5.0785
G01 X30.4049 Y5.1276
G01 X30.3977 Y5.1761
G01 X30.3928 Y5.2259
G01 X30.3904 Y5.2750
G01 X30.3897 Y5.3000
G01 X30.3897 Y14.7905
G00 Z2.0000
G00 X32.4103 Y10.9392
G01 F60.00
G01 Z-0.1500
G01 F120.00
G01 X32.4231 Y10.9509
G01 X32.4618 Y10.9826
G01 X32.5406 Y11.0411
G01 X32.5822 Y11.0689
G01 X32.6664 Y11.1194
G01 X32.7106 Y11.1430
G01 X32.7993 Y11.1849
G01 X32.8455 Y11.2041
G01 X32.9379 Y11.2371
G01 X32.9858 Y11.2517
G01 X33.0810 Y11.2755
G01 X33.1301 Y11.2853
G01 X33.2306 Y11.3000
G01 X33.1301 Y11.3147
G01 X33.0810 Y11.3245
G01 X32.9858 Y11.3483
G01 X32.9379 Y11.3629
G01 X32.8455 Y11.3959
G01 X32.7993 Y11.4151
G01 X32.7106 Y11.4570
G01 X32.6664 Y11.4806
G01 X32.5822 Y11.5311
G01 X32.5406 Y11.5589
G01 X32.4618 Y11.6174
G01 X32.4231 Y11.6491
G01 X32.4103 Y11.6608
G01 X32.4103 Y10.9392
G00 Z2.0000
G00 X33.5694 Y11.3000
G01 F60.00
G01 Z-0.1500
G01 F120.00
G01 X33.6699 Y11.2853
G01 X33.7190 Y11.2755
G01 X33.8142 Y11.2517
G01 X33.8621 Y11.2371
G01 X33.9545 Y11.2041
G01 X34.0007 Y11.1849
G01 X34.0894 Y11.1430
G01 X34.1336 Y11.1194
G01 X34.2178 Y11.0689
G01 X34.2594 Y11.0411
G01 X34.3382 Y10.9826
G01 X34.3769 Y10.9509
G01 X34.4496 Y10.8850
G01 X34.4850 Y10.8496
G01 X34.5207 Y10.8103
G01 X35.2793 Y10.8103
G01 X35.3150 Y10.8496
G01 X35.3504 Y10.8850
G01 X35.4231 Y10.9509
G01 X35.4618 Y10.9826
G01 X35.5406 Y11.0411
G01 X35.5822 Y11.0689
G01 X35.6664 Y11.1194
G01 X35.7106 Y11.1430
G01 X35.7993 Y11.1849
G01 X35.8455 Y11.2041
G01 X35.9379 Y11.2371
G01 X35.9858 Y11.2517
G01 X36.0810 Y11.2755
G01 X36.1301 Y11.2853
G01 X36.2272 Y11.2997
G01 X36.2770 Y11.3046
G01 X36.3750 Y11.3094
G01 X36.4250 Y11.3094
G01 X36.5230 Y11.3046
G01 X36.5728 Y11.2997
G01 X36.6699 Y11.2853
G01 X36.7190 Y11.2755
G01 X36.8142 Y11.2517
G01 X36.8621 Y11.2371
G01 X36.9545 Y11.2041
G01 X37.0007 Y11.1849
G01 X37.0894 Y11.1430
G01 X37.1336 Y11.1194
G01 X37.2178 Y11.0689
G01 X37.2594 Y11.0411
G01 X37.3382 Y10.9826
G01 X37.3769 Y10.9509
G01 X37.4496 Y10.8850
G01 X37.4850 Y10.8496
G01 X37.5509 Y10.7769
G01 X37.5826 Y10.7382
G01 X37.6411 Y10.6594
G01 X37.6689 Y10.6178
G01 X37.7194 Y10.5336
G01 X37.7430 Y10.4894
G01 X37.7849 Y10.4007
G01 X37.8041 Y10.3545
G01 X37.8371 Y10.2621
G01 X37.8517 Y10.2142
G01 X37.8755 Y10.1190
G01 X37.8853 Y10.0699
G01 X37.8997 Y9.9728
G01 X37.9046 Y9.9230
G01 X37.9094 Y9.8250
G01 X37.9094 Y9.7750
G01 X37.9046 Y9.6770
G01 X37.8997 Y9.6272
G01 X37.8853 Y9.5301
G01 X37.8755 Y9.4810
G01 X37.8517 Y9.3858
G01 X37.8371 Y9.3379
G01 X37.8041 Y9.2455
G01 X37.7849 Y9.1993
G01 X37.7430 Y9.1106
G01 X37.7194 Y9.0664
G01 X37.6689 Y8.9822
G01 X37.6411 Y8.9406
G01 X37.5826 Y8.8618
G01 X37.5509 Y8.8231
G01 X37.4850 Y8.7504
G01 X37.4496 Y8.7150
G01 X37.3769 Y8.6491
G01 X37.3382 Y8.6174
G01 X37.2594 Y8.5589
G01 X37.2178 Y8.5311
G01 X37.1336 Y8.4806
G01 X37.0894 Y8.4570
G01 X37.0007 Y8.4151
G01 X36.9545 Y8.3959
G01 X36.8621 Y8.3629
G01 X36.8142 Y8.3483
G01 X36.7190 Y8.3245
G01 X36.6699 Y8.3147
G01 X36.5728 Y8.3003
G01 X36.5230 Y8.2954
G01 X36.4250 Y8.2906
G01 X36.3750 Y8.2906
G01 X36.2770 Y8.2954
G01 X36.2272 Y8.3003
G01 X36.1301 Y8.3147
G01 X36.0810 Y8.3245
G01 X35.9858 Y8.3483
G01 X35.9379 Y8.3629
G01 X35.8455 Y8.3959
G01 X35.7993 Y8.4151
G01 X35.7106 Y8.4570
G01 X35.6664 Y8.4806
G01 X35.5822 Y8.5311
G01 X35.5406 Y8.5589
G01 X35.4618 Y8.6174
G01 X35.4231 Y8.6491
G01 X35.3504 Y8.7150
G01 X35.3150 Y8.7504
G01 X35.2793 Y8.7897
G01 X34.5207 Y8.7897
G01 X34.4850 Y8.7504
G01 X34.4496 Y8.7150
G01 X34.3769 Y8.6491
G01 X34.3382 Y8.6174
G01 X34.2594 Y8.5589
G01 X34.2178 Y8.5311
G01 X34.1336 Y8.4806
G01 X34.0894 Y8.4570
G01 X34.0007 Y8.4151
G01 X33.9545 Y8.3959
G01 X33.8621 Y8.3629
G01 X33.8142 Y8.3483
G01 X33.7190 Y8.3245
G01 X33.6699 Y8.3147
G01 X33.5694 Y8.3000
G01 X33.6699 Y8.2853
G01 X33.7190 Y8.2755
G01 X33.8142 Y8.2517
G01 X33.8621 Y8.2371
G01 X33.9545 Y8.2041
G01 X34.0007 Y8.1849
G01 X34.0894 Y8.1430
G01 X34.1336 Y8.1194
G01 X34.2178 Y8.0689
G01 X34.2594 Y8.0411
G01 X34.3382 Y7.9826
G01 X34.3769 Y7.9509
G01 X34.4496 Y7.8850
G01 X34.4850 Y7.8496
G01 X34.5207 Y7.8103
G01 X35.7793 Y7.8103
G01 X35.8150 Y7.8496
G01 X35.8504 Y7.8850
G01 X35.9231 Y7.9509
G01 X35.9618 Y7.9826
G01 X36.0406 Y8.0411
G01 X36.0822 Y8.0689
G01 X36.1664 Y8.1194
G01 X36.2106 Y8.1430
G01 X36.2993 Y8.1849
G01 X36.3455 Y8.2041
G01 X36.4379 Y8.2371
G01 X36.4858 Y8.2517
G01 X36.5810 Y8.2755
G01 X36.6301 Y8.2853
G01 X36.7272 Y8.2997
G01 X36.7770 Y8.3046
G01 X36.8750 Y8.3094
G01 X36.9250 Y8.3094
G01 X37.0230 Y8.3046
G01 X37.0728 Y8.2997
G01 X37.1699 Y8.2853
G01 X37.2190 Y8.2755
G01 X37.3142 Y8.2517
G01 X37.3621 Y8.2371
G01 X37.4545 Y8.2041
G01 X37.5007 Y8.1849
G01 X37.5894 Y8.1430
G01 X37.6336 Y8.1194
G01 X37.7178 Y8.0689
G01 X37.7594 Y8.0411
G01 X37.8382 Y7.9826
G01 X37.8769 Y7.9509
G01 X37.9496 Y7.8850
G01 X37.9850 Y7.8496
G01 X38.0509 Y7.7769
G01 X38.0826 Y7.7382
G01 X38.1411 Y7.6594
G01 X38.1689 Y7.6178
G01 X38.2194 Y7.5336
G01 X38.2430 Y7.4894
G01 X38.2849 Y7.4007
G01 X38.3041 Y7.3545
G01 X38.3371 Y7.2621
G01 X38.3517 Y7.2142
G01 X38.3755 Y7.1190
G01 X38.3853 Y7.0699
G01 X38.3997 Y6.9728
G01 X38.4046 Y6.9230
G01 X38.4094 Y6.8250
G01 X38.4094 Y6.7750
G01 X38.4046 Y6.6770
G01 X38.3997 Y6.6272
G01 X38.3853 Y6.5301
G01 X38.3755 Y6.4810
G01 X38.3517 Y6.3858
G01 X38.3371 Y6.3379
G01 X38.3041 Y6.2455
G01 X38.2849 Y6.1993
G01 X38.2430 Y6.1106
G01 X38.2194 Y6.0664
G01 X38.1689 Y5.9822
G01 X38.1411 Y5.9406
G01 X38.0826 Y5.8618
G01 X38.0509 Y5.8231
G01 X38.0392 Y5.8103
G01 X39.7006 Y5.8103
G01 X39.6785 Y5.8146
G01 X39.6309 Y5.8266
G01 X39.5830 Y5.8411
G01 X39.5367 Y5.8576
G01 X39.4905 Y5.8768
G01 X39.4461 Y5.8978
G01 X39.4020 Y5.9214
G01 X39.3599 Y5.9466
G01 X39.3183 Y5.9744
G01 X39.2788 Y6.0037
G01 X39.2401 Y6.0354
G01 X39.2038 Y6.0684
G01 X39.1684 Y6.1038
G01 X39.1354 Y6.1401
G01 X39.1037 Y6.1788
G01 X39.0744 Y6.2183
G01 X39.0466 Y6.2599
G01 X39.0214 Y6.3020
G01 X38.9978 Y6.3461
G01 X38.9768 Y6.3905
G01 X38.9576 Y6.4367
G01 X38.9411 Y6.4830
G01 X38.9266 Y6.5309
G01 X38.9146 Y6.5785
G01 X38.9049 Y6.6276
G01 X38.8977 Y6.6761
G01 X38.8928 Y6.7259
G01 X38.8904 Y6.7750
G01 X38.8897 Y6.8000
G01 X38.8897 Y18.4620
G01 X38.8564 Y18.2374
G01 X38.8467 Y18.1884
G01 X38.7871 Y17.9504
G01 X38.7725 Y17.9025
G01 X38.6899 Y17.6715
G01 X38.6707 Y17.6252
G01 X38.5658 Y17.4035
G01 X38.5422 Y17.3593
G01 X38.4161 Y17.1489
G01 X38.3883 Y17.1073
G01 X38.2422 Y16.9102
G01 X38.2104 Y16.8715
G01 X38.0457 Y16.6897
G01 X38.0103 Y16.6543
G01 X37.8285 Y16.4896
G01 X37.7898 Y16.4578
G01 X37.5927 Y16.3117
G01 X37.5511 Y16.2839
G01 X37.3407 Y16.1578
G01 X37.2965 Y16.1342
G01 X37.0748 Y16.0293
G01 X37.0285 Y16.0101
G01 X36.7975 Y15.9275
G01 X36.7496 Y15.9129
G01 X36.5116 Y15.8533
G01 X36.4626 Y15.8436
G01 X36.2199 Y15.8076
G01 X36.1701 Y15.8027
G01 X35.9250 Y15.7906
G01 X35.8750 Y15.7906
G01 X35.6299 Y15.8027
G01 X35.5801 Y15.8076
G01 X35.3374 Y15.8436
G01 X35.2884 Y15.8533
G01 X35.0504 Y15.9129
G01 X35.0025 Y15.9275
G01 X34.7715 Y16.0101
G01 X34.7252 Y16.0293
G01 X34.5035 Y16.1342
G01 X34.4593 Y16.1578
G01 X34.2489 Y16.2839
G01 X34.2073 Y16.3117
G01 X34.0102 Y16.4578
G01 X33.9715 Y16.4896
G01 X33.7897 Y16.6543
G01 X33.7543 Y16.6897
G01 X33.5896 Y16.8715
G01 X33.5578 Y16.9102
G01 X33.4117 Y17.1073
G01 X33.3839 Y17.1489
G01 X33.2578 Y17.3593
G01 X33.2342 Y17.4035
G01 X33.1293 Y17.6252
G01 X33.1101 Y17.6715
G01 X33.0275 Y17.9025
G01 X33.0129 Y17.9504
G01 X32.9533 Y18.1884
G01 X32.9436 Y18.2374
G01 X32.9076 Y18.4801
G01 X32.9027 Y18.5299
G01 X32.8906 Y18.7750
G01 X32.8906 Y18.8250
G01 X32.9027 Y19.0701
G01 X32.9076 Y19.1199
G01 X32.9436 Y19.3626
G01 X32.9533 Y19.4116
G01 X33.0129 Y19.6496
G01 X33.0275 Y19.6975
G01 X33.1101 Y19.9285
G01 X33.1293 Y19.9748
G01 X33.2342 Y20.1965
G01 X33.2578 Y20.2407
G01 X33.3839 Y20.4511
G01 X33.4117 Y20.4927
G01 X33.5578 Y20.6898
G01 X33.5896 Y20.7285
G01 X33.7543 Y20.9103
G01 X33.7897 Y20.9457
G01 X33.9715 Y21.1104
G01 X34.0102 Y21.1422
G01 X34.2073 Y21.2883
G01 X34.2489 Y21.3161
G01 X34.4593 Y21.4422
G01 X34.5035 Y21.4658
G01 X34.7252 Y21.5707
G01 X34.7715 Y21.5899
G01 X35.0025 Y21.6725
G01 X35.0504 Y21.6871
G01 X35.2884 Y21.7467
G01 X35.3374 Y21.7564
G01 X35.5620 Y21.7897
G01 X32.3200 Y21.7897
G01 X32.2950 Y21.7904
G01 X32.2459 Y21.7928
G01 X32.1961 Y21.7977
G01 X32.1476 Y21.8049
G01 X32.0985 Y21.8146
G01 X32.0509 Y21.8266
G01 X32.0030 Y21.8411
G01 X31.9567 Y21.8576
G01 X31.9105 Y21.8768
G01 X31.8661 Y21.8978
G01 X31.8220 Y21.9214
G01 X31.7799 Y21.9466
G01 X31.7383 Y21.9744
G01 X31.6988 Y22.0037
G01 X31.6601 Y22.0354
G01 X31.6238 Y22.0684
G01 X31.6056 Y22.0856
G01 X28.9815 Y24.7097
G01 X28.4590 Y24.7097
G01 X28.4317 Y24.6851
G01 X28.3930 Y24.6533
G01 X28.3260 Y24.6036
G01 X28.2844 Y24.5758
G01 X28.2129 Y24.5329
G01 X28.1687 Y24.5093
G01 X28.0933 Y24.4737
G01 X28.0471 Y24.4545
G01 X27.9686 Y24.4264
G01 X27.9207 Y24.4119
G01 X27.8397 Y24.3916
G01 X27.7907 Y24.3819
G01 X27.7081 Y24.3696
G01 X27.6583 Y24.3647
G01 X27.5750 Y24.3606
G01 X27.5500 Y24.3600
G01 X27.2500 Y24.3600
G01 X27.2250 Y24.3606
G01 X27.1417 Y24.3647
G01 X27.0919 Y24.3696
G01 X27.0093 Y24.3819
G01 X26.9603 Y24.3916
G01 X26.8793 Y24.4119
G01 X26.8314 Y24.4264
G01 X26.7529 Y24.4545
G01 X26.7067 Y24.4737
G01 X26.6313 Y24.5093
G01 X26.5871 Y24.5329
G01 X26.5156 Y24.5758
G01 X26.4740 Y24.6036
G01 X26.4070 Y24.6533
G01 X26.3683 Y24.6851
G01 X26.3065 Y24.7411
G01 X26.2711 Y24.7765
G01 X26.2151 Y24.8383
G01 X26.1833 Y24.8770
G01 X26.1336 Y24.9440
G01 X26.1058 Y24.9856
G01 X26.0629 Y25.0571
G01 X26.0393 Y25.1013
G01 X26.0037 Y25.1767
G01 X25.9845 Y25.2229
G01 X25.9564 Y25.3014
G01 X25.9419 Y25.3493
G01 X25.9216 Y25.4303
G01 X25.9119 Y25.4793
G01 X25.8996 Y25.5619
G01 X25.8947 Y25.6117
G01 X25.8906 Y25.6950
G01 X25.8906 Y25.7450
G01 X25.8947 Y25.8283
G01 X25.8996 Y25.8781
G01 X25.9119 Y25.9607
G01 X25.9216 Y26.0097
G01 X25.9419 Y26.0907
G01 X25.9564 Y26.1386
G01 X25.9845 Y26.2171
G01 X26.0037 Y26.2633
G01 X26.0393 Y26.3387
G01 X26.0629 Y26.3829
G01 X26.1058 Y26.4544
G01 X26.1336 Y26.4960
G01 X26.1833 Y26.5630
G01 X26.2151 Y26.6017
G01 X26.2711 Y26.6635
G01 X26.3065 Y26.6989
G01 X26.3683 Y26.7549
G01 X26.4070 Y26.7867
G01 X26.4740 Y26.8364
G01 X26.5156 Y26.8642
G01 X26.5871 Y26.9071
G01 X26.6313 Y26.9307
G01 X26.7067 Y26.9663
G01 X26.7529 Y26.9855
G01 X26.7655 Y26.9900
G01 X26.7529 Y26.9945
G01 X26.7067 Y27.0137
G01 X26.6313 Y27.0493
G01 X26.5871 Y27.0729
G01 X26.5156 Y27.1158
G01 X26.4740 Y27.1436
G01 X26.4070 Y27.1933
G01 X26.3683 Y27.2251
G01 X26.3065 Y27.2811
G01 X26.2711 Y27.3165
G01 X26.2151 Y27.3783
G01 X26.1833 Y27.4170
G01 X26.1336 Y27.4840
G01 X26.1058 Y27.5256
G01 X26.0629 Y27.5971
G01 X26.0393 Y27.6413
G01 X26.0037 Y27.7167
G01 X25.9845 Y27.7629
G01 X25.9564 Y27.8414
G01 X25.9419 Y27.8893
G01 X25.9216 Y27.9703
G01 X25.9119 Y28.0193
G01 X25.8996 Y28.1019
G01 X25.8947 Y28.1517
G01 X25.8906 Y28.2350
G01 X25.8906 Y28.2850
G01 X25.8947 Y28.3683
G01 X25.8996 Y28.4181
G01 X25.9119 Y28.5007
G01 X25.9216 Y28.5497
G01 X25.9419 Y28.6307
G01 X25.9564 Y28.6786
G01 X25.9845 Y28.7571
G01 X26.0037 Y28.8033
G01 X26.0393 Y28.8787
G01 X26.0629 Y28.9229
G01 X26.1058 Y28.9944
G01 X26.1336 Y29.0360
G01 X26.1833 Y29.1030
G01 X26.2151 Y29.1417
G01 X26.2711 Y29.2035
G01 X26.3065 Y29.2389
G01 X26.3647 Y29.2917
G01 X26.3500 Y29.2925
G01 X26.3005 Y29.2998
G01 X26.2520 Y29.3120
G01 X26.2048 Y29.3288
G01 X26.1596 Y29.3502
G01 X26.1167 Y29.3760
G01 X26.0765 Y29.4058
G01 X26.0394 Y29.4394
G01 X26.0058 Y29.4765
G01 X25.9760 Y29.5167
G01 X25.9502 Y29.5596
G01 X25.9288 Y29.6048
G01 X25.9120 Y29.6520
G01 X25.8998 Y29.7005
G01 X25.8925 Y29.7500
G01 X25.8900 Y29.8000
G01 X25.8900 Y31.8000
G01 X25.8925 Y31.8500
G01 X25.8998 Y31.8995
G01 X25.9120 Y31.9480
G01 X25.9288 Y31.9952
G01 X25.9502 Y32.0404
G01 X25.9760 Y32.0833
G01 X26.0058 Y32.1235
G01 X26.0394 Y32.1606
G01 X26.0765 Y32.1942
G01 X26.1167 Y32.2240
G01 X26.1596 Y32.2498
G01 X26.2048 Y32.2712
G01 X26.2520 Y32.2880
G01 X26.3005 Y32.3002
G01 X26.3500 Y32.3075
G01 X26.4000 Y32.3100
G01 X28.4000 Y32.3100
G01 X28.4500 Y32.3075
G01 X28.4995 Y32.3002
G01 X28.5480 Y32.2880
G01 X28.5952 Y32.2712
G01 X28.6404 Y32.2498
G01 X28.6833 Y32.2240
G01 X28.7235 Y32.1942
G01 X28.7606 Y32.1606
G01 X28.7942 Y32.1235
G01 X28.8240 Y32.0833
G01 X28.8498 Y32.0404
G01 X28.8712 Y31.9952
G01 X28.8880 Y31.9480
G01 X28.9002 Y31.8995
G01 X28.9075 Y31.8500
G01 X28.9095 Y31.8103
G01 X29.4000 Y31.8103
G01 X29.4250 Y31.8096
G01 X29.4741 Y31.8072
G01 X29.5239 Y31.8023
G01 X29.5724 Y31.7951
G01 X29.6215 Y31.7854
G01 X29.6691 Y31.7734
G01 X29.7170 Y31.7589
G01 X29.7633 Y31.7424
G01 X29.8095 Y31.7232
G01 X29.8539 Y31.7022
G01 X29.8980 Y31.6786
G01 X29.9401 Y31.6534
G01 X29.9817 Y31.6256
G01 X30.0212 Y31.5963
G01 X30.0599 Y31.5646
G01 X30.0962 Y31.5316
G01 X30.1144 Y31.5144
G01 X34.8185 Y26.8103
G01 X39.4000 Y26.8103
G01 X39.4250 Y26.8096
G01 X39.4741 Y26.8072
G01 X39.5239 Y26.8023
G01 X39.5724 Y26.7951
G01 X39.6215 Y26.7854
G01 X39.6691 Y26.7734
G01 X39.7170 Y26.7589
G01 X39.7633 Y26.7424
G01 X39.8095 Y26.7232
G01 X39.8539 Y26.7022
G01 X39.8980 Y26.6786
G01 X39.9401 Y26.6534
G01 X39.9817 Y26.6256
G01 X40.0212 Y26.5963
G01 X40.0599 Y26.5646
G01 X40.0962 Y26.5316
G01 X40.1144 Y26.5144
G01 X43.6144 Y23.0144
G01 X43.6316 Y22.9962
G01 X43.6646 Y22.9599
G01 X43.6963 Y22.9212
G01 X43.7256 Y22.8817
G01 X43.7534 Y22.8401
G01 X43.7786 Y22.7980
G01 X43.8022 Y22.7539
G01 X43.8232 Y22.7095
G01 X43.8424 Y22.6633
G01 X43.8589 Y22.6170
G01 X43.8734 Y22.5691
G01 X43.8854 Y22.5215
G01 X43.8897 Y22.4994
G01 X43.8897 Y23.4673
G01 X43.6856 Y23.6714
G01 X43.6684 Y23.6896
G01 X43.6354 Y23.7259
G01 X43.6037 Y23.7646
G01 X43.5744 Y23.8041
G01 X43.5466 Y23.8457
G01 X43.5214 Y23.8878
G01 X43.4978 Y23.9319
G01 X43.4768 Y23.9763
G01 X43.4576 Y24.0225
G01 X43.4411 Y24.0688
G01 X43.4266 Y24.1167
G01 X43.4146 Y24.1643
G01 X43.4049 Y24.2134
G01 X43.3977 Y24.2619
G01 X43.3928 Y24.3117
G01 X43.3904 Y24.3608
G01 X43.3897 Y24.3858
G01 X43.3897 Y24.6793
G01 X43.3504 Y24.7150
G01 X43.3150 Y24.7504
G01 X43.2491 Y24.8231
G01 X43.2174 Y24.8618
G01 X43.1589 Y24.9406
G01 X43.1311 Y24.9822
G01 X43.0806 Y25.0664
G01 X43.0570 Y25.1106
G01 X43.0151 Y25.1993
G01 X42.9959 Y25.2455
G01 X42.9629 Y25.3379
G01 X42.9483 Y25.3858
G01 X42.9245 Y25.4810
G01 X42.9147 Y25.5301
G01 X42.9003 Y25.6272
G01 X42.8954 Y25.6770
G01 X42.8906 Y25.7750
G01 X42.8906 Y25.8250
G01 X42.8954 Y25.9230
G01 X42.9003 Y25.9728
G01 X42.9147 Y26.0699
G01 X42.9245 Y26.1190
G01 X42.9483 Y26.2142
G01 X42.9629 Y26.2621
G01 X42.9959 Y26.3545
G01 X43.0151 Y26.4007
G01 X43.0570 Y26.4894
G01 X43.0806 Y26.5336
G01 X43.1311 Y26.6178
G01 X43.1589 Y26.6594
G01 X43.2174 Y26.7382
G01 X43.2491 Y26.7769
G01 X43.3150 Y26.8496
G01 X43.3504 Y26.8850
G01 X43.4231 Y26.9509
G01 X43.4618 Y26.9826
G01 X43.5406 Y27.0411
G01 X43.5822 Y27.0689
G01 X43.6664 Y27.1194
G01 X43.7106 Y27.1430
G01 X43.7993 Y27.1849
G01 X43.8455 Y27.2041
G01 X43.9379 Y27.2371
G01 X43.9858 Y27.2517
G01 X44.0810 Y27.2755
G01 X44.1301 Y27.2853
G01 X44.2272 Y27.2997
G01 X44.2770 Y27.3046
G01 X44.3750 Y27.3094
G01 X44.4250 Y27.3094
G01 X44.5230 Y27.3046
G01 X44.5728 Y27.2997
G01 X44.6699 Y27.2853
G01 X44.7190 Y27.2755
G01 X44.8142 Y27.2517
G01 X44.8621 Y27.2371
G01 X44.9545 Y27.2041
G01 X45.0007 Y27.1849
G01 X45.0894 Y27.1430
G01 X45.1336 Y27.1194
G01 X45.2178 Y27.0689
G01 X45.2594 Y27.0411
G01 X45.3382 Y26.9826
G01 X45.3769 Y26.9509
G01 X45.4496 Y26.8850
G01 X45.4850 Y26.8496
G01 X45.5509 Y26.7769
G01 X45.5826 Y26.7382
G01 X45.6411 Y26.6594
G01 X45.6689 Y26.6178
G01 X45.7194 Y26.5336
G01 X45.7430 Y26.4894
G01 X45.7849 Y26.4007
G01 X45.8041 Y26.3545
G01 X45.8097 Y26.3386
G01 X45.8097 Y34.7410
G01 X45.7851 Y34.7683
G01 X45.7674 Y34.7897
G01 X41.5047 Y34.7897
G01 X42.3800 Y33.9145
G01 X42.3904 Y33.9250
G01 X42.4631 Y33.9909
G01 X42.5018 Y34.0226
G01 X42.5806 Y34.0811
G01 X42.6222 Y34.1089
G01 X42.7064 Y34.1594
G01 X42.7506 Y34.1830
G01 X42.8393 Y34.2249
G01 X42.8855 Y34.2441
G01 X42.9779 Y34.2771
G01 X43.0258 Y34.2917
G01 X43.1210 Y34.3155
G01 X43.1701 Y34.3253
G01 X43.2672 Y34.3397
G01 X43.3170 Y34.3446
G01 X43.4150 Y34.3494
G01 X43.4650 Y34.3494
G01 X43.5630 Y34.3446
G01 X43.6128 Y34.3397
G01 X43.7099 Y34.3253
G01 X43.7590 Y34.3155
G01 X43.8542 Y34.2917
G01 X43.9021 Y34.2771
G01 X43.9945 Y34.2441
G01 X44.0407 Y34.2249
G01 X44.1294 Y34.1830
G01 X44.1736 Y34.1594
G01 X44.2578 Y34.1089
G01 X44.2994 Y34.0811
G01 X44.3782 Y34.0226
G01 X44.4169 Y33.9909
G01 X44.4896 Y33.9250
G01 X44.5250 Y33.8896
G01 X44.5909 Y33.8169
G01 X44.6226 Y33.7782
G01 X44.6811 Y33.6994
G01 X44.7089 Y33.6578
G01 X44.7594 Y33.5736
G01 X44.7830 Y33.5294
G01 X44.8249 Y33.4407
G01 X44.8441 Y33.3945
G01 X44.8771 Y33.3021
G01 X44.8917 Y33.2542
G01 X44.9155 Y33.1590
G01 X44.9253 Y33.1099
G01 X44.9397 Y33.0128
G01 X44.9446 Y32.9630
G01 X44.9494 Y32.8650
G01 X44.9494 Y32.8150
G01 X44.9446 Y32.7170
G01 X44.9397 Y32.6672
G01 X44.9253 Y32.5701
G01 X44.9155 Y32.5210
G01 X44.8917 Y32.4258
G01 X44.8771 Y32.3779
G01 X44.8441 Y32.2855
G01 X44.8249 Y32.2393
G01 X44.7830 Y32.1506
G01 X44.7594 Y32.1064
G01 X44.7089 Y32.0222
G01 X44.6811 Y31.9806
G01 X44.6226 Y31.9018
G01 X44.5909 Y31.8631
G01 X44.5250 Y31.7904
G01 X44.4896 Y31.7550
G01 X44.4169 Y31.6891
G01 X44.3782 Y31.6574
G01 X44.2994 Y31.5989
G01 X44.2578 Y31.5711
G01 X44.1736 Y31.5206
G01 X44.1294 Y31.4970
G01 X44.0407 Y31.4551
G01 X43.9945 Y31.4359
G01 X43.9021 Y31.4029
G01 X43.8542 Y31.3883
G01 X43.7590 Y31.3645
G01 X43.7099 Y31.3547
G01 X43.6128 Y31.3403
G01 X43.5630 Y31.3354
G01 X43.4650 Y31.3306
G01 X43.4150 Y31.3306
G01 X43.3170 Y31.3354
G01 X43.2672 Y31.3403
G01 X43.1701 Y31.3547
G01 X43.1210 Y31.3645
G01 X43.0258 Y31.3883
G01 X42.9779 Y31.4029
G01 X42.8855 Y31.4359
G01 X42.8393 Y31.4551
G01 X42.7506 Y31.4970
G01 X42.7064 Y31.5206
G01 X42.6222 Y31.5711
G01 X42.5806 Y31.5989
G01 X42.5018 Y31.6574
G01 X42.4631 Y31.6891
G01 X42.3904 Y31.7550
G01 X42.3550 Y31.7904
G01 X42.3193 Y31.8297
G01 X42.0258 Y31.8297
G01 X42.0008 Y31.8304
G01 X41.9517 Y31.8328
G01 X41.9019 Y31.8377
G01 X41.8534 Y31.8449
G01 X41.8043 Y31.8546
G01 X41.7567 Y31.8666
G01 X41.7088 Y31.8811
G01 X41.6625 Y31.8976
G01 X41.6163 Y31.9168
G01 X41.5719 Y31.9378
G01 X41.5278 Y31.9614
G01 X41.4857 Y31.9866
G01 X41.4441 Y32.0144
G01 X41.4046 Y32.0437
G01 X41.3659 Y32.0754
G01 X41.3296 Y32.1084
G01 X41.3114 Y32.1256
G01 X39.8973 Y33.5397
G01 X33.2707 Y33.5397
G01 X33.2350 Y33.5004
G01 X33.1996 Y33.4650
G01 X33.1269 Y33.3991
G01 X33.0882 Y33.3674
G01 X33.0094 Y33.3089
G01 X32.9678 Y33.2811
G01 X32.8836 Y33.2306
G01 X32.8394 Y33.2070
G01 X32.7507 Y33.1651
G01 X32.7045 Y33.1459
G01 X32.6121 Y33.1129
G01 X32.5642 Y33.0983
G01 X32.4690 Y33.0745
G01 X32.4199 Y33.0647
G01 X32.3228 Y33.0503
G01 X32.2730 Y33.0454
G01 X32.1750 Y33.0406
G01 X32.1250 Y33.0406
G01 X32.0270 Y33.0454
G01 X31.9772 Y33.0503
G01 X31.8801 Y33.0647
G01 X31.8310 Y33.0745
G01 X31.7358 Y33.0983
G01 X31.6879 Y33.1129
G01 X31.5955 Y33.1459
G01 X31.5493 Y33.1651
G01 X31.4606 Y33.2070
G01 X31.4164 Y33.2306
G01 X31.3322 Y33.2811
G01 X31.2906 Y33.3089
G01 X31.2118 Y33.3674
G01 X31.1731 Y33.3991
G01 X31.1004 Y33.4650
G01 X31.0650 Y33.5004
G01 X31.0293 Y33.5397
G01 X26.0685 Y33.5397
G01 X25.4103 Y32.8815
G01 X25.4103 Y24.9207
G01 X25.4496 Y24.8850
G01 X25.4850 Y24.8496
G01 X25.5509 Y24.7769
G01 X25.5826 Y24.7382
G01 X25.6411 Y24.6594
G01 X25.6689 Y24.6178
G01 X25.7194 Y24.5336
G01 X25.7430 Y24.4894
G01 X25.7849 Y24.4007
G01 X25.8041 Y24.3545
G01 X25.8371 Y24.2621
G01 X25.8517 Y24.2142
G01 X25.8755 Y24.1190
G01 X25.8853 Y24.0699
G01 X25.8997 Y23.9728
G01 X25.9046 Y23.9230
G01 X25.9094 Y23.8250
G01 X25.9094 Y23.7750
G01 X25.9046 Y23.6770
G01 X25.8997 Y23.6272
G01 X25.8853 Y23.5301
G01 X25.8755 Y23.4810
G01 X25.8517 Y23.3858
G01 X25.8371 Y23.3379
G01 X25.8249 Y23.3038
G01 X26.3185 Y22.8103
G01 X27.4000 Y22.8103
G01 X27.4250 Y22.8096
G01 X27.4741 Y22.8072
G01 X27.5239 Y22.8023
G01 X27.5724 Y22.7951
G01 X27.6215 Y22.7854
G01 X27.6691 Y22.7734
G01 X27.7170 Y22.7589
G01 X27.7633 Y22.7424
G01 X27.8095 Y22.7232
G01 X27.8539 Y22.7022
G01 X27.8980 Y22.6786
G01 X27.9401 Y22.6534
G01 X27.9817 Y22.6256
G01 X28.0212 Y22.5963
G01 X28.0599 Y22.5646
G01 X28.0962 Y22.5316
G01 X28.1144 Y22.5144
G01 X29.4544 Y21.1744
G01 X29.4716 Y21.1562
G01 X29.5046 Y21.1199
G01 X29.5363 Y21.0812
G01 X29.5656 Y21.0417
G01 X29.5934 Y21.0001
G01 X29.6186 Y20.9580
G01 X29.6422 Y20.9139
G01 X29.6632 Y20.8695
G01 X29.6824 Y20.8233
G01 X29.6989 Y20.7770
G01 X29.7134 Y20.7291
G01 X29.7254 Y20.6815
G01 X29.7351 Y20.6324
G01 X29.7423 Y20.5839
G01 X29.7472 Y20.5341
G01 X29.7496 Y20.4850
G01 X29.7503 Y20.4600
G01 X29.7503 Y18.4607
G01 X29.7896 Y18.4250
G01 X29.8250 Y18.3896
G01 X29.8908 Y18.3170
G01 X29.8925 Y18.3500
G01 X29.8998 Y18.3995
G01 X29.9120 Y18.4480
G01 X29.9288 Y18.4952
G01 X29.9502 Y18.5404
G01 X29.9760 Y18.5833
G01 X30.0058 Y18.6235
G01 X30.0394 Y18.6606
G01 X30.0765 Y18.6942
G01 X30.1167 Y18.7240
G01 X30.1596 Y18.7498
G01 X30.2048 Y18.7712
G01 X30.2520 Y18.7880
G01 X30.3005 Y18.8002
G01 X30.3500 Y18.8075
G01 X30.3897 Y18.8095
G01 X30.3897 Y19.1793
G01 X30.3504 Y19.2150
G01 X30.3150 Y19.2504
G01 X30.2491 Y19.3231
G01 X30.2174 Y19.3618
G01 X30.1589 Y19.4406
G01 X30.1311 Y19.4822
G01 X30.0806 Y19.5664
G01 X30.0570 Y19.6106
G01 X30.0151 Y19.6993
G01 X29.9959 Y19.7455
G01 X29.9629 Y19.8379
G01 X29.9483 Y19.8858
G01 X29.9245 Y19.9810
G01 X29.9147 Y20.0301
G01 X29.9003 Y20.1272
G01 X29.8954 Y20.1770
G01 X29.8906 Y20.2750
G01 X29.8906 Y20.3250
G01 X29.8954 Y20.4230
G01 X29.9003 Y20.4728
G01 X29.9147 Y20.5699
G01 X29.9245 Y20.6190
G01 X29.9483 Y20.7142
G01 X29.9629 Y20.7621
G01 X29.9959 Y20.8545
G01 X30.0151 Y20.9007
G01 X30.0570 Y20.9894
G01 X30.0806 Y21.0336
G01 X30.1311 Y21.1178
G01 X30.1589 Y21.1594
G01 X30.2174 Y21.2382
G01 X30.2491 Y21.2769
G01 X30.3150 Y21.3496
G01 X30.3504 Y21.3850
G01 X30.4231 Y21.4509
G01 X30.4618 Y21.4826
G01 X30.5406 Y21.5411
G01 X30.5822 Y21.5689
G01 X30.6664 Y21.6194
G01 X30.7106 Y21.6430
G01 X30.7993 Y21.6849
G01 X30.8455 Y21.7041
G01 X30.9379 Y21.7371
G01 X30.9858 Y21.7517
G01 X31.0810 Y21.7755
G01 X31.1301 Y21.7853
G01 X31.2272 Y21.7997
G01 X31.2770 Y21.8046
G01 X31.3750 Y21.8094
G01 X31.4250 Y21.8094
G01 X31.5230 Y21.8046
G01 X31.5728 Y21.7997
G01 X31.6699 Y21.7853
G01 X31.7190 Y21.7755
G01 X31.8142 Y21.7517
G01 X31.8621 Y21.7371
G01 X31.9545 Y21.7041
G01 X32.0007 Y21.6849
G01 X32.0894 Y21.6430
G01 X32.1336 Y21.6194
G01 X32.2178 Y21.5689
G01 X32.2594 Y21.5411
G01 X32.3382 Y21.4826
G01 X32.3769 Y21.4509
G01 X32.4496 Y21.3850
G01 X32.4850 Y21.3496
G01 X32.5509 Y21.2769
G01 X32.5826 Y21.2382
G01 X32.6411 Y21.1594
G01 X32.6689 Y21.1178
G01 X32.7194 Y21.0336
G01 X32.7430 Y20.9894
G01 X32.7849 Y20.9007
G01 X32.8041 Y20.8545
G01 X32.8371 Y20.7621
G01 X32.8517 Y20.7142
G01 X32.8755 Y20.6190
G01 X32.8853 Y20.5699
G01 X32.8997 Y20.4728
G01 X32.9046 Y20.4230
G01 X32.9094 Y20.3250
G01 X32.9094 Y20.2750
G01 X32.9046 Y20.1770
G01 X32.8997 Y20.1272
G01 X32.8853 Y20.0301
G01 X32.8755 Y19.9810
G01 X32.8517 Y19.8858
G01 X32.8371 Y19.8379
G01 X32.8041 Y19.7455
G01 X32.7849 Y19.6993
G01 X32.7430 Y19.6106
G01 X32.7194 Y19.5664
G01 X32.6689 Y19.4822
G01 X32.6411 Y19.4406
G01 X32.5826 Y19.3618
G01 X32.5509 Y19.3231
G01 X32.4850 Y19.2504
G01 X32.4496 Y19.2150
G01 X32.4103 Y19.1793
G01 X32.4103 Y18.8095
G01 X32.4500 Y18.8075
G01 X32.4995 Y18.8002
G01 X32.5480 Y18.7880
G01 X32.5952 Y18.7712
G01 X32.6404 Y18.7498
G01 X32.6833 Y18.7240
G01 X32.7235 Y18.6942
G01 X32.7606 Y18.6606
G01 X32.7942 Y18.6235
G01 X32.8240 Y18.5833
G01 X32.8498 Y18.5404
G01 X32.8712 Y18.4952
G01 X32.8880 Y18.4480
G01 X32.9002 Y18.3995
G01 X32.9075 Y18.3500
G01 X32.9100 Y18.3000
G01 X32.9100 Y15.3000
G01 X32.9075 Y15.2500
G01 X32.9002 Y15.2005
G01 X32.8880 Y15.1520
G01 X32.8712 Y15.1048
G01 X32.8498 Y15.0596
G01 X32.8240 Y15.0167
G01 X32.7942 Y14.9765
G01 X32.7606 Y14.9394
G01 X32.7235 Y14.9058
G01 X32.6833 Y14.8760
G01 X32.6404 Y14.8502
G01 X32.5952 Y14.8288
G01 X32.5480 Y14.8120
G01 X32.4995 Y14.7998
G01 X32.4500 Y14.7925
G01 X32.4103 Y14.7905
G01 X32.4103 Y13.9392
G01 X32.4231 Y13.9509
G01 X32.4618 Y13.9826
G01 X32.5406 Y14.0411
G01 X32.5822 Y14.0689
G01 X32.6664 Y14.1194
G01 X32.7106 Y14.1430
G01 X32.7993 Y14.1849
G01 X32.8455 Y14.2041
G01 X32.9379 Y14.2371
G01 X32.9858 Y14.2517
G01 X33.0810 Y14.2755
G01 X33.1301 Y14.2853
G01 X33.2272 Y14.2997
G01 X33.2770 Y14.3046
G01 X33.3750 Y14.3094
G01 X33.4250 Y14.3094
G01 X33.5230 Y14.3046
G01 X33.5728 Y14.2997
G01 X33.6699 Y14.2853
G01 X33.7190 Y14.2755
G01 X33.8142 Y14.2517
G01 X33.8621 Y14.2371
G01 X33.9545 Y14.2041
G01 X34.0007 Y14.1849
G01 X34.0894 Y14.1430
G01 X34.1336 Y14.1194
G01 X34.2178 Y14.0689
G01 X34.2594 Y14.0411
G01 X34.3382 Y13.9826
G01 X34.3769 Y13.9509
G01 X34.4496 Y13.8850
G01 X34.4850 Y13.8496
G01 X34.5207 Y13.8103
G01 X35.7793 Y13.8103
G01 X35.8150 Y13.8496
G01 X35.8504 Y13.8850
G01 X35.9231 Y13.9509
G01 X35.9618 Y13.9826
G01 X36.0406 Y14.0411
G01 X36.0822 Y14.0689
G01 X36.1664 Y14.1194
G01 X36.2106 Y14.1430
G01 X36.2993 Y14.1849
G01 X36.3455 Y14.2041
G01 X36.4379 Y14.2371
G01 X36.4858 Y14.2517
G01 X36.5810 Y14.2755
G01 X36.6301 Y14.2853
G01 X36.7272 Y14.2997
G01 X36.7770 Y14.3046
G01 X36.8750 Y14.3094
G01 X36.9250 Y14.3094
G01 X37.0230 Y14.3046
G01 X37.0728 Y14.2997
G01 X37.1699 Y14.2853
G01 X37.2190 Y14.2755
G01 X37.3142 Y14.2517
G01 X37.3621 Y14.2371
G01 X37.4545 Y14.2041
G01 X37.5007 Y14.1849
G01 X37.5894 Y14.1430
G01 X37.6336 Y14.1194
G01 X37.7178 Y14.0689
G01 X37.7594 Y14.0411
G01 X37.8382 Y13.9826
G01 X37.8769 Y13.9509
G01 X37.9496 Y13.8850
G01 X37.9850 Y13.8496
G01 X38.0509 Y13.7769
G01 X38.0826 Y13.7382
G01 X38.1411 Y13.6594
G01 X38.1689 Y13.6178
G01 X38.2194 Y13.5336
G01 X38.2430 Y13.4894
G01 X38.2849 Y13.4007
G01 X38.3041 Y13.3545
G01 X38.3371 Y13.2621
G01 X38.3517 Y13.2142
G01 X38.3755 Y13.1190
G01 X38.3853 Y13.0699
G01 X38.3997 Y12.9728
G01 X38.4046 Y12.9230
G01 X38.4094 Y12.8250
G01 X38.4094 Y12.7750
G01 X38.4046 Y12.6770
G01 X38.3997 Y12.6272
G01 X38.3853 Y12.5301
G01 X38.3755 Y12.4810
G01 X38.3517 Y12.3858
G01 X38.3371 Y12.3379
G01 X38.3041 Y12.2455
G01 X38.2849 Y12.1993
G01 X38.2430 Y12.1106
G01 X38.2194 Y12.0664
G01 X38.1689 Y11.9822
G01 X38.1411 Y11.9406
G01 X38.0826 Y11.8618
G01 X38.0509 Y11.8231
G01 X37.9850 Y11.7504
G01 X37.9496 Y11.7150
G01 X37.8769 Y11.6491
G01 X37.8382 Y11.6174
G01 X37.7594 Y11.5589
G01 X37.7178 Y11.5311
G01 X37.6336 Y11.4806
G01 X37.5894 Y11.4570
G01 X37.5007 Y11.4151
G01 X37.4545 Y11.3959
G01 X37.3621 Y11.3629
G01 X37.3142 Y11.3483
G01 X37.2190 Y11.3245
G01 X37.1699 Y11.3147
G01 X37.0728 Y11.3003
G01 X37.0230 Y11.2954
G01 X36.9250 Y11.2906
G01 X36.8750 Y11.2906
G01 X36.7770 Y11.2954
G01 X36.7272 Y11.3003
G01 X36.6301 Y11.3147
G01 X36.5810 Y11.3245
G01 X36.4858 Y11.3483
G01 X36.4379 Y11.3629
G01 X36.3455 Y11.3959
G01 X36.2993 Y11.4151
G01 X36.2106 Y11.4570
G01 X36.1664 Y11.4806
G01 X36.0822 Y11.5311
G01 X36.0406 Y11.5589
G01 X35.9618 Y11.6174
G01 X35.9231 Y11.6491
G01 X35.8504 Y11.7150
G01 X35.8150 Y11.7504
G01 X35.7793 Y11.7897
G01 X34.5207 Y11.7897
G01 X34.4850 Y11.7504
G01 X34.4496 Y11.7150
G01 X34.3769 Y11.6491
G01 X34.3382 Y11.6174
G01 X34.2594 Y11.5589
G01 X34.2178 Y11.5311
G01 X34.1336 Y11.4806
G01 X34.0894 Y11.4570
G01 X34.0007 Y11.4151
G01 X33.9545 Y11.3959
G01 X33.8621 Y11.3629
G01 X33.8142 Y11.3483
G01 X33.7190 Y11.3245
G01 X33.6699 Y11.3147
G01 X33.5694 Y11.3000
G00 Z2.0000
G00 X32.4103 Y7.9392
G01 F60.00
G01 Z-0.1500
G01 F120.00
G01 X32.4231 Y7.9509
G01 X32.4618 Y7.9826
G01 X32.5406 Y8.0411
G01 X32.5822 Y8.0689
G01 X32.6664 Y8.1194
G01 X32.7106 Y8.1430
G01 X32.7993 Y8.1849
G01 X32.8455 Y8.2041
G01 X32.9379 Y8.2371
G01 X32.9858 Y8.2517
G01 X33.0810 Y8.2755
G01 X33.1301 Y8.2853
G01 X33.2306 Y8.3000
G01 X33.1301 Y8.3147
G01 X33.0810 Y8.3245
G01 X32.9858 Y8.3483
G01 X32.9379 Y8.3629
G01 X32.8455 Y8.3959
G01 X32.7993 Y8.4151
G01 X32.7106 Y8.4570
G01 X32.6664 Y8.4806
G01 X32.5822 Y8.5311
G01 X32.5406 Y8.5589
G01 X32.4618 Y8.6174
G01 X32.4231 Y8.6491
G01 X32.4103 Y8.6608
G01 X32.4103 Y7.9392
G00 Z2.0000
G00 X38.8897 Y19.1380
G01 F60.00
G01 Z-0.1500
G01 F120.00
G01 X38.8897 Y19.8815
G01 X38.5556 Y20.2157
G01 X38.5658 Y20.1965
G01 X38.6707 Y19.9748
G01 X38.6899 Y19.9285
G01 X38.7725 Y19.6975
G01 X38.7871 Y19.6496
G01 X38.8467 Y19.4116
G01 X38.8564 Y19.3626
G01 X38.8897 Y19.1380
G00 Z2.0000
G00 X37.3157 Y21.4556
G01 F60.00
G01 Z-0.1500
G01 F120.00
G01 X36.9815 Y21.7897
G01 X36.2380 Y21.7897
G01 X36.4626 Y21.7564
G01 X36.5116 Y21.7467
G01 X36.7496 Y21.6871
G01 X36.7975 Y21.6725
G01 X37.0285 Y21.5899
G01 X37.0748 Y21.5707
G01 X37.2965 Y21.4658
G01 X37.3157 Y21.4556
G00 Z2.0000
G00 X43.9103 Y15.1006
G01 F60.00
G01 Z-0.1500
G01 F120.00
G01 X43.9103 Y12.9392
G01 X43.9231 Y12.9509
G01 X43.9618 Y12.9826
G01 X44.0406 Y13.0411
G01 X44.0822 Y13.0689
G01 X44.1664 Y13.1194
G01 X44.2106 Y13.1430
G01 X44.2993 Y13.1849
G01 X44.3455 Y13.2041
G01 X44.4379 Y13.2371
G01 X44.4858 Y13.2517
G01 X44.5810 Y13.2755
G01 X44.6301 Y13.2853
G01 X44.7272 Y13.2997
G01 X44.7770 Y13.3046
G01 X44.8750 Y13.3094
G01 X44.9250 Y13.3094
G01 X45.0230 Y13.3046
G01 X45.0728 Y13.2997
G01 X45.1699 Y13.2853
G01 X45.2190 Y13.2755
G01 X45.3142 Y13.2517
G01 X45.3621 Y13.2371
G01 X45.4545 Y13.2041
G01 X45.5007 Y13.1849
G01 X45.5894 Y13.1430
G01 X45.6336 Y13.1194
G01 X45.6794 Y13.0919
G01 X44.1856 Y14.5856
G01 X44.1684 Y14.6038
G01 X44.1354 Y14.6401
G01 X44.1037 Y14.6788
G01 X44.0744 Y14.7183
G01 X44.0466 Y14.7599
G01 X44.0214 Y14.8020
G01 X43.9978 Y14.8461
G01 X43.9768 Y14.8905
G01 X43.9576 Y14.9367
G01 X43.9411 Y14.9830
G01 X43.9266 Y15.0309
G01 X43.9146 Y15.0785
G01 X43.9103 Y15.1006
G00 Z2.0000
G00 X45.9202 Y12.9117
G01 F60.00
G01 Z-0.1500
G01 F120.00
G01 X45.9496 Y12.8850
G01 X45.9850 Y12.8496
G01 X46.0207 Y12.8103
G01 X46.2006 Y12.8103
G01 X46.1785 Y12.8146
G01 X46.1309 Y12.8266
G01 X46.0830 Y12.8411
G01 X46.0367 Y12.8576
G01 X45.9905 Y12.8768
G01 X45.9461 Y12.8978
G01 X45.9202 Y12.9117
G00 Z2.0000
G00 X49.1200 Y16.4100
G01 F60.00
G01 Z-0.1500
G01 F120.00
G01 X47.1200 Y16.4100
G01 X47.0700 Y16.4125
G01 X47.0205 Y16.4198
G01 X46.9720 Y16.4320
G01 X46.9248 Y16.4488
G01 X46.8796 Y16.4702
G01 X46.8367 Y16.4960
G01 X46.7965 Y16.5258
G01 X46.7594 Y16.5594
G01 X46.7258 Y16.5965
G01 X46.6960 Y16.6367
G01 X46.6702 Y16.6796
G01 X46.6488 Y16.7248
G01 X46.6320 Y16.7720
G01 X46.6198 Y16.8205
G01 X46.6125 Y16.8700
G01 X46.6100 Y16.9200
G01 X46.6100 Y18.9200
G01 X46.6125 Y18.9700
G01 X46.6198 Y19.0195
G01 X46.6320 Y19.0680
G01 X46.6488 Y19.1152
G01 X46.6702 Y19.1604
G01 X46.6960 Y19.2033
G01 X46.7258 Y19.2435
G01 X46.7594 Y19.2806
G01 X46.7965 Y19.3142
G01 X46.8367 Y19.3440
G01 X46.8796 Y19.3698
G01 X46.9248 Y19.3912
G01 X46.9720 Y19.4080
G01 X47.0205 Y19.4202
G01 X47.0700 Y19.4275
G01 X47.1200 Y19.4300
G01 X49.1200 Y19.4300
G01 X49.1700 Y19.4275
G01 X49.2195 Y19.4202
G01 X49.2680 Y19.4080
G01 X49.3152 Y19.3912
G01 X49.3604 Y19.3698
G01 X49.4033 Y19.3440
G01 X49.4435 Y19.3142
G01 X49.4806 Y19.2806
G01 X49.5142 Y19.2435
G01 X49.5440 Y19.2033
G01 X49.5698 Y19.1604
G01 X49.5912 Y19.1152
G01 X49.6080 Y19.0680
G01 X49.6151 Y19.0397
G01 X49.6251 Y19.0517
G01 X49.6811 Y19.1135
G01 X49.7165 Y19.1489
G01 X49.7783 Y19.2049
G01 X49.8170 Y19.2367
G01 X49.8840 Y19.2864
G01 X49.9256 Y19.3142
G01 X49.9971 Y19.3571
G01 X50.0413 Y19.3807
G01 X50.1167 Y19.4163
G01 X50.1629 Y19.4355
G01 X50.2414 Y19.4636
G01 X50.2893 Y19.4781
G01 X50.3703 Y19.4984
G01 X50.4193 Y19.5081
G01 X50.5019 Y19.5204
G01 X50.5517 Y19.5253
G01 X50.6350 Y19.5294
G01 X50.6850 Y19.5294
G01 X50.7683 Y19.5253
G01 X50.8181 Y19.5204
G01 X50.9007 Y19.5081
G01 X50.9497 Y19.4984
G01 X51.0307 Y19.4781
G01 X51.0786 Y19.4636
G01 X51.1571 Y19.4355
G01 X51.2033 Y19.4163
G01 X51.2787 Y19.3807
G01 X51.3229 Y19.3571
G01 X51.3944 Y19.3142
G01 X51.4360 Y19.2864
G01 X51.5030 Y19.2367
G01 X51.5417 Y19.2049
G01 X51.6035 Y19.1489
G01 X51.6389 Y19.1135
G01 X51.6949 Y19.0517
G01 X51.7267 Y19.0130
G01 X51.7764 Y18.9460
G01 X51.8042 Y18.9044
G01 X51.8471 Y18.8329
G01 X51.8707 Y18.7887
G01 X51.9063 Y18.7133
G01 X51.9255 Y18.6671
G01 X51.9300 Y18.6545
G01 X51.9345 Y18.6671
G01 X51.9537 Y18.7133
G01 X51.9893 Y18.7887
G01 X52.0129 Y18.8329
G01 X52.0558 Y18.9044
G01 X52.0836 Y18.9460
G01 X52.1333 Y19.0130
G01 X52.1651 Y19.0517
G01 X52.2211 Y19.1135
G01 X52.2565 Y19.1489
G01 X52.3183 Y19.2049
G01 X52.3570 Y19.2367
G01 X52.4240 Y19.2864
G01 X52.4656 Y19.3142
G01 X52.5371 Y19.3571
G01 X52.5813 Y19.3807
G01 X52.6567 Y19.4163
G01 X52.7029 Y19.4355
G01 X52.7814 Y19.4636
G01 X52.8293 Y19.4781
G01 X52.9103 Y19.4984
G01 X52.9593 Y19.5081
G01 X53.0419 Y19.5204
G01 X53.0917 Y19.5253
G01 X53.1750 Y19.5294
G01 X53.2250 Y19.5294
G01 X53.3083 Y19.5253
G01 X53.3581 Y19.5204
G01 X53.4407 Y19.5081
G01 X53.4897 Y19.4984
G01 X53.5707 Y19.4781
G01 X53.6186 Y19.4636
G01 X53.6971 Y19.4355
G01 X53.7433 Y19.4163
G01 X53.8187 Y19.3807
G01 X53.8629 Y19.3571
G01 X53.9344 Y19.3142
G01 X53.9760 Y19.2864
G01 X54.0430 Y19.2367
G01 X54.0817 Y19.2049
G01 X54.1435 Y19.1489
G01 X54.1789 Y19.1135
G01 X54.2349 Y19.0517
G01 X54.2667 Y19.0130
G01 X54.3164 Y18.9460
G01 X54.3442 Y18.9044
G01 X54.3871 Y18.8329
G01 X54.4107 Y18.7887
G01 X54.4463 Y18.7133
G01 X54.4655 Y18.6671
G01 X54.4700 Y18.6545
G01 X54.4745 Y18.6671
G01 X54.4937 Y18.7133
G01 X54.5293 Y18.7887
G01 X54.5529 Y18.8329
G01 X54.5958 Y18.9044
G01 X54.6236 Y18.9460
G01 X54.6733 Y19.0130
G01 X54.7051 Y19.0517
G01 X54.7297 Y19.0790
G01 X54.7297 Y19.6015
G01 X54.0415 Y20.2897
G01 X50.4000 Y20.2897
G01 X50.3750 Y20.2904
G01 X50.3259 Y20.2928
G01 X50.2761 Y20.2977
G01 X50.2276 Y20.3049
G01 X50.1785 Y20.3146
G01 X50.1309 Y20.3266
G01 X50.0830 Y20.3411
G01 X50.0367 Y20.3576
G01 X49.9905 Y20.3768
G01 X49.9461 Y20.3978
G01 X49.9020 Y20.4214
G01 X49.8599 Y20.4466
G01 X49.8183 Y20.4744
G01 X49.7788 Y20.5037
G01 X49.7401 Y20.5354
G01 X49.7038 Y20.5684
G01 X49.6856 Y20.5856
G01 X46.1056 Y24.1656
G01 X46.0884 Y24.1838
G01 X46.0554 Y24.2201
G01 X46.0237 Y24.2588
G01 X45.9944 Y24.2983
G01 X45.9666 Y24.3399
G01 X45.9414 Y24.3820
G01 X45.9178 Y24.4261
G01 X45.8968 Y24.4705
G01 X45.8776 Y24.5167
G01 X45.8611 Y24.5630
G01 X45.8466 Y24.6109
G01 X45.8346 Y24.6585
G01 X45.8249 Y24.7076
G01 X45.8177 Y24.7561
G01 X45.8128 Y24.8059
G01 X45.8104 Y24.8550
G01 X45.8097 Y24.8800
G01 X45.8097 Y25.2614
G01 X45.8041 Y25.2455
G01 X45.7849 Y25.1993
G01 X45.7430 Y25.1106
G01 X45.7194 Y25.0664
G01 X45.6689 Y24.9822
G01 X45.6411 Y24.9406
G01 X45.5826 Y24.8618
G01 X45.5509 Y24.8231
G01 X45.4850 Y24.7504
G01 X45.4745 Y24.7400
G01 X45.6144 Y24.6001
G01 X45.6316 Y24.5820
G01 X45.6646 Y24.5456
G01 X45.6963 Y24.5069
G01 X45.7256 Y24.4675
G01 X45.7534 Y24.4259
G01 X45.7786 Y24.3838
G01 X45.8022 Y24.3397
G01 X45.8232 Y24.2953
G01 X45.8424 Y24.2490
G01 X45.8589 Y24.2028
G01 X45.8734 Y24.1549
G01 X45.8854 Y24.1073
G01 X45.8951 Y24.0582
G01 X45.9023 Y24.0097
G01 X45.9072 Y23.9598
G01 X45.9096 Y23.9108
G01 X45.9103 Y23.8858
G01 X45.9103 Y15.7185
G01 X46.8185 Y14.8103
G01 X53.4815 Y14.8103
G01 X53.6432 Y14.9719
G01 X53.6406 Y15.0250
G01 X53.6406 Y15.0750
G01 X53.6454 Y15.1730
G01 X53.6503 Y15.2228
G01 X53.6647 Y15.3199
G01 X53.6745 Y15.3690
G01 X53.6983 Y15.4642
G01 X53.7129 Y15.5121
G01 X53.7459 Y15.6045
G01 X53.7651 Y15.6507
G01 X53.8070 Y15.7394
G01 X53.8306 Y15.7836
G01 X53.8811 Y15.8678
G01 X53.9089 Y15.9094
G01 X53.9674 Y15.9882
G01 X53.9991 Y16.0269
G01 X54.0650 Y16.0996
G01 X54.1004 Y16.1350
G01 X54.1731 Y16.2009
G01 X54.2118 Y16.2326
G01 X54.2906 Y16.2911
G01 X54.3322 Y16.3189
G01 X54.4164 Y16.3694
G01 X54.4606 Y16.3930
G01 X54.5493 Y16.4349
G01 X54.5955 Y16.4541
G01 X54.6879 Y16.4871
G01 X54.7358 Y16.5017
G01 X54.8310 Y16.5255
G01 X54.8801 Y16.5353
G01 X54.9712 Y16.5488
G01 X54.9640 Y16.5536
G01 X54.8970 Y16.6033
G01 X54.8583 Y16.6351
G01 X54.7965 Y16.6911
G01 X54.7611 Y16.7265
G01 X54.7051 Y16.7883
G01 X54.6733 Y16.8270
G01 X54.6236 Y16.8940
G01 X54.5958 Y16.9356
G01 X54.5529 Y17.0071
G01 X54.5293 Y17.0513
G01 X54.4937 Y17.1267
G01 X54.4745 Y17.1729
G01 X54.4700 Y17.1855
G01 X54.4655 Y17.1729
G01 X54.4463 Y17.1267
G01 X54.4107 Y17.0513
G01 X54.3871 Y17.0071
G01 X54.3442 Y16.9356
G01 X54.3164 Y16.8940
G01 X54.2667 Y16.8270
G01 X54.2349 Y16.7883
G01 X54.1789 Y16.7265
G01 X54.1435 Y16.6911
G01 X54.0817 Y16.6351
G01 X54.0430 Y16.6033
G01 X53.9760 Y16.5536
G01 X53.9344 Y16.5258
G01 X53.8629 Y16.4829
G01 X53.8187 Y16.4593
G01 X53.7433 Y16.4237
G01 X53.6971 Y16.4045
G01 X53.6186 Y16.3764
G01 X53.5707 Y16.3619
G01 X53.4897 Y16.3416
G01 X53.4407 Y16.3319
G01 X53.3581 Y16.3196
G01 X53.3083 Y16.3147
G01 X53.2250 Y16.3106
G01 X53.1750 Y16.3106
G01 X53.0917 Y16.3147
G01 X53.0419 Y16.3196
G01 X52.9593 Y16.3319
G01 X52.9103 Y16.3416
G01 X52.8293 Y16.3619
G01 X52.7814 Y16.3764
G01 X52.7029 Y16.4045
G01 X52.6567 Y16.4237
G01 X52.5813 Y16.4593
G01 X52.5371 Y16.4829
G01 X52.4656 Y16.5258
G01 X52.4240 Y16.5536
G01 X52.3570 Y16.6033
G01 X52.3183 Y16.6351
G01 X52.2565 Y16.6911
G01 X52.2211 Y16.7265
G01 X52.1651 Y16.7883
G01 X52.1333 Y16.8270
G01 X52.0836 Y16.8940
G01 X52.0558 Y16.9356
G01 X52.0129 Y17.0071
G01 X51.9893 Y17.0513
G01 X51.9537 Y17.1267
G01 X51.9345 Y17.1729
G01 X51.9300 Y17.1855
G01 X51.9255 Y17.1729
G01 X51.9063 Y17.1267
G01 X51.8707 Y17.0513
G01 X51.8471 Y17.0071
G01 X51.8042 Y16.9356
G01 X51.7764 Y16.8940
G01 X51.7267 Y16.8270
G01 X51.6949 Y16.7883
G01 X51.6389 Y16.7265
G01 X51.6035 Y16.6911
G01 X51.5417 Y16.6351
G01 X51.5030 Y16.6033
G01 X51.4360 Y16.5536
G01 X51.3944 Y16.5258
G01 X51.3229 Y16.4829
G01 X51.2787 Y16.4593
G01 X51.2033 Y16.4237
G01 X51.1571 Y16.4045
G01 X51.0786 Y16.3764
G01 X51.0307 Y16.3619
G01 X50.9497 Y16.3416
G01 X50.9007 Y16.3319
G01 X50.8181 Y16.3196
G01 X50.7683 Y16.3147
G01 X50.6850 Y16.3106
G01 X50.6350 Y16.3106
G01 X50.5517 Y16.3147
G01 X50.5019 Y16.3196
G01 X50.4193 Y16.3319
G01 X50.3703 Y16.3416
G01 X50.2893 Y16.3619
G01 X50.2414 Y16.3764
G01 X50.1629 Y16.4045
G01 X50.1167 Y16.4237
G01 X50.0413 Y16.4593
G01 X49.9971 Y16.4829
G01 X49.9256 Y16.5258
G01 X49.8840 Y16.5536
G01 X49.8170 Y16.6033
G01 X49.7783 Y16.6351
G01 X49.7165 Y16.6911
G01 X49.6811 Y16.7265
G01 X49.6251 Y16.7883
G01 X49.6151 Y16.8003
G01 X49.6080 Y16.7720
G01 X49.5912 Y16.7248
G01 X49.5698 Y16.6796
G01 X49.5440 Y16.6367
G01 X49.5142 Y16.5965
G01 X49.4806 Y16.5594
G01 X49.4435 Y16.5258
G01 X49.4033 Y16.4960
G01 X49.3604 Y16.4702
G01 X49.3152 Y16.4488
G01 X49.2680 Y16.4320
G01 X49.2195 Y16.4198
G01 X49.1700 Y16.4125
G01 X49.1200 Y16.4100
G00 Z2.0000
G00 X54.0994 Y12.8103
G01 F60.00
G01 Z-0.1500
G01 F120.00
G01 X57.2608 Y12.8103
G01 X57.2491 Y12.8231
G01 X57.2174 Y12.8618
G01 X57.1589 Y12.9406
G01 X57.1311 Y12.9822
G01 X57.0806 Y13.0664
G01 X57.0570 Y13.1106
G01 X57.0151 Y13.1993
G01 X56.9959 Y13.2455
G01 X56.9629 Y13.3379
G01 X56.9483 Y13.3858
G01 X56.9245 Y13.4810
G01 X56.9147 Y13.5301
G01 X56.9003 Y13.6272
G01 X56.8954 Y13.6770
G01 X56.8906 Y13.7750
G01 X56.8906 Y13.8250
G01 X56.8954 Y13.9230
G01 X56.9003 Y13.9728
G01 X56.9147 Y14.0699
G01 X56.9245 Y14.1190
G01 X56.9483 Y14.2142
G01 X56.9629 Y14.2621
G01 X56.9959 Y14.3545
G01 X57.0151 Y14.4007
G01 X57.0570 Y14.4894
G01 X57.0806 Y14.5336
G01 X57.1311 Y14.6178
G01 X57.1589 Y14.6594
G01 X57.2174 Y14.7382
G01 X57.2491 Y14.7769
G01 X57.3150 Y14.8496
G01 X57.3504 Y14.8850
G01 X57.3897 Y14.9207
G01 X57.3897 Y16.6428
G01 X57.3365 Y16.6911
G01 X57.3011 Y16.7265
G01 X57.2451 Y16.7883
G01 X57.2133 Y16.8270
G01 X57.1636 Y16.8940
G01 X57.1358 Y16.9356
G01 X57.0929 Y17.0071
G01 X57.0693 Y17.0513
G01 X57.0337 Y17.1267
G01 X57.0145 Y17.1729
G01 X57.0100 Y17.1855
G01 X57.0055 Y17.1729
G01 X56.9863 Y17.1267
G01 X56.9507 Y17.0513
G01 X56.9271 Y17.0071
G01 X56.8842 Y16.9356
G01 X56.8564 Y16.8940
G01 X56.8067 Y16.8270
G01 X56.7749 Y16.7883
G01 X56.7189 Y16.7265
G01 X56.6835 Y16.6911
G01 X56.6217 Y16.6351
G01 X56.5830 Y16.6033
G01 X56.5160 Y16.5536
G01 X56.4744 Y16.5258
G01 X56.4029 Y16.4829
G01 X56.3587 Y16.4593
G01 X56.2833 Y16.4237
G01 X56.2371 Y16.4045
G01 X56.1586 Y16.3764
G01 X56.1107 Y16.3619
G01 X56.0297 Y16.3416
G01 X55.9807 Y16.3319
G01 X55.9530 Y16.3278
G01 X55.9678 Y16.3189
G01 X56.0094 Y16.2911
G01 X56.0882 Y16.2326
G01 X56.1269 Y16.2009
G01 X56.1996 Y16.1350
G01 X56.2350 Y16.0996
G01 X56.3009 Y16.0269
G01 X56.3326 Y15.9882
G01 X56.3911 Y15.9094
G01 X56.4189 Y15.8678
G01 X56.4694 Y15.7836
G01 X56.4930 Y15.7394
G01 X56.5349 Y15.6507
G01 X56.5541 Y15.6045
G01 X56.5871 Y15.5121
G01 X56.6017 Y15.4642
G01 X56.6255 Y15.3690
G01 X56.6353 Y15.3199
G01 X56.6497 Y15.2228
G01 X56.6546 Y15.1730
G01 X56.6594 Y15.0750
G01 X56.6594 Y15.0250
G01 X56.6546 Y14.9270
G01 X56.6497 Y14.8772
G01 X56.6353 Y14.7801
G01 X56.6255 Y14.7310
G01 X56.6017 Y14.6358
G01 X56.5871 Y14.5879
G01 X56.5541 Y14.4955
G01 X56.5349 Y14.4493
G01 X56.4930 Y14.3606
G01 X56.4694 Y14.3164
G01 X56.4189 Y14.2322
G01 X56.3911 Y14.1906
G01 X56.3326 Y14.1118
G01 X56.3009 Y14.0731
G01 X56.2350 Y14.0004
G01 X56.1996 Y13.9650
G01 X56.1269 Y13.8991
G01 X56.0882 Y13.8674
G01 X56.0094 Y13.8089
G01 X55.9678 Y13.7811
G01 X55.8836 Y13.7306
G01 X55.8394 Y13.7070
G01 X55.7507 Y13.6651
G01 X55.7045 Y13.6459
G01 X55.6121 Y13.6129
G01 X55.5642 Y13.5983
G01 X55.4690 Y13.5745
G01 X55.4199 Y13.5647
G01 X55.3228 Y13.5503
G01 X55.2730 Y13.5454
G01 X55.1750 Y13.5406
G01 X55.1250 Y13.5406
G01 X55.0719 Y13.5432
G01 X54.6144 Y13.0856
G01 X54.5962 Y13.0684
G01 X54.5599 Y13.0354
G01 X54.5212 Y13.0037
G01 X54.4817 Y12.9744
G01 X54.4401 Y12.9466
G01 X54.3980 Y12.9214
G01 X54.3539 Y12.8978
G01 X54.3095 Y12.8768
G01 X54.2633 Y12.8576
G01 X54.2170 Y12.8411
G01 X54.1691 Y12.8266
G01 X54.1215 Y12.8146
G01 X54.0994 Y12.8103
G00 Z2.0000
G00 X59.5392 Y12.8103
G01 F60.00
G01 Z-0.1500
G01 F120.00
G01 X59.8097 Y12.8103
G01 X59.8097 Y13.2614
G01 X59.8041 Y13.2455
G01 X59.7849 Y13.1993
G01 X59.7430 Y13.1106
G01 X59.7194 Y13.0664
G01 X59.6689 Y12.9822
G01 X59.6411 Y12.9406
G01 X59.5826 Y12.8618
G01 X59.5509 Y12.8231
G01 X59.5392 Y12.8103
G00 Z2.0000
G00 X59.8097 Y14.3386
G01 F60.00
G01 Z-0.1500
G01 F120.00
G01 X59.8097 Y16.7610
G01 X59.7851 Y16.7883
G01 X59.7533 Y16.8270
G01 X59.7036 Y16.8940
G01 X59.6758 Y16.9356
G01 X59.6329 Y17.0071
G01 X59.6093 Y17.0513
G01 X59.5737 Y17.1267
G01 X59.5545 Y17.1729
G01 X59.5500 Y17.1855
G01 X59.5455 Y17.1729
G01 X59.5263 Y17.1267
G01 X59.4907 Y17.0513
G01 X59.4671 Y17.0071
G01 X59.4242 Y16.9356
G01 X59.4103 Y16.9147
G01 X59.4103 Y14.9207
G01 X59.4496 Y14.8850
G01 X59.4850 Y14.8496
G01 X59.5509 Y14.7769
G01 X59.5826 Y14.7382
G01 X59.6411 Y14.6594
G01 X59.6689 Y14.6178
G01 X59.7194 Y14.5336
G01 X59.7430 Y14.4894
G01 X59.7849 Y14.4007
G01 X59.8041 Y14.3545
G01 X59.8097 Y14.3386
G00 Z2.0000
G00 X62.0900 Y17.1855
G01 F60.00
G01 Z-0.1500
G01 F120.00
G01 X62.0855 Y17.1729
G01 X62.0663 Y17.1267
G01 X62.0307 Y17.0513
G01 X62.0071 Y17.0071
G01 X61.9642 Y16.9356
G01 X61.9364 Y16.8940
G01 X61.8867 Y16.8270
G01 X61.8549 Y16.7883
G01 X61.8303 Y16.7610
G01 X61.8303 Y16.3648
G01 X61.8504 Y16.3850
G01 X61.9231 Y16.4509
G01 X61.9618 Y16.4826
G01 X62.0406 Y16.5411
G01 X62.0822 Y16.5689
G01 X62.1664 Y16.6194
G01 X62.2106 Y16.6430
G01 X62.2993 Y16.6849
G01 X62.3497 Y16.7056
G01 X62.3497 Y16.7610
G01 X62.3251 Y16.7883
G01 X62.2933 Y16.8270
G01 X62.2436 Y16.8940
G01 X62.2158 Y16.9356
G01 X62.1729 Y17.0071
G01 X62.1493 Y17.0513
G01 X62.1137 Y17.1267
G01 X62.0945 Y17.1729
G01 X62.0900 Y17.1855
G00 Z2.0000
G00 X61.5910 Y19.2897
G01 F60.00
G01 Z-0.1500
G01 F120.00
G01 X61.5960 Y19.2864
G01 X61.6630 Y19.2367
G01 X61.7017 Y19.2049
G01 X61.7635 Y19.1489
G01 X61.7989 Y19.1135
G01 X61.8549 Y19.0517
G01 X61.8867 Y19.0130
G01 X61.9364 Y18.9460
G01 X61.9642 Y18.9044
G01 X62.0071 Y18.8329
G01 X62.0307 Y18.7887
G01 X62.0663 Y18.7133
G01 X62.0855 Y18.6671
G01 X62.0900 Y18.6545
G01 X62.0945 Y18.6671
G01 X62.1137 Y18.7133
G01 X62.1493 Y18.7887
G01 X62.1729 Y18.8329
G01 X62.2158 Y18.9044
G01 X62.2436 Y18.9460
G01 X62.2933 Y19.0130
G01 X62.3251 Y19.0517
G01 X62.3811 Y19.1135
G01 X62.4165 Y19.1489
G01 X62.4783 Y19.2049
G01 X62.5170 Y19.2367
G01 X62.5840 Y19.2864
G01 X62.5890 Y19.2897
G01 X61.5910 Y19.2897
G00 Z2.0000
G00 X64.1310 Y19.2897
G01 F60.00
G01 Z-0.1500
G01 F120.00
G01 X64.1360 Y19.2864
G01 X64.2030 Y19.2367
G01 X64.2417 Y19.2049
G01 X64.3035 Y19.1489
G01 X64.3389 Y19.1135
G01 X64.3949 Y19.0517
G01 X64.4267 Y19.0130
G01 X64.4764 Y18.9460
G01 X64.5042 Y18.9044
G01 X64.5471 Y18.8329
G01 X64.5707 Y18.7887
G01 X64.6063 Y18.7133
G01 X64.6255 Y18.6671
G01 X64.6300 Y18.6545
G01 X64.6345 Y18.6671
G01 X64.6537 Y18.7133
G01 X64.6893 Y18.7887
G01 X64.7129 Y18.8329
G01 X64.7558 Y18.9044
G01 X64.7836 Y18.9460
G01 X64.8333 Y19.0130
G01 X64.8651 Y19.0517
G01 X64.8897 Y19.0790
G01 X64.8897 Y19.2897
G01 X64.1310 Y19.2897
G00 Z2.0000
G00 X64.6300 Y17.1855
G01 F60.00
G01 Z-0.1500
G01 F120.00
G01 X64.6255 Y17.1729
G01 X64.6063 Y17.1267
G01 X64.5707 Y17.0513
G01 X64.5471 Y17.0071
G01 X64.5042 Y16.9356
G01 X64.4764 Y16.8940
G01 X64.4267 Y16.8270
G01 X64.3949 Y16.7883
G01 X64.3707 Y16.7615
G01 X64.3720 Y16.0738
G01 X64.3854 Y16.0215
G01 X64.3951 Y15.9724
G01 X64.4023 Y15.9239
G01 X64.4072 Y15.8741
G01 X64.4096 Y15.8250
G01 X64.4096 Y15.7750
G01 X64.4072 Y15.7259
G01 X64.4023 Y15.6761
G01 X64.3951 Y15.6276
G01 X64.3844 Y15.5745
G01 X64.3997 Y15.4728
G01 X64.4046 Y15.4230
G01 X64.4094 Y15.3250
G01 X64.4094 Y15.2750
G01 X64.4046 Y15.1770
G01 X64.3997 Y15.1272
G01 X64.3853 Y15.0301
G01 X64.3755 Y14.9810
G01 X64.3517 Y14.8858
G01 X64.3371 Y14.8379
G01 X64.3041 Y14.7455
G01 X64.2849 Y14.6993
G01 X64.2430 Y14.6106
G01 X64.2194 Y14.5664
G01 X64.1689 Y14.4822
G01 X64.1411 Y14.4406
G01 X64.0826 Y14.3618
G01 X64.0509 Y14.3231
G01 X63.9850 Y14.2504
G01 X63.9496 Y14.2150
G01 X63.8769 Y14.1491
G01 X63.8382 Y14.1174
G01 X63.7594 Y14.0589
G01 X63.7178 Y14.0311
G01 X63.6336 Y13.9806
G01 X63.5894 Y13.9570
G01 X63.5007 Y13.9151
G01 X63.4545 Y13.8959
G01 X63.3621 Y13.8629
G01 X63.3142 Y13.8483
G01 X63.2190 Y13.8245
G01 X63.1699 Y13.8147
G01 X63.0728 Y13.8003
G01 X63.0230 Y13.7954
G01 X62.9250 Y13.7906
G01 X62.8750 Y13.7906
G01 X62.7770 Y13.7954
G01 X62.7272 Y13.8003
G01 X62.6301 Y13.8147
G01 X62.5810 Y13.8245
G01 X62.4858 Y13.8483
G01 X62.4379 Y13.8629
G01 X62.3455 Y13.8959
G01 X62.2993 Y13.9151
G01 X62.2106 Y13.9570
G01 X62.1664 Y13.9806
G01 X62.0822 Y14.0311
G01 X62.0406 Y14.0589
G01 X61.9618 Y14.1174
G01 X61.9231 Y14.1491
G01 X61.8504 Y14.2150
G01 X61.8303 Y14.2352
G01 X61.8303 Y12.3800
G01 X61.8296 Y12.3550
G01 X61.8272 Y12.3059
G01 X61.8223 Y12.2561
G01 X61.8151 Y12.2076
G01 X61.8054 Y12.1585
G01 X61.7934 Y12.1109
G01 X61.7789 Y12.0630
G01 X61.7624 Y12.0167
G01 X61.7432 Y11.9705
G01 X61.7222 Y11.9261
G01 X61.6986 Y11.8820
G01 X61.6734 Y11.8399
G01 X61.6456 Y11.7983
G01 X61.6163 Y11.7588
G01 X61.5846 Y11.7201
G01 X61.5516 Y11.6838
G01 X61.5344 Y11.6656
G01 X60.9544 Y11.0856
G01 X60.9362 Y11.0684
G01 X60.8999 Y11.0354
G01 X60.8612 Y11.0037
G01 X60.8217 Y10.9744
G01 X60.7801 Y10.9466
G01 X60.7380 Y10.9214
G01 X60.6939 Y10.8978
G01 X60.6495 Y10.8768
G01 X60.6033 Y10.8576
G01 X60.5570 Y10.8411
G01 X60.5091 Y10.8266
G01 X60.4615 Y10.8146
G01 X60.4394 Y10.8103
G01 X60.9000 Y10.8103
G01 X60.9250 Y10.8096
G01 X60.9741 Y10.8072
G01 X61.0239 Y10.8023
G01 X61.0724 Y10.7951
G01 X61.1215 Y10.7854
G01 X61.1691 Y10.7734
G01 X61.2170 Y10.7589
G01 X61.2633 Y10.7424
G01 X61.3095 Y10.7232
G01 X61.3539 Y10.7022
G01 X61.3980 Y10.6786
G01 X61.4401 Y10.6534
G01 X61.4817 Y10.6256
G01 X61.5212 Y10.5963
G01 X61.5599 Y10.5646
G01 X61.5962 Y10.5316
G01 X61.6144 Y10.5144
G01 X63.1081 Y9.0206
G01 X63.0806 Y9.0664
G01 X63.0570 Y9.1106
G01 X63.0151 Y9.1993
G01 X62.9959 Y9.2455
G01 X62.9629 Y9.3379
G01 X62.9483 Y9.3858
G01 X62.9245 Y9.4810
G01 X62.9147 Y9.5301
G01 X62.9003 Y9.6272
G01 X62.8954 Y9.6770
G01 X62.8906 Y9.7750
G01 X62.8906 Y9.8250
G01 X62.8954 Y9.9230
G01 X62.9003 Y9.9728
G01 X62.9147 Y10.0699
G01 X62.9245 Y10.1190
G01 X62.9483 Y10.2142
G01 X62.9629 Y10.2621
G01 X62.9959 Y10.3545
G01 X63.0151 Y10.4007
G01 X63.0570 Y10.4894
G01 X63.0806 Y10.5336
G01 X63.1311 Y10.6178
G01 X63.1589 Y10.6594
G01 X63.2174 Y10.7382
G01 X63.2491 Y10.7769
G01 X63.2994 Y10.8324
G01 X63.2358 Y10.8483
G01 X63.1879 Y10.8629
G01 X63.0955 Y10.8959
G01 X63.0493 Y10.9151
G01 X62.9606 Y10.9570
G01 X62.9164 Y10.9806
G01 X62.8322 Y11.0311
G01 X62.7906 Y11.0589
G01 X62.7118 Y11.1174
G01 X62.6731 Y11.1491
G01 X62.6004 Y11.2150
G01 X62.5650 Y11.2504
G01 X62.4991 Y11.3231
G01 X62.4674 Y11.3618
G01 X62.4089 Y11.4406
G01 X62.3811 Y11.4822
G01 X62.3306 Y11.5664
G01 X62.3070 Y11.6106
G01 X62.2651 Y11.6993
G01 X62.2459 Y11.7455
G01 X62.2129 Y11.8379
G01 X62.1983 Y11.8858
G01 X62.1745 Y11.9810
G01 X62.1647 Y12.0301
G01 X62.1503 Y12.1272
G01 X62.1454 Y12.1770
G01 X62.1406 Y12.2750
G01 X62.1406 Y12.3250
G01 X62.1454 Y12.4230
G01 X62.1503 Y12.4728
G01 X62.1647 Y12.5699
G01 X62.1745 Y12.6190
G01 X62.1983 Y12.7142
G01 X62.2129 Y12.7621
G01 X62.2459 Y12.8545
G01 X62.2651 Y12.9007
G01 X62.3070 Y12.9894
G01 X62.3306 Y13.0336
G01 X62.3811 Y13.1178
G01 X62.4089 Y13.1594
G01 X62.4674 Y13.2382
G01 X62.4991 Y13.2769
G01 X62.5650 Y13.3496
G01 X62.6004 Y13.3850
G01 X62.6731 Y13.4509
G01 X62.7118 Y13.4826
G01 X62.7906 Y13.5411
G01 X62.8322 Y13.5689
G01 X62.9164 Y13.6194
G01 X62.9606 Y13.6430
G01 X63.0493 Y13.6849
G01 X63.0955 Y13.7041
G01 X63.1879 Y13.7371
G01 X63.2358 Y13.7517
G01 X63.3310 Y13.7755
G01 X63.3801 Y13.7853
G01 X63.4772 Y13.7997
G01 X63.5270 Y13.8046
G01 X63.6250 Y13.8094
G01 X63.6750 Y13.8094
G01 X63.7730 Y13.8046
G01 X63.8228 Y13.7997
G01 X63.9199 Y13.7853
G01 X63.9690 Y13.7755
G01 X64.0642 Y13.7517
G01 X64.1121 Y13.7371
G01 X64.2045 Y13.7041
G01 X64.2507 Y13.6849
G01 X64.3394 Y13.6430
G01 X64.3836 Y13.6194
G01 X64.4678 Y13.5689
G01 X64.5094 Y13.5411
G01 X64.5882 Y13.4826
G01 X64.6269 Y13.4509
G01 X64.6996 Y13.3850
G01 X64.7350 Y13.3496
G01 X64.7707 Y13.3103
G01 X65.4000 Y13.3103
G01 X65.4250 Y13.3096
G01 X65.4741 Y13.3072
G01 X65.5239 Y13.3023
G01 X65.5724 Y13.2951
G01 X65.6215 Y13.2854
G01 X65.6691 Y13.2734
G01 X65.7170 Y13.2589
G01 X65.7633 Y13.2424
G01 X65.8095 Y13.2232
G01 X65.8539 Y13.2022
G01 X65.8980 Y13.1786
G01 X65.9401 Y13.1534
G01 X65.9817 Y13.1256
G01 X66.0212 Y13.0963
G01 X66.0599 Y13.0646
G01 X66.0962 Y13.0316
G01 X66.1144 Y13.0144
G01 X66.8185 Y12.3103
G01 X72.4815 Y12.3103
G01 X73.6856 Y13.5144
G01 X73.7038 Y13.5316
G01 X73.7401 Y13.5646
G01 X73.7788 Y13.5963
G01 X73.8183 Y13.6256
G01 X73.8599 Y13.6534
G01 X73.9020 Y13.6786
G01 X73.9461 Y13.7022
G01 X73.9905 Y13.7232
G01 X74.0367 Y13.7424
G01 X74.0830 Y13.7589
G01 X74.1309 Y13.7734
G01 X74.1785 Y13.7854
G01 X74.2276 Y13.7951
G01 X74.2761 Y13.8023
G01 X74.3259 Y13.8072
G01 X74.3750 Y13.8096
G01 X74.4000 Y13.8103
G01 X81.4815 Y13.8103
G01 X81.8932 Y14.2219
G01 X81.8906 Y14.2750
G01 X81.8906 Y14.3250
G01 X81.8954 Y14.4230
G01 X81.9003 Y14.4728
G01 X81.9147 Y14.5699
G01 X81.9245 Y14.6190
G01 X81.9483 Y14.7142
G01 X81.9629 Y14.7621
G01 X81.9959 Y14.8545
G01 X82.0151 Y14.9007
G01 X82.0570 Y14.9894
G01 X82.0806 Y15.0336
G01 X82.1311 Y15.1178
G01 X82.1589 Y15.1594
G01 X82.2174 Y15.2382
G01 X82.2491 Y15.2769
G01 X82.3150 Y15.3496
G01 X82.3504 Y15.3850
G01 X82.4231 Y15.4509
G01 X82.4618 Y15.4826
G01 X82.5406 Y15.5411
G01 X82.5822 Y15.5689
G01 X82.6664 Y15.6194
G01 X82.7106 Y15.6430
G01 X82.7993 Y15.6849
G01 X82.8455 Y15.7041
G01 X82.9379 Y15.7371
G01 X82.9858 Y15.7517
G01 X83.0810 Y15.7755
G01 X83.1301 Y15.7853
G01 X83.2272 Y15.7997
G01 X83.2770 Y15.8046
G01 X83.3750 Y15.8094
G01 X83.4250 Y15.8094
G01 X83.5230 Y15.8046
G01 X83.5728 Y15.7997
G01 X83.6699 Y15.7853
G01 X83.7190 Y15.7755
G01 X83.8142 Y15.7517
G01 X83.8621 Y15.7371
G01 X83.9545 Y15.7041
G01 X84.0007 Y15.6849
G01 X84.0894 Y15.6430
G01 X84.1336 Y15.6194
G01 X84.2178 Y15.5689
G01 X84.2594 Y15.5411
G01 X84.3382 Y15.4826
G01 X84.3769 Y15.4509
G01 X84.4496 Y15.3850
G01 X84.4850 Y15.3496
G01 X84.5509 Y15.2769
G01 X84.5826 Y15.2382
G01 X84.6411 Y15.1594
G01 X84.6689 Y15.1178
G01 X84.7194 Y15.0336
G01 X84.7430 Y14.9894
G01 X84.7849 Y14.9007
G01 X84.8041 Y14.8545
G01 X84.8371 Y14.7621
G01 X84.8517 Y14.7142
G01 X84.8755 Y14.6190
G01 X84.8853 Y14.5699
G01 X84.8997 Y14.4728
G01 X84.9046 Y14.4230
G01 X84.9094 Y14.3250
G01 X84.9094 Y14.2750
G01 X84.9046 Y14.1770
G01 X84.8997 Y14.1272
G01 X84.8853 Y14.0301
G01 X84.8755 Y13.9810
G01 X84.8517 Y13.8858
G01 X84.8371 Y13.8379
G01 X84.8041 Y13.7455
G01 X84.7849 Y13.6993
G01 X84.7430 Y13.6106
G01 X84.7194 Y13.5664
G01 X84.6689 Y13.4822
G01 X84.6411 Y13.4406
G01 X84.5826 Y13.3618
G01 X84.5509 Y13.3231
G01 X84.4850 Y13.2504
G01 X84.4496 Y13.2150
G01 X84.3769 Y13.1491
G01 X84.3382 Y13.1174
G01 X84.2594 Y13.0589
G01 X84.2178 Y13.0311
G01 X84.1336 Y12.9806
G01 X84.0894 Y12.9570
G01 X84.0007 Y12.9151
G01 X83.9545 Y12.8959
G01 X83.8621 Y12.8629
G01 X83.8142 Y12.8483
G01 X83.7190 Y12.8245
G01 X83.6699 Y12.8147
G01 X83.5728 Y12.8003
G01 X83.5230 Y12.7954
G01 X83.4250 Y12.7906
G01 X83.3750 Y12.7906
G01 X83.3219 Y12.7932
G01 X82.8362 Y12.3075
G01 X82.8750 Y12.3094
G01 X82.9250 Y12.3094
G01 X83.0230 Y12.3046
G01 X83.0728 Y12.2997
G01 X83.1699 Y12.2853
G01 X83.2190 Y12.2755
G01 X83.3142 Y12.2517
G01 X83.3621 Y12.2371
G01 X83.4545 Y12.2041
G01 X83.5007 Y12.1849
G01 X83.5894 Y12.1430
G01 X83.6336 Y12.1194
G01 X83.7178 Y12.0689
G01 X83.7594 Y12.0411
G01 X83.8382 Y11.9826
G01 X83.8769 Y11.9509
G01 X83.9496 Y11.8850
G01 X83.9850 Y11.8496
G01 X84.0509 Y11.7769
G01 X84.0826 Y11.7382
G01 X84.1411 Y11.6594
G01 X84.1689 Y11.6178
G01 X84.2194 Y11.5336
G01 X84.2430 Y11.4894
G01 X84.2849 Y11.4007
G01 X84.3041 Y11.3545
G01 X84.3371 Y11.2621
G01 X84.3517 Y11.2142
G01 X84.3755 Y11.1190
G01 X84.3853 Y11.0699
G01 X84.3997 Y10.9728
G01 X84.4046 Y10.9230
G01 X84.4094 Y10.8250
G01 X84.4094 Y10.7750
G01 X84.4046 Y10.6770
G01 X84.3997 Y10.6272
G01 X84.3853 Y10.5301
G01 X84.3755 Y10.4810
G01 X84.3517 Y10.3858
G01 X84.3371 Y10.3379
G01 X84.3041 Y10.2455
G01 X84.2849 Y10.1993
G01 X84.2430 Y10.1106
G01 X84.2194 Y10.0664
G01 X84.1689 Y9.9822
G01 X84.1411 Y9.9406
G01 X84.0826 Y9.8618
G01 X84.0509 Y9.8231
G01 X83.9850 Y9.7504
G01 X83.9496 Y9.7150
G01 X83.8769 Y9.6491
G01 X83.8382 Y9.6174
G01 X83.7594 Y9.5589
G01 X83.7178 Y9.5311
G01 X83.6336 Y9.4806
G01 X83.5894 Y9.4570
G01 X83.5007 Y9.4151
G01 X83.4545 Y9.3959
G01 X83.3621 Y9.3629
G01 X83.3142 Y9.3483
G01 X83.2190 Y9.3245
G01 X83.1699 Y9.3147
G01 X83.0728 Y9.3003
G01 X83.0230 Y9.2954
G01 X82.9250 Y9.2906
G01 X82.8750 Y9.2906
G01 X82.7770 Y9.2954
G01 X82.7272 Y9.3003
G01 X82.6301 Y9.3147
G01 X82.5810 Y9.3245
G01 X82.4858 Y9.3483
G01 X82.4379 Y9.3629
G01 X82.3455 Y9.3959
G01 X82.2993 Y9.4151
G01 X82.2106 Y9.4570
G01 X82.1664 Y9.4806
G01 X82.0822 Y9.5311
G01 X82.0406 Y9.5589
G01 X81.9618 Y9.6174
G01 X81.9231 Y9.6491
G01 X81.8504 Y9.7150
G01 X81.8150 Y9.7504
G01 X81.7793 Y9.7897
G01 X81.3185 Y9.7897
G01 X80.1144 Y8.5856
G01 X80.0962 Y8.5684
G01 X80.0599 Y8.5354
G01 X80.0212 Y8.5037
G01 X79.9817 Y8.4744
G01 X79.9401 Y8.4466
G01 X79.8980 Y8.4214
G01 X79.8539 Y8.3978
G01 X79.8095 Y8.3768
G01 X79.7633 Y8.3576
G01 X79.7170 Y8.3411
G01 X79.6691 Y8.3266
G01 X79.6215 Y8.3146
G01 X79.5724 Y8.3049
G01 X79.5239 Y8.2977
G01 X79.4741 Y8.2928
G01 X79.4250 Y8.2904
G01 X79.4000 Y8.2897
G01 X76.3185 Y8.2897
G01 X74.1144 Y6.0856
G01 X74.0962 Y6.0684
G01 X74.0599 Y6.0354
G01 X74.0212 Y6.0037
G01 X73.9817 Y5.9744
G01 X73.9401 Y5.9466
G01 X73.8980 Y5.9214
G01 X73.8548 Y5.8983
G01 X73.8517 Y5.8858
G01 X73.8371 Y5.8379
G01 X73.8272 Y5.8103
G01 X73.9815 Y5.8103
G01 X75.6856 Y7.5144
G01 X75.7038 Y7.5316
G01 X75.7401 Y7.5646
G01 X75.7788 Y7.5963
G01 X75.8183 Y7.6256
G01 X75.8599 Y7.6534
G01 X75.9020 Y7.6786
G01 X75.9461 Y7.7022
G01 X75.9905 Y7.7232
G01 X76.0367 Y7.7424
G01 X76.0830 Y7.7589
G01 X76.1309 Y7.7734
G01 X76.1785 Y7.7854
G01 X76.2276 Y7.7951
G01 X76.2761 Y7.8023
G01 X76.3259 Y7.8072
G01 X76.3750 Y7.8096
G01 X76.4000 Y7.8103
G01 X79.4815 Y7.8103
G01 X79.6856 Y8.0144
G01 X79.7038 Y8.0316
G01 X79.7401 Y8.0646
G01 X79.7788 Y8.0963
G01 X79.8183 Y8.1256
G01 X79.8599 Y8.1534
G01 X79.9020 Y8.1786
G01 X79.9461 Y8.2022
G01 X79.9711 Y8.2140
G01 X80.2714 Y8.5144
G01 X80.2896 Y8.5316
G01 X80.3259 Y8.5646
G01 X80.3646 Y8.5963
G01 X80.4041 Y8.6256
G01 X80.4457 Y8.6534
G01 X80.4878 Y8.6786
G01 X80.5319 Y8.7022
G01 X80.5763 Y8.7232
G01 X80.6225 Y8.7424
G01 X80.6688 Y8.7589
G01 X80.7167 Y8.7734
G01 X80.7643 Y8.7854
G01 X80.8134 Y8.7951
G01 X80.8619 Y8.8023
G01 X80.9117 Y8.8072
G01 X80.9608 Y8.8096
G01 X80.9858 Y8.8103
G01 X81.2793 Y8.8103
G01 X81.3150 Y8.8496
G01 X81.3504 Y8.8850
G01 X81.4231 Y8.9509
G01 X81.4618 Y8.9826
G01 X81.5406 Y9.0411
G01 X81.5822 Y9.0689
G01 X81.6664 Y9.1194
G01 X81.7106 Y9.1430
G01 X81.7993 Y9.1849
G01 X81.8455 Y9.2041
G01 X81.9379 Y9.2371
G01 X81.9858 Y9.2517
G01 X82.0810 Y9.2755
G01 X82.1301 Y9.2853
G01 X82.2272 Y9.2997
G01 X82.2770 Y9.3046
G01 X82.3750 Y9.3094
G01 X82.4250 Y9.3094
G01 X82.5230 Y9.3046
G01 X82.5728 Y9.2997
G01 X82.6699 Y9.2853
G01 X82.7190 Y9.2755
G01 X82.8142 Y9.2517
G01 X82.8621 Y9.2371
G01 X82.9545 Y9.2041
G01 X83.0007 Y9.1849
G01 X83.0894 Y9.1430
G01 X83.1336 Y9.1194
G01 X83.2178 Y9.0689
G01 X83.2594 Y9.0411
G01 X83.3382 Y8.9826
G01 X83.3769 Y8.9509
G01 X83.4496 Y8.8850
G01 X83.4850 Y8.8496
G01 X83.5509 Y8.7769
G01 X83.5826 Y8.7382
G01 X83.6411 Y8.6594
G01 X83.6689 Y8.6178
G01 X83.7194 Y8.5336
G01 X83.7430 Y8.4894
G01 X83.7849 Y8.4007
G01 X83.8041 Y8.3545
G01 X83.8371 Y8.2621
G01 X83.8517 Y8.2142
G01 X83.8755 Y8.1190
G01 X83.8853 Y8.0699
G01 X83.8997 Y7.9728
G01 X83.9046 Y7.9230
G01 X83.9094 Y7.8250
G01 X83.9094 Y7.7750
G01 X83.9046 Y7.6770
G01 X83.8997 Y7.6272
G01 X83.8853 Y7.5301
G01 X83.8755 Y7.4810
G01 X83.8517 Y7.3858
G01 X83.8371 Y7.3379
G01 X83.8041 Y7.2455
G01 X83.7849 Y7.1993
G01 X83.7430 Y7.1106
G01 X83.7194 Y7.0664
G01 X83.6689 Y6.9822
G01 X83.6411 Y6.9406
G01 X83.5826 Y6.8618
G01 X83.5509 Y6.8231
G01 X83.4862 Y6.7518
G01 X83.5810 Y6.7755
G01 X83.6301 Y6.7853
G01 X83.7272 Y6.7997
G01 X83.7770 Y6.8046
G01 X83.8750 Y6.8094
G01 X83.9250 Y6.8094
G01 X84.0230 Y6.8046
G01 X84.0728 Y6.7997
G01 X84.1699 Y6.7853
G01 X84.2190 Y6.7755
G01 X84.3142 Y6.7517
G01 X84.3621 Y6.7371
G01 X84.4545 Y6.7041
G01 X84.5007 Y6.6849
G01 X84.5894 Y6.6430
G01 X84.6336 Y6.6194
G01 X84.7178 Y6.5689
G01 X84.7594 Y6.5411
G01 X84.8382 Y6.4826
G01 X84.8769 Y6.4509
G01 X84.9496 Y6.3850
G01 X84.9850 Y6.3496
G01 X85.0509 Y6.2769
G01 X85.0826 Y6.2382
G01 X85.1411 Y6.1594
G01 X85.1689 Y6.1178
G01 X85.2194 Y6.0336
G01 X85.2430 Y5.9894
G01 X85.2849 Y5.9007
G01 X85.3041 Y5.8545
G01 X85.3371 Y5.7621
G01 X85.3517 Y5.7142
G01 X85.3755 Y5.6190
G01 X85.3853 Y5.5699
G01 X85.3897 Y5.5397
G01 X85.3897 Y29.3815
G01 X84.6877 Y30.0835
G01 X84.6896 Y30.0450
G01 X84.6903 Y30.0200
G01 X84.6903 Y19.0790
G01 X84.7149 Y19.0517
G01 X84.7467 Y19.0130
G01 X84.7964 Y18.9460
G01 X84.8242 Y18.9044
G01 X84.8671 Y18.8329
G01 X84.8907 Y18.7887
G01 X84.9263 Y18.7133
G01 X84.9455 Y18.6671
G01 X84.9736 Y18.5886
G01 X84.9881 Y18.5407
G01 X85.0084 Y18.4597
G01 X85.0181 Y18.4107
G01 X85.0304 Y18.3281
G01 X85.0353 Y18.2783
G01 X85.0394 Y18.1950
G01 X85.0400 Y18.1700
G01 X85.0400 Y17.6700
G01 X85.0394 Y17.6450
G01 X85.0353 Y17.5617
G01 X85.0304 Y17.5119
G01 X85.0181 Y17.4293
G01 X85.0084 Y17.3803
G01 X84.9881 Y17.2993
G01 X84.9736 Y17.2514
G01 X84.9455 Y17.1729
G01 X84.9263 Y17.1267
G01 X84.8907 Y17.0513
G01 X84.8671 Y17.0071
G01 X84.8242 Y16.9356
G01 X84.7964 Y16.8940
G01 X84.7467 Y16.8270
G01 X84.7149 Y16.7883
G01 X84.6589 Y16.7265
G01 X84.6235 Y16.6911
G01 X84.5617 Y16.6351
G01 X84.5230 Y16.6033
G01 X84.4560 Y16.5536
G01 X84.4144 Y16.5258
G01 X84.3429 Y16.4829
G01 X84.2987 Y16.4593
G01 X84.2233 Y16.4237
G01 X84.1771 Y16.4045
G01 X84.0986 Y16.3764
G01 X84.0507 Y16.3619
G01 X83.9697 Y16.3416
G01 X83.9207 Y16.3319
G01 X83.8381 Y16.3196
G01 X83.7883 Y16.3147
G01 X83.7050 Y16.3106
G01 X83.6550 Y16.3106
G01 X83.5717 Y16.3147
G01 X83.5219 Y16.3196
G01 X83.4393 Y16.3319
G01 X83.3903 Y16.3416
G01 X83.3093 Y16.3619
G01 X83.2614 Y16.3764
G01 X83.1829 Y16.4045
G01 X83.1367 Y16.4237
G01 X83.0613 Y16.4593
G01 X83.0171 Y16.4829
G01 X82.9456 Y16.5258
G01 X82.9040 Y16.5536
G01 X82.8370 Y16.6033
G01 X82.7983 Y16.6351
G01 X82.7365 Y16.6911
G01 X82.7011 Y16.7265
G01 X82.6451 Y16.7883
G01 X82.6133 Y16.8270
G01 X82.5636 Y16.8940
G01 X82.5358 Y16.9356
G01 X82.4929 Y17.0071
G01 X82.4693 Y17.0513
G01 X82.4337 Y17.1267
G01 X82.4145 Y17.1729
G01 X82.4100 Y17.1855
G01 X82.4055 Y17.1729
G01 X82.3863 Y17.1267
G01 X82.3507 Y17.0513
G01 X82.3271 Y17.0071
G01 X82.2842 Y16.9356
G01 X82.2564 Y16.8940
G01 X82.2067 Y16.8270
G01 X82.1749 Y16.7883
G01 X82.1189 Y16.7265
G01 X82.0835 Y16.6911
G01 X82.0217 Y16.6351
G01 X81.9830 Y16.6033
G01 X81.9160 Y16.5536
G01 X81.8744 Y16.5258
G01 X81.8029 Y16.4829
G01 X81.7587 Y16.4593
G01 X81.6833 Y16.4237
G01 X81.6371 Y16.4045
G01 X81.5586 Y16.3764
G01 X81.5107 Y16.3619
G01 X81.4297 Y16.3416
G01 X81.3807 Y16.3319
G01 X81.2981 Y16.3196
G01 X81.2483 Y16.3147
G01 X81.1650 Y16.3106
G01 X81.1150 Y16.3106
G01 X81.0317 Y16.3147
G01 X80.9819 Y16.3196
G01 X80.8993 Y16.3319
G01 X80.8503 Y16.3416
G01 X80.7693 Y16.3619
G01 X80.7214 Y16.3764
G01 X80.6429 Y16.4045
G01 X80.5967 Y16.4237
G01 X80.5213 Y16.4593
G01 X80.4771 Y16.4829
G01 X80.4056 Y16.5258
G01 X80.3640 Y16.5536
G01 X80.2970 Y16.6033
G01 X80.2583 Y16.6351
G01 X80.1965 Y16.6911
G01 X80.1611 Y16.7265
G01 X80.1051 Y16.7883
G01 X80.0733 Y16.8270
G01 X80.0236 Y16.8940
G01 X79.9958 Y16.9356
G01 X79.9529 Y17.0071
G01 X79.9293 Y17.0513
G01 X79.8937 Y17.1267
G01 X79.8745 Y17.1729
G01 X79.8700 Y17.1855
G01 X79.8655 Y17.1729
G01 X79.8463 Y17.1267
G01 X79.8107 Y17.0513
G01 X79.7871 Y17.0071
G01 X79.7442 Y16.9356
G01 X79.7164 Y16.8940
G01 X79.6667 Y16.8270
G01 X79.6349 Y16.7883
G01 X79.5789 Y16.7265
G01 X79.5435 Y16.6911
G01 X79.4817 Y16.6351
G01 X79.4430 Y16.6033
G01 X79.3760 Y16.5536
G01 X79.3344 Y16.5258
G01 X79.2629 Y16.4829
G01 X79.2187 Y16.4593
G01 X79.1433 Y16.4237
G01 X79.0971 Y16.4045
G01 X79.0186 Y16.3764
G01 X78.9707 Y16.3619
G01 X78.8897 Y16.3416
G01 X78.8407 Y16.3319
G01 X78.7581 Y16.3196
G01 X78.7083 Y16.3147
G01 X78.6250 Y16.3106
G01 X78.5750 Y16.3106
G01 X78.4917 Y16.3147
G01 X78.4419 Y16.3196
G01 X78.3593 Y16.3319
G01 X78.3103 Y16.3416
G01 X78.2293 Y16.3619
G01 X78.1814 Y16.3764
G01 X78.1029 Y16.4045
G01 X78.0567 Y16.4237
G01 X77.9813 Y16.4593
G01 X77.9371 Y16.4829
G01 X77.8656 Y16.5258
G01 X77.8240 Y16.5536
G01 X77.7570 Y16.6033
G01 X77.7183 Y16.6351
G01 X77.6565 Y16.6911
G01 X77.6211 Y16.7265
G01 X77.5651 Y16.7883
G01 X77.5333 Y16.8270
G01 X77.4836 Y16.8940
G01 X77.4558 Y16.9356
G01 X77.4129 Y17.0071
G01 X77.3893 Y17.0513
G01 X77.3537 Y17.1267
G01 X77.3345 Y17.1729
G01 X77.3300 Y17.1855
G01 X77.3255 Y17.1729
G01 X77.3063 Y17.1267
G01 X77.2707 Y17.0513
G01 X77.2471 Y17.0071
G01 X77.2042 Y16.9356
G01 X77.1764 Y16.8940
G01 X77.1267 Y16.8270
G01 X77.0949 Y16.7883
G01 X77.0389 Y16.7265
G01 X77.0035 Y16.6911
G01 X76.9417 Y16.6351
G01 X76.9030 Y16.6033
G01 X76.8360 Y16.5536
G01 X76.7944 Y16.5258
G01 X76.7229 Y16.4829
G01 X76.6787 Y16.4593
G01 X76.6033 Y16.4237
G01 X76.5571 Y16.4045
G01 X76.4786 Y16.3764
G01 X76.4307 Y16.3619
G01 X76.3497 Y16.3416
G01 X76.3007 Y16.3319
G01 X76.2181 Y16.3196
G01 X76.1683 Y16.3147
G01 X76.0850 Y16.3106
G01 X76.0350 Y16.3106
G01 X75.9517 Y16.3147
G01 X75.9019 Y16.3196
G01 X75.8193 Y16.3319
G01 X75.7703 Y16.3416
G01 X75.6893 Y16.3619
G01 X75.6414 Y16.3764
G01 X75.5629 Y16.4045
G01 X75.5167 Y16.4237
G01 X75.4413 Y16.4593
G01 X75.3971 Y16.4829
G01 X75.3256 Y16.5258
G01 X75.2840 Y16.5536
G01 X75.2170 Y16.6033
G01 X75.1783 Y16.6351
G01 X75.1165 Y16.6911
G01 X75.0811 Y16.7265
G01 X75.0251 Y16.7883
G01 X74.9933 Y16.8270
G01 X74.9436 Y16.8940
G01 X74.9158 Y16.9356
G01 X74.8729 Y17.0071
G01 X74.8493 Y17.0513
G01 X74.8137 Y17.1267
G01 X74.7945 Y17.1729
G01 X74.7900 Y17.1855
G01 X74.7855 Y17.1729
G01 X74.7663 Y17.1267
G01 X74.7307 Y17.0513
G01 X74.7071 Y17.0071
G01 X74.6642 Y16.9356
G01 X74.6364 Y16.8940
G01 X74.5867 Y16.8270
G01 X74.5549 Y16.7883
G01 X74.4989 Y16.7265
G01 X74.4635 Y16.6911
G01 X74.4017 Y16.6351
G01 X74.3630 Y16.6033
G01 X74.2960 Y16.5536
G01 X74.2544 Y16.5258
G01 X74.1829 Y16.4829
G01 X74.1387 Y16.4593
G01 X74.0633 Y16.4237
G01 X74.0171 Y16.4045
G01 X73.9386 Y16.3764
G01 X73.8907 Y16.3619
G01 X73.8097 Y16.3416
G01 X73.7607 Y16.3319
G01 X73.6781 Y16.3196
G01 X73.6283 Y16.3147
G01 X73.5450 Y16.3106
G01 X73.4950 Y16.3106
G01 X73.4117 Y16.3147
G01 X73.3619 Y16.3196
G01 X73.2793 Y16.3319
G01 X73.2303 Y16.3416
G01 X73.1493 Y16.3619
G01 X73.1014 Y16.3764
G01 X73.0229 Y16.4045
G01 X72.9767 Y16.4237
G01 X72.9013 Y16.4593
G01 X72.8571 Y16.4829
G01 X72.7856 Y16.5258
G01 X72.7440 Y16.5536
G01 X72.6770 Y16.6033
G01 X72.6383 Y16.6351
G01 X72.5765 Y16.6911
G01 X72.5411 Y16.7265
G01 X72.4851 Y16.7883
G01 X72.4533 Y16.8270
G01 X72.4036 Y16.8940
G01 X72.3758 Y16.9356
G01 X72.3329 Y17.0071
G01 X72.3093 Y17.0513
G01 X72.2737 Y17.1267
G01 X72.2545 Y17.1729
G01 X72.2500 Y17.1855
G01 X72.2455 Y17.1729
G01 X72.2263 Y17.1267
G01 X72.1907 Y17.0513
G01 X72.1671 Y17.0071
G01 X72.1242 Y16.9356
G01 X72.0964 Y16.8940
G01 X72.0467 Y16.8270
G01 X72.0149 Y16.7883
G01 X71.9589 Y16.7265
G01 X71.9235 Y16.6911
G01 X71.8617 Y16.6351
G01 X71.8230 Y16.6033
G01 X71.7560 Y16.5536
G01 X71.7144 Y16.5258
G01 X71.6429 Y16.4829
G01 X71.5987 Y16.4593
G01 X71.5233 Y16.4237
G01 X71.4771 Y16.4045
G01 X71.3986 Y16.3764
G01 X71.3507 Y16.3619
G01 X71.2697 Y16.3416
G01 X71.2207 Y16.3319
G01 X71.1381 Y16.3196
G01 X71.0883 Y16.3147
G01 X71.0050 Y16.3106
G01 X70.9550 Y16.3106
G01 X70.8717 Y16.3147
G01 X70.8219 Y16.3196
G01 X70.7393 Y16.3319
G01 X70.6903 Y16.3416
G01 X70.6093 Y16.3619
G01 X70.5614 Y16.3764
G01 X70.4829 Y16.4045
G01 X70.4367 Y16.4237
G01 X70.3613 Y16.4593
G01 X70.3171 Y16.4829
G01 X70.2456 Y16.5258
G01 X70.2040 Y16.5536
G01 X70.1370 Y16.6033
G01 X70.0983 Y16.6351
G01 X70.0365 Y16.6911
G01 X70.0011 Y16.7265
G01 X69.9451 Y16.7883
G01 X69.9133 Y16.8270
G01 X69.8636 Y16.8940
G01 X69.8358 Y16.9356
G01 X69.7929 Y17.0071
G01 X69.7693 Y17.0513
G01 X69.7337 Y17.1267
G01 X69.7145 Y17.1729
G01 X69.7100 Y17.1855
G01 X69.7055 Y17.1729
G01 X69.6863 Y17.1267
G01 X69.6507 Y17.0513
G01 X69.6271 Y17.0071
G01 X69.5842 Y16.9356
G01 X69.5564 Y16.8940
G01 X69.5067 Y16.8270
G01 X69.4749 Y16.7883
G01 X69.4189 Y16.7265
G01 X69.3835 Y16.6911
G01 X69.3217 Y16.6351
G01 X69.2830 Y16.6033
G01 X69.2160 Y16.5536
G01 X69.1744 Y16.5258
G01 X69.1029 Y16.4829
G01 X69.0587 Y16.4593
G01 X68.9833 Y16.4237
G01 X68.9371 Y16.4045
G01 X68.8586 Y16.3764
G01 X68.8107 Y16.3619
G01 X68.7297 Y16.3416
G01 X68.6807 Y16.3319
G01 X68.5981 Y16.3196
G01 X68.5483 Y16.3147
G01 X68.4650 Y16.3106
G01 X68.4150 Y16.3106
G01 X68.3317 Y16.3147
G01 X68.2819 Y16.3196
G01 X68.1993 Y16.3319
G01 X68.1503 Y16.3416
G01 X68.0693 Y16.3619
G01 X68.0214 Y16.3764
G01 X67.9429 Y16.4045
G01 X67.8967 Y16.4237
G01 X67.8213 Y16.4593
G01 X67.7771 Y16.4829
G01 X67.7056 Y16.5258
G01 X67.6640 Y16.5536
G01 X67.5970 Y16.6033
G01 X67.5583 Y16.6351
G01 X67.4965 Y16.6911
G01 X67.4611 Y16.7265
G01 X67.4051 Y16.7883
G01 X67.3733 Y16.8270
G01 X67.3236 Y16.8940
G01 X67.2958 Y16.9356
G01 X67.2529 Y17.0071
G01 X67.2293 Y17.0513
G01 X67.1937 Y17.1267
G01 X67.1745 Y17.1729
G01 X67.1700 Y17.1855
G01 X67.1655 Y17.1729
G01 X67.1463 Y17.1267
G01 X67.1107 Y17.0513
G01 X67.0871 Y17.0071
G01 X67.0442 Y16.9356
G01 X67.0164 Y16.8940
G01 X66.9667 Y16.8270
G01 X66.9349 Y16.7883
G01 X66.8789 Y16.7265
G01 X66.8435 Y16.6911
G01 X66.7817 Y16.6351
G01 X66.7430 Y16.6033
G01 X66.6760 Y16.5536
G01 X66.6344 Y16.5258
G01 X66.5629 Y16.4829
G01 X66.5187 Y16.4593
G01 X66.4433 Y16.4237
G01 X66.3971 Y16.4045
G01 X66.3186 Y16.3764
G01 X66.2707 Y16.3619
G01 X66.1897 Y16.3416
G01 X66.1407 Y16.3319
G01 X66.0581 Y16.3196
G01 X66.0083 Y16.3147
G01 X65.9250 Y16.3106
G01 X65.8750 Y16.3106
G01 X65.7917 Y16.3147
G01 X65.7419 Y16.3196
G01 X65.6593 Y16.3319
G01 X65.6103 Y16.3416
G01 X65.5293 Y16.3619
G01 X65.4814 Y16.3764
G01 X65.4029 Y16.4045
G01 X65.3567 Y16.4237
G01 X65.2813 Y16.4593
G01 X65.2371 Y16.4829
G01 X65.1656 Y16.5258
G01 X65.1240 Y16.5536
G01 X65.0570 Y16.6033
G01 X65.0183 Y16.6351
G01 X64.9565 Y16.6911
G01 X64.9211 Y16.7265
G01 X64.8651 Y16.7883
G01 X64.8333 Y16.8270
G01 X64.7836 Y16.8940
G01 X64.7558 Y16.9356
G01 X64.7129 Y17.0071
G01 X64.6893 Y17.0513
G01 X64.6537 Y17.1267
G01 X64.6345 Y17.1729
G01 X64.6300 Y17.1855
G00 Z2.0000
G00 X66.8065 Y20.4648
G01 F60.00
G01 Z-0.1500
G01 F120.00
G01 X66.8232 Y20.4295
G01 X66.8424 Y20.3833
G01 X66.8589 Y20.3370
G01 X66.8734 Y20.2891
G01 X66.8854 Y20.2415
G01 X66.8951 Y20.1924
G01 X66.9023 Y20.1439
G01 X66.9072 Y20.0941
G01 X66.9096 Y20.0450
G01 X66.9103 Y20.0200
G01 X66.9103 Y19.0790
G01 X66.9349 Y19.0517
G01 X66.9667 Y19.0130
G01 X67.0164 Y18.9460
G01 X67.0442 Y18.9044
G01 X67.0871 Y18.8329
G01 X67.1107 Y18.7887
G01 X67.1463 Y18.7133
G01 X67.1655 Y18.6671
G01 X67.1700 Y18.6545
G01 X67.1745 Y18.6671
G01 X67.1937 Y18.7133
G01 X67.2293 Y18.7887
G01 X67.2529 Y18.8329
G01 X67.2958 Y18.9044
G01 X67.3236 Y18.9460
G01 X67.3733 Y19.0130
G01 X67.4051 Y19.0517
G01 X67.4293 Y19.0785
G01 X67.4280 Y19.7862
G01 X67.4146 Y19.8385
G01 X67.4101 Y19.8612
G01 X66.8065 Y20.4648
G00 Z2.0000
G00 X65.9188 Y24.3103
G01 F60.00
G01 Z-0.1500
G01 F120.00
G01 X65.9815 Y24.3103
G01 X66.1539 Y24.4826
G01 X66.1493 Y24.4913
G01 X66.1137 Y24.5667
G01 X66.0945 Y24.6129
G01 X66.0900 Y24.6255
G01 X66.0855 Y24.6129
G01 X66.0663 Y24.5667
G01 X66.0307 Y24.4913
G01 X66.0071 Y24.4471
G01 X65.9642 Y24.3756
G01 X65.9364 Y24.3340
G01 X65.9188 Y24.3103
G00 Z2.0000
G00 X66.0900 Y25.8945
G01 F60.00
G01 Z-0.1500
G01 F120.00
G01 X66.0945 Y25.9071
G01 X66.1137 Y25.9533
G01 X66.1493 Y26.0287
G01 X66.1729 Y26.0729
G01 X66.2158 Y26.1444
G01 X66.2436 Y26.1860
G01 X66.2933 Y26.2530
G01 X66.3251 Y26.2917
G01 X66.3811 Y26.3535
G01 X66.4165 Y26.3889
G01 X66.4783 Y26.4449
G01 X66.5170 Y26.4767
G01 X66.5840 Y26.5264
G01 X66.5894 Y26.5300
G01 X66.5840 Y26.5336
G01 X66.5170 Y26.5833
G01 X66.4783 Y26.6151
G01 X66.4165 Y26.6711
G01 X66.3811 Y26.7065
G01 X66.3251 Y26.7683
G01 X66.2933 Y26.8070
G01 X66.2436 Y26.8740
G01 X66.2158 Y26.9156
G01 X66.1729 Y26.9871
G01 X66.1493 Y27.0313
G01 X66.1137 Y27.1067
G01 X66.0945 Y27.1529
G01 X66.0900 Y27.1655
G01 X66.0855 Y27.1529
G01 X66.0663 Y27.1067
G01 X66.0307 Y27.0313
G01 X66.0071 Y26.9871
G01 X65.9642 Y26.9156
G01 X65.9364 Y26.8740
G01 X65.8867 Y26.8070
G01 X65.8549 Y26.7683
G01 X65.7989 Y26.7065
G01 X65.7635 Y26.6711
G01 X65.7017 Y26.6151
G01 X65.6630 Y26.5833
G01 X65.5960 Y26.5336
G01 X65.5906 Y26.5300
G01 X65.5960 Y26.5264
G01 X65.6630 Y26.4767
G01 X65.7017 Y26.4449
G01 X65.7635 Y26.3889
G01 X65.7989 Y26.3535
G01 X65.8549 Y26.2917
G01 X65.8867 Y26.2530
G01 X65.9364 Y26.1860
G01 X65.9642 Y26.1444
G01 X66.0071 Y26.0729
G01 X66.0307 Y26.0287
G01 X66.0663 Y25.9533
G01 X66.0855 Y25.9071
G01 X66.0900 Y25.8945
G00 Z2.0000
G00 X68.1306 Y26.5300
G01 F60.00
G01 Z-0.1500
G01 F120.00
G01 X68.1360 Y26.5264
G01 X68.2030 Y26.4767
G01 X68.2417 Y26.4449
G01 X68.3035 Y26.3889
G01 X68.3389 Y26.3535
G01 X68.3949 Y26.2917
G01 X68.4267 Y26.2530
G01 X68.4764 Y26.1860
G01 X68.5042 Y26.1444
G01 X68.5471 Y26.0729
G01 X68.5707 Y26.0287
G01 X68.6063 Y25.9533
G01 X68.6255 Y25.9071
G01 X68.6300 Y25.8945
G01 X68.6345 Y25.9071
G01 X68.6537 Y25.9533
G01 X68.6893 Y26.0287
G01 X68.7129 Y26.0729
G01 X68.7558 Y26.1444
G01 X68.7836 Y26.1860
G01 X68.8333 Y26.2530
G01 X68.8651 Y26.2917
G01 X68.9211 Y26.3535
G01 X68.9565 Y26.3889
G01 X69.0183 Y26.4449
G01 X69.0570 Y26.4767
G01 X69.1240 Y26.5264
G01 X69.1294 Y26.5300
G01 X69.1240 Y26.5336
G01 X69.0570 Y26.5833
G01 X69.0183 Y26.6151
G01 X68.9565 Y26.6711
G01 X68.9211 Y26.7065
G01 X68.8651 Y26.7683
G01 X68.8333 Y26.8070
G01 X68.7836 Y26.8740
G01 X68.7558 Y26.9156
G01 X68.7129 Y26.9871
G01 X68.6893 Y27.0313
G01 X68.6537 Y27.1067
G01 X68.6345 Y27.1529
G01 X68.6300 Y27.1655
G01 X68.6255 Y27.1529
G01 X68.6063 Y27.1067
G01 X68.5707 Y27.0313
G01 X68.5471 Y26.9871
G01 X68.5042 Y26.9156
G01 X68.4764 Y26.8740
G01 X68.4267 Y26.8070
G01 X68.3949 Y26.7683
G01 X68.3389 Y26.7065
G01 X68.3035 Y26.6711
G01 X68.2417 Y26.6151
G01 X68.2030 Y26.5833
G01 X68.1360 Y26.5336
G01 X68.1306 Y26.5300
G00 Z2.0000
G00 X68.6300 Y24.6255
G01 F60.00
G01 Z-0.1500
G01 F120.00
G01 X68.6255 Y24.6129
G01 X68.6063 Y24.5667
G01 X68.5707 Y24.4913
G01 X68.5471 Y24.4471
G01 X68.5042 Y24.3756
G01 X68.4764 Y24.3340
G01 X68.4267 Y24.2670
G01 X68.3949 Y24.2283
G01 X68.3678 Y24.1984
G01 X68.3672 Y24.1859
G01 X68.3623 Y24.1361
G01 X68.3551 Y24.0876
G01 X68.3454 Y24.0385
G01 X68.3334 Y23.9909
G01 X68.3189 Y23.9430
G01 X68.3024 Y23.8967
G01 X68.2832 Y23.8505
G01 X68.2622 Y23.8061
G01 X68.2386 Y23.7620
G01 X68.2134 Y23.7199
G01 X68.1856 Y23.6783
G01 X68.1563 Y23.6388
G01 X68.1246 Y23.6001
G01 X68.0916 Y23.5638
G01 X68.0744 Y23.5456
G01 X67.2688 Y22.7401
G01 X67.3095 Y22.7232
G01 X67.3539 Y22.7022
G01 X67.3980 Y22.6786
G01 X67.4401 Y22.6534
G01 X67.4817 Y22.6256
G01 X67.5212 Y22.5963
G01 X67.5599 Y22.5646
G01 X67.5962 Y22.5316
G01 X67.6144 Y22.5144
G01 X69.1144 Y21.0144
G01 X69.1316 Y20.9962
G01 X69.1646 Y20.9599
G01 X69.1963 Y20.9212
G01 X69.2256 Y20.8817
G01 X69.2534 Y20.8401
G01 X69.2786 Y20.7980
G01 X69.3022 Y20.7539
G01 X69.3232 Y20.7095
G01 X69.3424 Y20.6633
G01 X69.3589 Y20.6170
G01 X69.3734 Y20.5691
G01 X69.3854 Y20.5215
G01 X69.3951 Y20.4724
G01 X69.4023 Y20.4239
G01 X69.4072 Y20.3741
G01 X69.4096 Y20.3250
G01 X69.4104 Y20.2991
G01 X69.4134 Y20.2891
G01 X69.4254 Y20.2415
G01 X69.4351 Y20.1924
G01 X69.4423 Y20.1439
G01 X69.4472 Y20.0941
G01 X69.4496 Y20.0450
G01 X69.4503 Y20.0200
G01 X69.4503 Y19.0790
G01 X69.4749 Y19.0517
G01 X69.5067 Y19.0130
G01 X69.5564 Y18.9460
G01 X69.5842 Y18.9044
G01 X69.6271 Y18.8329
G01 X69.6507 Y18.7887
G01 X69.6863 Y18.7133
G01 X69.7055 Y18.6671
G01 X69.7100 Y18.6545
G01 X69.7145 Y18.6671
G01 X69.7337 Y18.7133
G01 X69.7693 Y18.7887
G01 X69.7929 Y18.8329
G01 X69.8358 Y18.9044
G01 X69.8636 Y18.9460
G01 X69.9133 Y19.0130
G01 X69.9451 Y19.0517
G01 X70.0011 Y19.1135
G01 X70.0365 Y19.1489
G01 X70.0983 Y19.2049
G01 X70.1370 Y19.2367
G01 X70.2040 Y19.2864
G01 X70.2456 Y19.3142
G01 X70.3171 Y19.3571
G01 X70.3613 Y19.3807
G01 X70.4367 Y19.4163
G01 X70.4829 Y19.4355
G01 X70.5614 Y19.4636
G01 X70.6093 Y19.4781
G01 X70.6903 Y19.4984
G01 X70.7393 Y19.5081
G01 X70.8219 Y19.5204
G01 X70.8717 Y19.5253
G01 X70.9550 Y19.5294
G01 X71.0050 Y19.5294
G01 X71.0883 Y19.5253
G01 X71.1381 Y19.5204
G01 X71.2207 Y19.5081
G01 X71.2697 Y19.4984
G01 X71.3507 Y19.4781
G01 X71.3986 Y19.4636
G01 X71.4771 Y19.4355
G01 X71.5233 Y19.4163
G01 X71.5987 Y19.3807
G01 X71.6429 Y19.3571
G01 X71.7144 Y19.3142
G01 X71.7560 Y19.2864
G01 X71.8230 Y19.2367
G01 X71.8617 Y19.2049
G01 X71.9235 Y19.1489
G01 X71.9589 Y19.1135
G01 X72.0149 Y19.0517
G01 X72.0467 Y19.0130
G01 X72.0964 Y18.9460
G01 X72.1242 Y18.9044
G01 X72.1671 Y18.8329
G01 X72.1907 Y18.7887
G01 X72.2263 Y18.7133
G01 X72.2455 Y18.6671
G01 X72.2500 Y18.6545
G01 X72.2545 Y18.6671
G01 X72.2737 Y18.7133
G01 X72.3093 Y18.7887
G01 X72.3329 Y18.8329
G01 X72.3758 Y18.9044
G01 X72.4036 Y18.9460
G01 X72.4533 Y19.0130
G01 X72.4851 Y19.0517
G01 X72.5097 Y19.0790
G01 X72.5097 Y19.8237
G01 X72.4978 Y19.8461
G01 X72.4768 Y19.8905
G01 X72.4576 Y19.9367
G01 X72.4411 Y19.9830
G01 X72.4266 Y20.0309
G01 X72.4146 Y20.0785
G01 X72.4049 Y20.1276
G01 X72.3977 Y20.1761
G01 X72.3928 Y20.2259
G01 X72.3904 Y20.2750
G01 X72.3904 Y20.3250
G01 X72.3928 Y20.3741
G01 X72.3977 Y20.4239
G01 X72.4049 Y20.4724
G01 X72.4156 Y20.5255
G01 X72.4003 Y20.6272
G01 X72.3954 Y20.6770
G01 X72.3906 Y20.7750
G01 X72.3906 Y20.8250
G01 X72.3954 Y20.9230
G01 X72.4003 Y20.9728
G01 X72.4147 Y21.0699
G01 X72.4245 Y21.1190
G01 X72.4483 Y21.2142
G01 X72.4629 Y21.2621
G01 X72.4959 Y21.3545
G01 X72.5151 Y21.4007
G01 X72.5570 Y21.4894
G01 X72.5806 Y21.5336
G01 X72.6311 Y21.6178
G01 X72.6589 Y21.6594
G01 X72.7174 Y21.7382
G01 X72.7491 Y21.7769
G01 X72.7608 Y21.7897
G01 X70.9000 Y21.7897
G01 X70.8750 Y21.7904
G01 X70.8259 Y21.7928
G01 X70.7761 Y21.7977
G01 X70.7276 Y21.8049
G01 X70.6785 Y21.8146
G01 X70.6309 Y21.8266
G01 X70.5830 Y21.8411
G01 X70.5367 Y21.8576
G01 X70.4905 Y21.8768
G01 X70.4461 Y21.8978
G01 X70.4020 Y21.9214
G01 X70.3599 Y21.9466
G01 X70.3183 Y21.9744
G01 X70.2788 Y22.0037
G01 X70.2401 Y22.0354
G01 X70.2038 Y22.0684
G01 X70.1856 Y22.0856
G01 X69.9815 Y22.2897
G01 X69.9000 Y22.2897
G01 X69.8750 Y22.2904
G01 X69.8259 Y22.2928
G01 X69.7761 Y22.2977
G01 X69.7276 Y22.3049
G01 X69.6785 Y22.3146
G01 X69.6309 Y22.3266
G01 X69.5830 Y22.3411
G01 X69.5367 Y22.3576
G01 X69.4905 Y22.3768
G01 X69.4461 Y22.3978
G01 X69.4020 Y22.4214
G01 X69.3599 Y22.4466
G01 X69.3183 Y22.4744
G01 X69.2788 Y22.5037
G01 X69.2401 Y22.5354
G01 X69.2038 Y22.5684
G01 X69.1684 Y22.6038
G01 X69.1354 Y22.6401
G01 X69.1037 Y22.6788
G01 X69.0744 Y22.7183
G01 X69.0466 Y22.7599
G01 X69.0214 Y22.8020
G01 X68.9978 Y22.8461
G01 X68.9768 Y22.8905
G01 X68.9576 Y22.9367
G01 X68.9411 Y22.9830
G01 X68.9266 Y23.0309
G01 X68.9146 Y23.0785
G01 X68.9049 Y23.1276
G01 X68.8977 Y23.1761
G01 X68.8928 Y23.2259
G01 X68.8904 Y23.2750
G01 X68.8897 Y23.3000
G01 X68.8897 Y24.2010
G01 X68.8651 Y24.2283
G01 X68.8333 Y24.2670
G01 X68.7836 Y24.3340
G01 X68.7558 Y24.3756
G01 X68.7129 Y24.4471
G01 X68.6893 Y24.4913
G01 X68.6537 Y24.5667
G01 X68.6345 Y24.6129
G01 X68.6300 Y24.6255
G00 Z2.0000
G00 X70.9317 Y24.2247
G01 F60.00
G01 Z-0.1500
G01 F120.00
G01 X70.9103 Y24.2010
G01 X70.9103 Y24.1713
G01 X70.9419 Y24.1522
G01 X70.9398 Y24.1605
G01 X70.9325 Y24.2100
G01 X70.9317 Y24.2247
G00 Z2.0000
G00 X70.6706 Y26.5300
G01 F60.00
G01 Z-0.1500
G01 F120.00
G01 X70.6760 Y26.5264
G01 X70.7430 Y26.4767
G01 X70.7817 Y26.4449
G01 X70.8435 Y26.3889
G01 X70.8789 Y26.3535
G01 X70.9317 Y26.2953
G01 X70.9325 Y26.3100
G01 X70.9398 Y26.3595
G01 X70.9520 Y26.4080
G01 X70.9688 Y26.4552
G01 X70.9902 Y26.5004
G01 X71.0160 Y26.5433
G01 X71.0458 Y26.5835
G01 X71.0794 Y26.6206
G01 X71.1165 Y26.6542
G01 X71.1567 Y26.6840
G01 X71.1996 Y26.7098
G01 X71.2448 Y26.7312
G01 X71.2920 Y26.7480
G01 X71.3405 Y26.7602
G01 X71.3900 Y26.7675
G01 X71.4050 Y26.7683
G01 X71.3733 Y26.8070
G01 X71.3236 Y26.8740
G01 X71.2958 Y26.9156
G01 X71.2529 Y26.9871
G01 X71.2293 Y27.0313
G01 X71.1937 Y27.1067
G01 X71.1745 Y27.1529
G01 X71.1700 Y27.1655
G01 X71.1655 Y27.1529
G01 X71.1463 Y27.1067
G01 X71.1107 Y27.0313
G01 X71.0871 Y26.9871
G01 X71.0442 Y26.9156
G01 X71.0164 Y26.8740
G01 X70.9667 Y26.8070
G01 X70.9349 Y26.7683
G01 X70.8789 Y26.7065
G01 X70.8435 Y26.6711
G01 X70.7817 Y26.6151
G01 X70.7430 Y26.5833
G01 X70.6760 Y26.5336
G01 X70.6706 Y26.5300
G00 Z2.0000
G00 X73.4750 Y26.7683
G01 F60.00
G01 Z-0.1500
G01 F120.00
G01 X73.4900 Y26.7675
G01 X73.5395 Y26.7602
G01 X73.5880 Y26.7480
G01 X73.6352 Y26.7312
G01 X73.6804 Y26.7098
G01 X73.7233 Y26.6840
G01 X73.7635 Y26.6542
G01 X73.8006 Y26.6206
G01 X73.8342 Y26.5835
G01 X73.8640 Y26.5433
G01 X73.8898 Y26.5004
G01 X73.9112 Y26.4552
G01 X73.9280 Y26.4080
G01 X73.9402 Y26.3595
G01 X73.9475 Y26.3100
G01 X73.9495 Y26.2703
G01 X76.4400 Y26.2703
G01 X76.4650 Y26.2696
G01 X76.5141 Y26.2672
G01 X76.5384 Y26.2648
G01 X76.5810 Y26.2755
G01 X76.6301 Y26.2853
G01 X76.7272 Y26.2997
G01 X76.7770 Y26.3046
G01 X76.8750 Y26.3094
G01 X76.9250 Y26.3094
G01 X77.0230 Y26.3046
G01 X77.0728 Y26.2997
G01 X77.1699 Y26.2853
G01 X77.2190 Y26.2755
G01 X77.3142 Y26.2517
G01 X77.3621 Y26.2371
G01 X77.4545 Y26.2041
G01 X77.5007 Y26.1849
G01 X77.5894 Y26.1430
G01 X77.6336 Y26.1194
G01 X77.7178 Y26.0689
G01 X77.7594 Y26.0411
G01 X77.8382 Y25.9826
G01 X77.8769 Y25.9509
G01 X77.9496 Y25.8850
G01 X77.9850 Y25.8496
G01 X78.0509 Y25.7769
G01 X78.0826 Y25.7382
G01 X78.1411 Y25.6594
G01 X78.1689 Y25.6178
G01 X78.2194 Y25.5336
G01 X78.2430 Y25.4894
G01 X78.2849 Y25.4007
G01 X78.3041 Y25.3545
G01 X78.3371 Y25.2621
G01 X78.3517 Y25.2142
G01 X78.3755 Y25.1190
G01 X78.3853 Y25.0699
G01 X78.3897 Y25.0397
G01 X78.3897 Y28.8815
G01 X77.9815 Y29.2897
G01 X75.6397 Y29.2897
G01 X75.6699 Y29.2853
G01 X75.7190 Y29.2755
G01 X75.8142 Y29.2517
G01 X75.8621 Y29.2371
G01 X75.9545 Y29.2041
G01 X76.0007 Y29.1849
G01 X76.0894 Y29.1430
G01 X76.1336 Y29.1194
G01 X76.2178 Y29.0689
G01 X76.2594 Y29.0411
G01 X76.3382 Y28.9826
G01 X76.3769 Y28.9509
G01 X76.4496 Y28.8850
G01 X76.4850 Y28.8496
G01 X76.5509 Y28.7769
G01 X76.5826 Y28.7382
G01 X76.6411 Y28.6594
G01 X76.6689 Y28.6178
G01 X76.7194 Y28.5336
G01 X76.7430 Y28.4894
G01 X76.7849 Y28.4007
G01 X76.8041 Y28.3545
G01 X76.8371 Y28.2621
G01 X76.8517 Y28.2142
G01 X76.8755 Y28.1190
G01 X76.8853 Y28.0699
G01 X76.8997 Y27.9728
G01 X76.9046 Y27.9230
G01 X76.9094 Y27.8250
G01 X76.9094 Y27.7750
G01 X76.9046 Y27.6770
G01 X76.8997 Y27.6272
G01 X76.8853 Y27.5301
G01 X76.8755 Y27.4810
G01 X76.8517 Y27.3858
G01 X76.8371 Y27.3379
G01 X76.8041 Y27.2455
G01 X76.7849 Y27.1993
G01 X76.7430 Y27.1106
G01 X76.7194 Y27.0664
G01 X76.6689 Y26.9822
G01 X76.6411 Y26.9406
G01 X76.5826 Y26.8618
G01 X76.5509 Y26.8231
G01 X76.4850 Y26.7504
G01 X76.4496 Y26.7150
G01 X76.3769 Y26.6491
G01 X76.3382 Y26.6174
G01 X76.2594 Y26.5589
G01 X76.2178 Y26.5311
G01 X76.1336 Y26.4806
G01 X76.0894 Y26.4570
G01 X76.0007 Y26.4151
G01 X75.9545 Y26.3959
G01 X75.8621 Y26.3629
G01 X75.8142 Y26.3483
G01 X75.7190 Y26.3245
G01 X75.6699 Y26.3147
G01 X75.5728 Y26.3003
G01 X75.5230 Y26.2954
G01 X75.4250 Y26.2906
G01 X75.3750 Y26.2906
G01 X75.2770 Y26.2954
G01 X75.2272 Y26.3003
G01 X75.1301 Y26.3147
G01 X75.0810 Y26.3245
G01 X74.9858 Y26.3483
G01 X74.9379 Y26.3629
G01 X74.8455 Y26.3959
G01 X74.7993 Y26.4151
G01 X74.7106 Y26.4570
G01 X74.6664 Y26.4806
G01 X74.5822 Y26.5311
G01 X74.5406 Y26.5589
G01 X74.4618 Y26.6174
G01 X74.4231 Y26.6491
G01 X74.3504 Y26.7150
G01 X74.3150 Y26.7504
G01 X74.2793 Y26.7897
G01 X73.4926 Y26.7897
G01 X73.4750 Y26.7683
G00 Z2.0000
G00 X72.2101 Y29.2897
G01 F60.00
G01 Z-0.1500
G01 F120.00
G01 X70.9103 Y29.2897
G01 X70.9103 Y28.8590
G01 X70.9349 Y28.8317
G01 X70.9667 Y28.7930
G01 X71.0164 Y28.7260
G01 X71.0442 Y28.6844
G01 X71.0871 Y28.6129
G01 X71.1107 Y28.5687
G01 X71.1463 Y28.4933
G01 X71.1655 Y28.4471
G01 X71.1700 Y28.4345
G01 X71.1745 Y28.4471
G01 X71.1937 Y28.4933
G01 X71.2293 Y28.5687
G01 X71.2529 Y28.6129
G01 X71.2958 Y28.6844
G01 X71.3236 Y28.7260
G01 X71.3733 Y28.7930
G01 X71.4051 Y28.8317
G01 X71.4611 Y28.8935
G01 X71.4965 Y28.9289
G01 X71.5583 Y28.9849
G01 X71.5970 Y29.0167
G01 X71.6640 Y29.0664
G01 X71.7056 Y29.0942
G01 X71.7771 Y29.1371
G01 X71.8213 Y29.1607
G01 X71.8967 Y29.1963
G01 X71.9429 Y29.2155
G01 X72.0214 Y29.2436
G01 X72.0693 Y29.2581
G01 X72.1503 Y29.2784
G01 X72.1993 Y29.2881
G01 X72.2101 Y29.2897
G00 Z2.0000
G00 X75.1603 Y29.2897
G01 F60.00
G01 Z-0.1500
G01 F120.00
G01 X72.6699 Y29.2897
G01 X72.6807 Y29.2881
G01 X72.7297 Y29.2784
G01 X72.8107 Y29.2581
G01 X72.8586 Y29.2436
G01 X72.9371 Y29.2155
G01 X72.9833 Y29.1963
G01 X73.0587 Y29.1607
G01 X73.1029 Y29.1371
G01 X73.1744 Y29.0942
G01 X73.2160 Y29.0664
G01 X73.2830 Y29.0167
G01 X73.3217 Y28.9849
G01 X73.3835 Y28.9289
G01 X73.4189 Y28.8935
G01 X73.4749 Y28.8317
G01 X73.4926 Y28.8103
G01 X74.2793 Y28.8103
G01 X74.3150 Y28.8496
G01 X74.3504 Y28.8850
G01 X74.4231 Y28.9509
G01 X74.4618 Y28.9826
G01 X74.5406 Y29.0411
G01 X74.5822 Y29.0689
G01 X74.6664 Y29.1194
G01 X74.7106 Y29.1430
G01 X74.7993 Y29.1849
G01 X74.8455 Y29.2041
G01 X74.9379 Y29.2371
G01 X74.9858 Y29.2517
G01 X75.0810 Y29.2755
G01 X75.1301 Y29.2853
G01 X75.1603 Y29.2897
G00 Z2.0000
G00 X73.6805 Y23.8103
G01 F60.00
G01 Z-0.1500
G01 F120.00
G01 X75.4000 Y23.8103
G01 X75.4250 Y23.8096
G01 X75.4741 Y23.8072
G01 X75.5239 Y23.8023
G01 X75.5724 Y23.7951
G01 X75.6215 Y23.7854
G01 X75.6691 Y23.7734
G01 X75.7170 Y23.7589
G01 X75.7633 Y23.7424
G01 X75.8095 Y23.7232
G01 X75.8539 Y23.7022
G01 X75.8798 Y23.6883
G01 X75.8504 Y23.7150
G01 X75.8150 Y23.7504
G01 X75.7491 Y23.8231
G01 X75.7174 Y23.8618
G01 X75.6589 Y23.9406
G01 X75.6311 Y23.9822
G01 X75.5806 Y24.0664
G01 X75.5570 Y24.1106
G01 X75.5151 Y24.1993
G01 X75.4944 Y24.2497
G01 X73.9495 Y24.2497
G01 X73.9475 Y24.2100
G01 X73.9402 Y24.1605
G01 X73.9280 Y24.1120
G01 X73.9112 Y24.0648
G01 X73.8898 Y24.0196
G01 X73.8640 Y23.9767
G01 X73.8342 Y23.9365
G01 X73.8006 Y23.8994
G01 X73.7635 Y23.8658
G01 X73.7233 Y23.8360
G01 X73.6805 Y23.8103
G00 Z2.0000
G00 X75.0497 Y19.8218
G01 F60.00
G01 Z-0.1500
G01 F120.00
G01 X74.9850 Y19.7504
G01 X74.9496 Y19.7150
G01 X74.8769 Y19.6491
G01 X74.8382 Y19.6174
G01 X74.7594 Y19.5589
G01 X74.7178 Y19.5311
G01 X74.6336 Y19.4806
G01 X74.5894 Y19.4570
G01 X74.5303 Y19.4290
G01 X74.5303 Y19.0790
G01 X74.5549 Y19.0517
G01 X74.5867 Y19.0130
G01 X74.6364 Y18.9460
G01 X74.6642 Y18.9044
G01 X74.7071 Y18.8329
G01 X74.7307 Y18.7887
G01 X74.7663 Y18.7133
G01 X74.7855 Y18.6671
G01 X74.7900 Y18.6545
G01 X74.7945 Y18.6671
G01 X74.8137 Y18.7133
G01 X74.8493 Y18.7887
G01 X74.8729 Y18.8329
G01 X74.9158 Y18.9044
G01 X74.9436 Y18.9460
G01 X74.9933 Y19.0130
G01 X75.0251 Y19.0517
G01 X75.0497 Y19.0790
G01 X75.0497 Y19.8218
G00 Z2.0000
G00 X77.3300 Y18.6545
G01 F60.00
G01 Z-0.1500
G01 F120.00
G01 X77.3345 Y18.6671
G01 X77.3537 Y18.7133
G01 X77.3893 Y18.7887
G01 X77.4129 Y18.8329
G01 X77.4558 Y18.9044
G01 X77.4836 Y18.9460
G01 X77.5333 Y19.0130
G01 X77.5651 Y19.0517
G01 X77.6211 Y19.1135
G01 X77.6565 Y19.1489
G01 X77.7183 Y19.2049
G01 X77.7570 Y19.2367
G01 X77.8240 Y19.2864
G01 X77.8656 Y19.3142
G01 X77.9371 Y19.3571
G01 X77.9813 Y19.3807
G01 X78.0567 Y19.4163
G01 X78.1029 Y19.4355
G01 X78.1814 Y19.4636
G01 X78.2293 Y19.4781
G01 X78.3103 Y19.4984
G01 X78.3593 Y19.5081
G01 X78.4419 Y19.5204
G01 X78.4917 Y19.5253
G01 X78.5750 Y19.5294
G01 X78.6250 Y19.5294
G01 X78.7083 Y19.5253
G01 X78.7581 Y19.5204
G01 X78.8407 Y19.5081
G01 X78.8897 Y19.4984
G01 X78.9707 Y19.4781
G01 X79.0186 Y19.4636
G01 X79.0971 Y19.4355
G01 X79.1433 Y19.4163
G01 X79.2187 Y19.3807
G01 X79.2629 Y19.3571
G01 X79.3344 Y19.3142
G01 X79.3760 Y19.2864
G01 X79.4430 Y19.2367
G01 X79.4817 Y19.2049
G01 X79.5435 Y19.1489
G01 X79.5789 Y19.1135
G01 X79.6349 Y19.0517
G01 X79.6667 Y19.0130
G01 X79.7164 Y18.9460
G01 X79.7442 Y18.9044
G01 X79.7871 Y18.8329
G01 X79.8107 Y18.7887
G01 X79.8463 Y18.7133
G01 X79.8655 Y18.6671
G01 X79.8700 Y18.6545
G01 X79.8745 Y18.6671
G01 X79.8937 Y18.7133
G01 X79.9293 Y18.7887
G01 X79.9529 Y18.8329
G01 X79.9958 Y18.9044
G01 X80.0236 Y18.9460
G01 X80.0733 Y19.0130
G01 X80.1051 Y19.0517
G01 X80.1297 Y19.0790
G01 X80.1297 Y20.4253
G01 X80.0826 Y20.3618
G01 X80.0509 Y20.3231
G01 X79.9850 Y20.2504
G01 X79.9496 Y20.2150
G01 X79.8769 Y20.1491
G01 X79.8382 Y20.1174
G01 X79.7594 Y20.0589
G01 X79.7178 Y20.0311
G01 X79.6336 Y19.9806
G01 X79.5894 Y19.9570
G01 X79.5007 Y19.9151
G01 X79.4545 Y19.8959
G01 X79.3621 Y19.8629
G01 X79.3142 Y19.8483
G01 X79.2190 Y19.8245
G01 X79.1699 Y19.8147
G01 X79.0728 Y19.8003
G01 X79.0230 Y19.7954
G01 X78.9250 Y19.7906
G01 X78.8750 Y19.7906
G01 X78.7770 Y19.7954
G01 X78.7272 Y19.8003
G01 X78.6301 Y19.8147
G01 X78.5810 Y19.8245
G01 X78.4858 Y19.8483
G01 X78.4379 Y19.8629
G01 X78.3455 Y19.8959
G01 X78.2993 Y19.9151
G01 X78.2106 Y19.9570
G01 X78.1664 Y19.9806
G01 X78.0822 Y20.0311
G01 X78.0406 Y20.0589
G01 X77.9618 Y20.1174
G01 X77.9231 Y20.1491
G01 X77.8504 Y20.2150
G01 X77.8150 Y20.2504
G01 X77.7491 Y20.3231
G01 X77.7174 Y20.3618
G01 X77.6589 Y20.4406
G01 X77.6311 Y20.4822
G01 X77.5806 Y20.5664
G01 X77.5570 Y20.6106
G01 X77.5151 Y20.6993
G01 X77.4959 Y20.7455
G01 X77.4629 Y20.8379
G01 X77.4483 Y20.8858
G01 X77.4245 Y20.9810
G01 X77.4147 Y21.0301
G01 X77.4003 Y21.1272
G01 X77.3954 Y21.1770
G01 X77.3906 Y21.2750
G01 X77.3906 Y21.3250
G01 X77.3954 Y21.4230
G01 X77.4003 Y21.4728
G01 X77.4147 Y21.5699
G01 X77.4245 Y21.6190
G01 X77.4483 Y21.7142
G01 X77.4629 Y21.7621
G01 X77.4959 Y21.8545
G01 X77.5151 Y21.9007
G01 X77.5570 Y21.9894
G01 X77.5806 Y22.0336
G01 X77.6311 Y22.1178
G01 X77.6589 Y22.1594
G01 X77.7174 Y22.2382
G01 X77.7491 Y22.2769
G01 X77.8150 Y22.3496
G01 X77.8504 Y22.3850
G01 X77.8897 Y22.4207
G01 X77.8897 Y22.8000
G01 X77.8904 Y22.8250
G01 X77.8928 Y22.8741
G01 X77.8977 Y22.9239
G01 X77.9049 Y22.9724
G01 X77.9146 Y23.0215
G01 X77.9266 Y23.0691
G01 X77.9411 Y23.1170
G01 X77.9576 Y23.1633
G01 X77.9768 Y23.2095
G01 X77.9978 Y23.2539
G01 X78.0214 Y23.2980
G01 X78.0466 Y23.3401
G01 X78.0744 Y23.3817
G01 X78.1037 Y23.4212
G01 X78.1354 Y23.4599
G01 X78.1684 Y23.4962
G01 X78.1856 Y23.5144
G01 X78.3897 Y23.7185
G01 X78.3897 Y24.5603
G01 X78.3853 Y24.5301
G01 X78.3755 Y24.4810
G01 X78.3517 Y24.3858
G01 X78.3371 Y24.3379
G01 X78.3041 Y24.2455
G01 X78.2849 Y24.1993
G01 X78.2430 Y24.1106
G01 X78.2194 Y24.0664
G01 X78.1689 Y23.9822
G01 X78.1411 Y23.9406
G01 X78.0826 Y23.8618
G01 X78.0509 Y23.8231
G01 X77.9850 Y23.7504
G01 X77.9496 Y23.7150
G01 X77.8769 Y23.6491
G01 X77.8382 Y23.6174
G01 X77.7594 Y23.5589
G01 X77.7178 Y23.5311
G01 X77.6336 Y23.4806
G01 X77.5894 Y23.4570
G01 X77.5007 Y23.4151
G01 X77.4545 Y23.3959
G01 X77.3621 Y23.3629
G01 X77.3142 Y23.3483
G01 X77.2190 Y23.3245
G01 X77.1699 Y23.3147
G01 X77.0728 Y23.3003
G01 X77.0230 Y23.2954
G01 X76.9250 Y23.2906
G01 X76.8750 Y23.2906
G01 X76.7770 Y23.2954
G01 X76.7272 Y23.3003
G01 X76.6301 Y23.3147
G01 X76.5810 Y23.3245
G01 X76.4858 Y23.3483
G01 X76.4379 Y23.3629
G01 X76.3455 Y23.3959
G01 X76.2993 Y23.4151
G01 X76.2106 Y23.4570
G01 X76.1664 Y23.4806
G01 X76.1206 Y23.5081
G01 X76.7744 Y22.8544
G01 X76.7916 Y22.8362
G01 X76.8246 Y22.7999
G01 X76.8563 Y22.7612
G01 X76.8856 Y22.7217
G01 X76.9134 Y22.6801
G01 X76.9386 Y22.6380
G01 X76.9622 Y22.5939
G01 X76.9832 Y22.5495
G01 X77.0024 Y22.5033
G01 X77.0189 Y22.4570
G01 X77.0334 Y22.4091
G01 X77.0454 Y22.3615
G01 X77.0551 Y22.3124
G01 X77.0623 Y22.2639
G01 X77.0672 Y22.2141
G01 X77.0696 Y22.1650
G01 X77.0703 Y22.1400
G01 X77.0703 Y19.0790
G01 X77.0949 Y19.0517
G01 X77.1267 Y19.0130
G01 X77.1764 Y18.9460
G01 X77.2042 Y18.9044
G01 X77.2471 Y18.8329
G01 X77.2707 Y18.7887
G01 X77.3063 Y18.7133
G01 X77.3255 Y18.6671
G01 X77.3300 Y18.6545
G00 Z2.0000
G00 X80.1297 Y22.1747
G01 F60.00
G01 Z-0.1500
G01 F120.00
G01 X80.1297 Y22.6018
G01 X80.1144 Y22.5856
G01 X79.9308 Y22.4021
G01 X79.9496 Y22.3850
G01 X79.9850 Y22.3496
G01 X80.0509 Y22.2769
G01 X80.0826 Y22.2382
G01 X80.1297 Y22.1747
G00 Z2.0000
G00 X87.4103 Y24.1608
G01 F60.00
G01 Z-0.1500
G01 F120.00
G01 X87.4103 Y19.9994
G01 X87.4146 Y20.0215
G01 X87.4266 Y20.0691
G01 X87.4411 Y20.1170
G01 X87.4576 Y20.1633
G01 X87.4768 Y20.2095
G01 X87.4978 Y20.2539
G01 X87.5214 Y20.2980
G01 X87.5466 Y20.3401
G01 X87.5744 Y20.3817
G01 X87.6037 Y20.4212
G01 X87.6354 Y20.4599
G01 X87.6684 Y20.4962
G01 X87.6856 Y20.5144
G01 X89.8692 Y22.6979
G01 X89.8504 Y22.7150
G01 X89.8150 Y22.7504
G01 X89.7491 Y22.8231
G01 X89.7174 Y22.8618
G01 X89.6589 Y22.9406
G01 X89.6311 Y22.9822
G01 X89.5806 Y23.0664
G01 X89.5570 Y23.1106
G01 X89.5151 Y23.1993
G01 X89.4959 Y23.2455
G01 X89.4629 Y23.3379
G01 X89.4483 Y23.3858
G01 X89.4245 Y23.4810
G01 X89.4147 Y23.5301
G01 X89.4003 Y23.6272
G01 X89.3954 Y23.6770
G01 X89.3906 Y23.7750
G01 X89.3906 Y23.8250
G01 X89.3954 Y23.9230
G01 X89.4003 Y23.9728
G01 X89.4147 Y24.0699
G01 X89.4245 Y24.1190
G01 X89.4482 Y24.2138
G01 X89.3769 Y24.1491
G01 X89.3382 Y24.1174
G01 X89.2594 Y24.0589
G01 X89.2178 Y24.0311
G01 X89.1336 Y23.9806
G01 X89.0894 Y23.9570
G01 X89.0007 Y23.9151
G01 X88.9545 Y23.8959
G01 X88.8621 Y23.8629
G01 X88.8142 Y23.8483
G01 X88.7190 Y23.8245
G01 X88.6699 Y23.8147
G01 X88.5728 Y23.8003
G01 X88.5230 Y23.7954
G01 X88.4250 Y23.7906
G01 X88.3750 Y23.7906
G01 X88.2770 Y23.7954
G01 X88.2272 Y23.8003
G01 X88.1301 Y23.8147
G01 X88.0810 Y23.8245
G01 X87.9858 Y23.8483
G01 X87.9379 Y23.8629
G01 X87.8455 Y23.8959
G01 X87.7993 Y23.9151
G01 X87.7106 Y23.9570
G01 X87.6664 Y23.9806
G01 X87.5822 Y24.0311
G01 X87.5406 Y24.0589
G01 X87.4618 Y24.1174
G01 X87.4231 Y24.1491
G01 X87.4103 Y24.1608
G00 Z2.0000
G00 X89.8518 Y24.8862
G01 F60.00
G01 Z-0.1500
G01 F120.00
G01 X89.9231 Y24.9509
G01 X89.9618 Y24.9826
G01 X90.0406 Y25.0411
G01 X90.0822 Y25.0689
G01 X90.1664 Y25.1194
G01 X90.2106 Y25.1430
G01 X90.2993 Y25.1849
G01 X90.3455 Y25.2041
G01 X90.4379 Y25.2371
G01 X90.4858 Y25.2517
G01 X90.5810 Y25.2755
G01 X90.6301 Y25.2853
G01 X90.7272 Y25.2997
G01 X90.7770 Y25.3046
G01 X90.8750 Y25.3094
G01 X90.9250 Y25.3094
G01 X91.0230 Y25.3046
G01 X91.0728 Y25.2997
G01 X91.1699 Y25.2853
G01 X91.2190 Y25.2755
G01 X91.3142 Y25.2517
G01 X91.3621 Y25.2371
G01 X91.4545 Y25.2041
G01 X91.5007 Y25.1849
G01 X91.5894 Y25.1430
G01 X91.6336 Y25.1194
G01 X91.7178 Y25.0689
G01 X91.7594 Y25.0411
G01 X91.8382 Y24.9826
G01 X91.8769 Y24.9509
G01 X91.9496 Y24.8850
G01 X91.9850 Y24.8496
G01 X92.0509 Y24.7769
G01 X92.0826 Y24.7382
G01 X92.1411 Y24.6594
G01 X92.1689 Y24.6178
G01 X92.2194 Y24.5336
