(G-CODE GENERATED BY FLATCAM v8.991 - www.flatcam.org - Version Date: 2019/12/27)

(Name: delikler)
(Type: G-code from Excellon)
(Units: MM)

(Created on Tuesday, 14 April 2020 at 12:46)

(Feedrate: 300.0 mm/min)
(Feedrate rapids 1500.0 mm/min)

(Z_Cut: -1.8 mm)
(Z_Move: 2.0 mm)
(Z Toolchange: 15.0 mm)
(X,Y Toolchange: 0.0000, 0.0000 mm)
(Z Start: None mm)
(Z End: 4.0 mm)
(Steps per circle: 64)
(Preprocessor Excellon: default)

(X range:    4.4000 ...  125.4000  mm)
(Y range:    2.2800 ...   61.3000  mm)

(Spindle Speed: None RPM)
G21
G90
G94




G01 F300.00
G00 Z2.0000

M03
G00 X91.9000 Y15.3000
G01 Z-1.8000
G01 Z0
G00 Z2.0000
G00 X88.4000 Y11.3000
G01 Z-1.8000
G01 Z0
G00 Z2.0000
G00 X88.9000 Y7.8000
G01 Z-1.8000
G01 Z0
G00 Z2.0000
G00 X88.4000 Y5.3000
G01 Z-1.8000
G01 Z0
G00 Z2.0000
G00 X83.9000 Y5.3000
G01 Z-1.8000
G01 Z0
G00 Z2.0000
G00 X83.6800 Y2.6800
G01 Z-1.8000
G01 Z0
G00 Z2.0000
G00 X81.1400 Y2.6800
G01 Z-1.8000
G01 Z0
G00 Z2.0000
G00 X78.6000 Y2.6800
G01 Z-1.8000
G01 Z0
G00 Z2.0000
G00 X82.4000 Y7.8000
G01 Z-1.8000
G01 Z0
G00 Z2.0000
G00 X82.9000 Y10.8000
G01 Z-1.8000
G01 Z0
G00 Z2.0000
G00 X83.4000 Y14.3000
G01 Z-1.8000
G01 Z0
G00 Z2.0000
G00 X83.6800 Y17.9200
G01 Z-1.8000
G01 Z0
G00 Z2.0000
G00 X81.1400 Y17.9200
G01 Z-1.8000
G01 Z0
G00 Z2.0000
G00 X78.6000 Y17.9200
G01 Z-1.8000
G01 Z0
G00 Z2.0000
G00 X76.0600 Y17.9200
G01 Z-1.8000
G01 Z0
G00 Z2.0000
G00 X73.5200 Y17.9200
G01 Z-1.8000
G01 Z0
G00 Z2.0000
G00 X73.9000 Y20.8000
G01 Z-1.8000
G01 Z0
G00 Z2.0000
G00 X78.9000 Y21.3000
G01 Z-1.8000
G01 Z0
G00 Z2.0000
G00 X76.9000 Y24.8000
G01 Z-1.8000
G01 Z0
G00 Z2.0000
G00 X75.4000 Y27.8000
G01 Z-1.8000
G01 Z0
G00 Z2.0000
G00 X72.4400 Y25.2600
G01 Z-1.8000
G01 Z0
G00 Z2.0000
G00 X72.4400 Y27.8000
G01 Z-1.8000
G01 Z0
G00 Z2.0000
G00 X69.9000 Y27.8000
G01 Z-1.8000
G01 Z0
G00 Z2.0000
G00 X69.9000 Y25.2600
G01 Z-1.8000
G01 Z0
G00 Z2.0000
G00 X67.3600 Y25.2600
G01 Z-1.8000
G01 Z0
G00 Z2.0000
G00 X67.3600 Y27.8000
G01 Z-1.8000
G01 Z0
G00 Z2.0000
G00 X64.8200 Y27.8000
G01 Z-1.8000
G01 Z0
G00 Z2.0000
G00 X64.8200 Y25.2600
G01 Z-1.8000
G01 Z0
G00 Z2.0000
G00 X70.9800 Y17.9200
G01 Z-1.8000
G01 Z0
G00 Z2.0000
G00 X68.4400 Y17.9200
G01 Z-1.8000
G01 Z0
G00 Z2.0000
G00 X65.9000 Y17.9200
G01 Z-1.8000
G01 Z0
G00 Z2.0000
G00 X63.3600 Y17.9200
G01 Z-1.8000
G01 Z0
G00 Z2.0000
G00 X60.8200 Y17.9200
G01 Z-1.8000
G01 Z0
G00 Z2.0000
G00 X58.2800 Y17.9200
G01 Z-1.8000
G01 Z0
G00 Z2.0000
G00 X58.4000 Y13.8000
G01 Z-1.8000
G01 Z0
G00 Z2.0000
G00 X62.9000 Y15.3000
G01 Z-1.8000
G01 Z0
G00 Z2.0000
G00 X63.6500 Y12.3000
G01 Z-1.8000
G01 Z0
G00 Z2.0000
G00 X64.4000 Y9.8000
G01 Z-1.8000
G01 Z0
G00 Z2.0000
G00 X66.9000 Y6.8000
G01 Z-1.8000
G01 Z0
G00 Z2.0000
G00 X72.4000 Y6.3000
G01 Z-1.8000
G01 Z0
G00 Z2.0000
G00 X76.0600 Y2.6800
G01 Z-1.8000
G01 Z0
G00 Z2.0000
G00 X73.5200 Y2.6800
G01 Z-1.8000
G01 Z0
G00 Z2.0000
G00 X70.9800 Y2.6800
G01 Z-1.8000
G01 Z0
G00 Z2.0000
G00 X68.4400 Y2.6800
G01 Z-1.8000
G01 Z0
G00 Z2.0000
G00 X65.9000 Y2.6800
G01 Z-1.8000
G01 Z0
G00 Z2.0000
G00 X63.3600 Y2.6800
G01 Z-1.8000
G01 Z0
G00 Z2.0000
G00 X60.8200 Y2.6800
G01 Z-1.8000
G01 Z0
G00 Z2.0000
G00 X58.4000 Y4.8000
G01 Z-1.8000
G01 Z0
G00 Z2.0000
G00 X58.2800 Y2.6800
G01 Z-1.8000
G01 Z0
G00 Z2.0000
G00 X55.7400 Y2.6800
G01 Z-1.8000
G01 Z0
G00 Z2.0000
G00 X53.2000 Y2.6800
G01 Z-1.8000
G01 Z0
G00 Z2.0000
G00 X50.6600 Y2.6800
G01 Z-1.8000
G01 Z0
G00 Z2.0000
G00 X48.1200 Y2.6800
G01 Z-1.8000
G01 Z0
G00 Z2.0000
G00 X55.1500 Y15.0500
G01 Z-1.8000
G01 Z0
G00 Z2.0000
G00 X55.7400 Y17.9200
G01 Z-1.8000
G01 Z0
G00 Z2.0000
G00 X53.2000 Y17.9200
G01 Z-1.8000
G01 Z0
G00 Z2.0000
G00 X50.6600 Y17.9200
G01 Z-1.8000
G01 Z0
G00 Z2.0000
G00 X48.1200 Y17.9200
G01 Z-1.8000
G01 Z0
G00 Z2.0000
G00 X44.9000 Y11.8000
G01 Z-1.8000
G01 Z0
G00 Z2.0000
G00 X36.9000 Y12.8000
G01 Z-1.8000
G01 Z0
G00 Z2.0000
G00 X33.4000 Y12.8000
G01 Z-1.8000
G01 Z0
G00 Z2.0000
G00 X33.4000 Y9.8000
G01 Z-1.8000
G01 Z0
G00 Z2.0000
G00 X36.4000 Y9.8000
G01 Z-1.8000
G01 Z0
G00 Z2.0000
G00 X36.9000 Y6.8000
G01 Z-1.8000
G01 Z0
G00 Z2.0000
G00 X33.4000 Y6.8000
G01 Z-1.8000
G01 Z0
G00 Z2.0000
G00 X25.9000 Y9.3000
G01 Z-1.8000
G01 Z0
G00 Z2.0000
G00 X24.4000 Y6.3000
G01 Z-1.8000
G01 Z0
G00 Z2.0000
G00 X20.4000 Y12.8000
G01 Z-1.8000
G01 Z0
G00 Z2.0000
G00 X21.1200 Y16.8400
G01 Z-1.8000
G01 Z0
G00 Z2.0000
G00 X23.6600 Y16.8400
G01 Z-1.8000
G01 Z0
G00 Z2.0000
G00 X26.2000 Y16.8400
G01 Z-1.8000
G01 Z0
G00 Z2.0000
G00 X28.7400 Y16.8400
G01 Z-1.8000
G01 Z0
G00 Z2.0000
G00 X31.4000 Y16.8000
G01 Z-1.8000
G01 Z0
G00 Z2.0000
G00 X31.4000 Y20.3000
G01 Z-1.8000
G01 Z0
G00 Z2.0000
G00 X27.4000 Y25.7200
G01 Z-1.8000
G01 Z0
G00 Z2.0000
G00 X24.4000 Y23.8000
G01 Z-1.8000
G01 Z0
G00 Z2.0000
G00 X22.4000 Y20.8000
G01 Z-1.8000
G01 Z0
G00 Z2.0000
G00 X18.9000 Y24.3000
G01 Z-1.8000
G01 Z0
G00 Z2.0000
G00 X15.9000 Y24.7600
G01 Z-1.8000
G01 Z0
G00 Z2.0000
G00 X15.9000 Y27.3000
G01 Z-1.8000
G01 Z0
G00 Z2.0000
G00 X15.9000 Y32.3000
G01 Z-1.8000
G01 Z0
G00 Z2.0000
G00 X15.9000 Y34.8400
G01 Z-1.8000
G01 Z0
G00 Z2.0000
G00 X27.4000 Y28.2600
G01 Z-1.8000
G01 Z0
G00 Z2.0000
G00 X27.4000 Y30.8000
G01 Z-1.8000
G01 Z0
G00 Z2.0000
G00 X32.1500 Y34.5500
G01 Z-1.8000
G01 Z0
G00 Z2.0000
G00 X32.1500 Y40.5500
G01 Z-1.8000
G01 Z0
G00 Z2.0000
G00 X32.9000 Y52.8000
G01 Z-1.8000
G01 Z0
G00 Z2.0000
G00 X41.9000 Y50.8000
G01 Z-1.8000
G01 Z0
G00 Z2.0000
G00 X44.4000 Y50.8000
G01 Z-1.8000
G01 Z0
G00 Z2.0000
G00 X44.4000 Y53.8000
G01 Z-1.8000
G01 Z0
G00 Z2.0000
G00 X47.9000 Y53.8000
G01 Z-1.8000
G01 Z0
G00 Z2.0000
G00 X51.4000 Y53.8000
G01 Z-1.8000
G01 Z0
G00 Z2.0000
G00 X51.4000 Y50.8000
G01 Z-1.8000
G01 Z0
G00 Z2.0000
G00 X47.9000 Y50.8000
G01 Z-1.8000
G01 Z0
G00 Z2.0000
G00 X46.8200 Y43.8000
G01 Z-1.8000
G01 Z0
G00 Z2.0000
G00 X49.3600 Y43.8000
G01 Z-1.8000
G01 Z0
G00 Z2.0000
G00 X51.9000 Y43.8000
G01 Z-1.8000
G01 Z0
G00 Z2.0000
G00 X51.9000 Y39.8000
G01 Z-1.8000
G01 Z0
G00 Z2.0000
G00 X49.3600 Y39.8000
G01 Z-1.8000
G01 Z0
G00 Z2.0000
G00 X46.8200 Y39.8000
G01 Z-1.8000
G01 Z0
G00 Z2.0000
G00 X46.8200 Y35.8000
G01 Z-1.8000
G01 Z0
G00 Z2.0000
G00 X43.4400 Y32.8400
G01 Z-1.8000
G01 Z0
G00 Z2.0000
G00 X44.4000 Y25.8000
G01 Z-1.8000
G01 Z0
G00 Z2.0000
G00 X49.4000 Y29.3000
G01 Z-1.8000
G01 Z0
G00 Z2.0000
G00 X54.9000 Y27.8000
G01 Z-1.8000
G01 Z0
G00 Z2.0000
G00 X53.9000 Y31.3000
G01 Z-1.8000
G01 Z0
G00 Z2.0000
G00 X49.3600 Y32.8400
G01 Z-1.8000
G01 Z0
G00 Z2.0000
G00 X49.3600 Y35.8000
G01 Z-1.8000
G01 Z0
G00 Z2.0000
G00 X51.9000 Y35.8000
G01 Z-1.8000
G01 Z0
G00 Z2.0000
G00 X56.4000 Y37.3000
G01 Z-1.8000
G01 Z0
G00 Z2.0000
G00 X61.4000 Y40.3000
G01 Z-1.8000
G01 Z0
G00 Z2.0000
G00 X66.4000 Y39.3000
G01 Z-1.8000
G01 Z0
G00 Z2.0000
G00 X66.4000 Y43.8000
G01 Z-1.8000
G01 Z0
G00 Z2.0000
G00 X68.6500 Y47.5500
G01 Z-1.8000
G01 Z0
G00 Z2.0000
G00 X73.6500 Y47.5500
G01 Z-1.8000
G01 Z0
G00 Z2.0000
G00 X73.4000 Y43.8000
G01 Z-1.8000
G01 Z0
G00 Z2.0000
G00 X74.1000 Y40.0000
G01 Z-1.8000
G01 Z0
G00 Z2.0000
G00 X78.7400 Y40.8000
G01 Z-1.8000
G01 Z0
G00 Z2.0000
G00 X78.7400 Y43.8000
G01 Z-1.8000
G01 Z0
G00 Z2.0000
G00 X78.7400 Y47.3000
G01 Z-1.8000
G01 Z0
G00 Z2.0000
G00 X76.6600 Y51.3000
G01 Z-1.8000
G01 Z0
G00 Z2.0000
G00 X78.7400 Y56.3000
G01 Z-1.8000
G01 Z0
G00 Z2.0000
G00 X88.9000 Y56.3000
G01 Z-1.8000
G01 Z0
G00 Z2.0000
G00 X91.9000 Y51.3000
G01 Z-1.8000
G01 Z0
G00 Z2.0000
G00 X88.9000 Y47.3000
G01 Z-1.8000
G01 Z0
G00 Z2.0000
G00 X88.9000 Y43.8000
G01 Z-1.8000
G01 Z0
G00 Z2.0000
G00 X88.9000 Y40.8000
G01 Z-1.8000
G01 Z0
G00 Z2.0000
G00 X90.9000 Y31.8000
G01 Z-1.8000
G01 Z0
G00 Z2.0000
G00 X88.4000 Y28.8000
G01 Z-1.8000
G01 Z0
G00 Z2.0000
G00 X88.4000 Y25.3000
G01 Z-1.8000
G01 Z0
G00 Z2.0000
G00 X90.9000 Y23.8000
G01 Z-1.8000
G01 Z0
G00 Z2.0000
G00 X100.9000 Y28.2600
G01 Z-1.8000
G01 Z0
G00 Z2.0000
G00 X100.9000 Y30.8000
G01 Z-1.8000
G01 Z0
G00 Z2.0000
G00 X105.3600 Y38.8000
G01 Z-1.8000
G01 Z0
G00 Z2.0000
G00 X107.9000 Y38.8000
G01 Z-1.8000
G01 Z0
G00 Z2.0000
G00 X109.4000 Y32.3000
G01 Z-1.8000
G01 Z0
G00 Z2.0000
G00 X109.4000 Y29.7600
G01 Z-1.8000
G01 Z0
G00 Z2.0000
G00 X100.9000 Y25.7200
G01 Z-1.8000
G01 Z0
G00 Z2.0000
G00 X101.6200 Y16.8400
G01 Z-1.8000
G01 Z0
G00 Z2.0000
G00 X104.1600 Y16.8400
G01 Z-1.8000
G01 Z0
G00 Z2.0000
G00 X106.7000 Y16.8400
G01 Z-1.8000
G01 Z0
G00 Z2.0000
G00 X109.2400 Y16.8400
G01 Z-1.8000
G01 Z0
G00 Z2.0000
G00 X111.9000 Y16.8000
G01 Z-1.8000
G01 Z0
G00 Z2.0000
G00 X108.9000 Y7.8000
G01 Z-1.8000
G01 Z0
G00 Z2.0000
G00 X106.3600 Y7.8000
G01 Z-1.8000
G01 Z0
G00 Z2.0000
G00 X101.4000 Y7.8000
G01 Z-1.8000
G01 Z0
G00 Z2.0000
G00 X98.8600 Y7.8000
G01 Z-1.8000
G01 Z0
G00 Z2.0000
M03
G00 X124.4000 Y5.3000
G01 Z-1.8000
G01 Z0
G00 Z2.0000
G00 X105.4000 Y60.3000
G01 Z-1.8000
G01 Z0
G00 Z2.0000
G00 X25.4000 Y60.3000
G01 Z-1.8000
G01 Z0
G00 Z2.0000
G00 X5.4000 Y5.3000
G01 Z-1.8000
G01 Z0
G00 Z2.0000
M03
G00 X35.9000 Y44.8000
G01 Z-1.8000
G01 Z0
G00 Z2.0000
G00 X15.9000 Y44.8000
G01 Z-1.8000
G01 Z0
G00 Z2.0000
G00 X15.9000 Y18.8000
G01 Z-1.8000
G01 Z0
G00 Z2.0000
G00 X35.9000 Y18.8000
G01 Z-1.8000
G01 Z0
G00 Z2.0000
G00 X96.4000 Y18.8000
G01 Z-1.8000
G01 Z0
G00 Z2.0000
G00 X116.4000 Y18.8000
G01 Z-1.8000
G01 Z0
G00 Z2.0000
G00 X116.4000 Y44.8000
G01 Z-1.8000
G01 Z0
G00 Z2.0000
G00 X96.4000 Y44.8000
G01 Z-1.8000
G01 Z0
G00 Z2.0000
M05
G00 Z4.00
G00 X0.0 Y0.0

