(G-CODE GENERATED BY FLATCAM v8.991 - www.flatcam.org - Version Date: 2019/12/27)

(Name: 1)
(Type: G-code from Geometry)
(Units: MM)

(Created on Wednesday, 08 April 2020 at 14:38)

(TOOL DIAMETER: 0.3 mm)
(Feedrate: 120.0 mm/min)
(Feedrate_Z: 60.0 mm/min)
(Feedrate rapids 1500.0 mm/min)

(Z_Cut: -0.15 mm)
(Z_Move: 2.0 mm)
(Z Toolchange: 15.0 mm)
(X,Y Toolchange: 0.0000, 0.0000 mm)
(Z Start: None mm)
(Z End: 4.0 mm)
(Steps per circle: 64)
(Preprocessor Geometry: default)

(X range:    0.5497 ...   59.8500  mm)
(Y range:    1.0497 ...   59.8503  mm)

(Spindle Speed: None RPM)
G21
G90
G94




G01 F120.00
G00 Z2.0000

M03
G00 X11.8985 Y10.9203
G01 F60.00
G01 Z-0.1500
G01 F120.00
G01 X11.8677 Y10.9716
G01 X11.8596 Y10.9838
G01 X11.7865 Y11.0823
G01 X11.7772 Y11.0937
G01 X11.6948 Y11.1846
G01 X11.6844 Y11.1950
G01 X11.5935 Y11.2774
G01 X11.5821 Y11.2867
G01 X11.4836 Y11.3598
G01 X11.4713 Y11.3680
G01 X11.3661 Y11.4311
G01 X11.3531 Y11.4380
G01 X11.2422 Y11.4904
G01 X11.2286 Y11.4961
G01 X11.1131 Y11.5374
G01 X11.0991 Y11.5417
G01 X10.9801 Y11.5715
G01 X10.9656 Y11.5744
G01 X10.8443 Y11.5924
G01 X10.8296 Y11.5938
G01 X10.7071 Y11.5998
G01 X10.6924 Y11.5998
G01 X10.5699 Y11.5938
G01 X10.5552 Y11.5924
G01 X10.4339 Y11.5744
G01 X10.4194 Y11.5715
G01 X10.3004 Y11.5417
G01 X10.2864 Y11.5374
G01 X10.1709 Y11.4961
G01 X10.1573 Y11.4904
G01 X10.0464 Y11.4380
G01 X10.0334 Y11.4311
G01 X9.9282 Y11.3680
G01 X9.9159 Y11.3598
G01 X9.8174 Y11.2867
G01 X9.8060 Y11.2774
G01 X9.7151 Y11.1950
G01 X9.7047 Y11.1846
G01 X9.6223 Y11.0937
G01 X9.6130 Y11.0823
G01 X9.5399 Y10.9838
G01 X9.5318 Y10.9716
G01 X9.4687 Y10.8664
G01 X9.4617 Y10.8534
G01 X9.4093 Y10.7425
G01 X9.4037 Y10.7289
G01 X9.3623 Y10.6134
G01 X9.3581 Y10.5993
G01 X9.3283 Y10.4803
G01 X9.3254 Y10.4659
G01 X9.3074 Y10.3445
G01 X9.3059 Y10.3299
G01 X9.2999 Y10.2074
G01 X9.2999 Y10.1926
G01 X9.3059 Y10.0701
G01 X9.3074 Y10.0555
G01 X9.3254 Y9.9341
G01 X9.3283 Y9.9197
G01 X9.3581 Y9.8007
G01 X9.3623 Y9.7866
G01 X9.4037 Y9.6711
G01 X9.4093 Y9.6575
G01 X9.4617 Y9.5466
G01 X9.4687 Y9.5336
G01 X9.5318 Y9.4284
G01 X9.5399 Y9.4162
G01 X9.6130 Y9.3177
G01 X9.6223 Y9.3063
G01 X9.7047 Y9.2154
G01 X9.7151 Y9.2050
G01 X9.8060 Y9.1226
G01 X9.8174 Y9.1133
G01 X9.9159 Y9.0402
G01 X9.9282 Y9.0320
G01 X10.0334 Y8.9689
G01 X10.0464 Y8.9620
G01 X10.1573 Y8.9096
G01 X10.1709 Y8.9039
G01 X10.2864 Y8.8626
G01 X10.3004 Y8.8583
G01 X10.4194 Y8.8285
G01 X10.4339 Y8.8256
G01 X10.5552 Y8.8076
G01 X10.5699 Y8.8062
G01 X10.6924 Y8.8002
G01 X10.7071 Y8.8002
G01 X10.8296 Y8.8062
G01 X10.8443 Y8.8076
G01 X10.9656 Y8.8256
G01 X10.9801 Y8.8285
G01 X11.0991 Y8.8583
G01 X11.1131 Y8.8626
G01 X11.2286 Y8.9039
G01 X11.2422 Y8.9096
G01 X11.3531 Y8.9620
G01 X11.3661 Y8.9689
G01 X11.4713 Y9.0320
G01 X11.4836 Y9.0402
G01 X11.5821 Y9.1133
G01 X11.5935 Y9.1226
G01 X11.6844 Y9.2050
G01 X11.6948 Y9.2154
G01 X11.7772 Y9.3063
G01 X11.7865 Y9.3177
G01 X11.8596 Y9.4162
G01 X11.8677 Y9.4284
G01 X11.9308 Y9.5336
G01 X11.9377 Y9.5466
G01 X11.9723 Y9.6198
G01 X13.8498 Y9.6198
G01 X13.9061 Y9.6223
G01 X13.9208 Y9.6238
G01 X13.9694 Y9.6310
G01 X13.9838 Y9.6339
G01 X14.0314 Y9.6458
G01 X14.0455 Y9.6501
G01 X14.0917 Y9.6666
G01 X14.1053 Y9.6722
G01 X14.1497 Y9.6932
G01 X14.1627 Y9.7002
G01 X14.2048 Y9.7254
G01 X14.2170 Y9.7336
G01 X14.2565 Y9.7628
G01 X14.2678 Y9.7722
G01 X14.3095 Y9.8102
G01 X14.6193 Y10.1200
G01 X14.8497 Y10.1200
G01 X14.9404 Y10.1243
G01 X14.9551 Y10.1257
G01 X15.0376 Y10.1380
G01 X15.0520 Y10.1408
G01 X15.1329 Y10.1611
G01 X15.1470 Y10.1654
G01 X15.2256 Y10.1935
G01 X15.2392 Y10.1991
G01 X15.3146 Y10.2348
G01 X15.3276 Y10.2417
G01 X15.3991 Y10.2846
G01 X15.4113 Y10.2928
G01 X15.4783 Y10.3425
G01 X15.4897 Y10.3518
G01 X15.5515 Y10.4078
G01 X15.5619 Y10.4182
G01 X15.6086 Y10.4697
G01 X18.5597 Y10.4697
G01 X18.6161 Y10.4723
G01 X18.6308 Y10.4738
G01 X18.6794 Y10.4810
G01 X18.6938 Y10.4839
G01 X18.7414 Y10.4958
G01 X18.7555 Y10.5001
G01 X18.8017 Y10.5166
G01 X18.8153 Y10.5222
G01 X18.8597 Y10.5432
G01 X18.8727 Y10.5502
G01 X18.9148 Y10.5754
G01 X18.9270 Y10.5836
G01 X18.9665 Y10.6128
G01 X18.9778 Y10.6222
G01 X19.0195 Y10.6602
G01 X21.2491 Y12.8897
G01 X22.0709 Y12.8897
G01 X22.1176 Y12.8382
G01 X22.1280 Y12.8278
G01 X22.1898 Y12.7718
G01 X22.2012 Y12.7625
G01 X22.2682 Y12.7128
G01 X22.2804 Y12.7046
G01 X22.3519 Y12.6617
G01 X22.3649 Y12.6548
G01 X22.4403 Y12.6191
G01 X22.4539 Y12.6135
G01 X22.5325 Y12.5854
G01 X22.5466 Y12.5811
G01 X22.6275 Y12.5608
G01 X22.6419 Y12.5580
G01 X22.7244 Y12.5457
G01 X22.7391 Y12.5443
G01 X22.8297 Y12.5400
G01 X23.3297 Y12.5400
G01 X23.4204 Y12.5443
G01 X23.4351 Y12.5457
G01 X23.5176 Y12.5580
G01 X23.5320 Y12.5608
G01 X23.6129 Y12.5811
G01 X23.6270 Y12.5854
G01 X23.7056 Y12.6135
G01 X23.7192 Y12.6191
G01 X23.7946 Y12.6548
G01 X23.8076 Y12.6617
G01 X23.8791 Y12.7046
G01 X23.8913 Y12.7128
G01 X23.9583 Y12.7625
G01 X23.9697 Y12.7718
G01 X24.0315 Y12.8278
G01 X24.0419 Y12.8382
G01 X24.0886 Y12.8897
G01 X30.8704 Y12.8897
G01 X35.7600 Y8.0002
G01 X35.8017 Y7.9622
G01 X35.8130 Y7.9528
G01 X35.8525 Y7.9236
G01 X35.8647 Y7.9154
G01 X35.9068 Y7.8902
G01 X35.9198 Y7.8832
G01 X35.9642 Y7.8622
G01 X35.9778 Y7.8566
G01 X36.0240 Y7.8401
G01 X36.0381 Y7.8358
G01 X36.0857 Y7.8239
G01 X36.1001 Y7.8210
G01 X36.1487 Y7.8138
G01 X36.1634 Y7.8123
G01 X36.2197 Y7.8097
G01 X37.3109 Y7.8097
G01 X37.3576 Y7.7582
G01 X37.3680 Y7.7478
G01 X37.4298 Y7.6918
G01 X37.4412 Y7.6825
G01 X37.5082 Y7.6328
G01 X37.5204 Y7.6246
G01 X37.5919 Y7.5817
G01 X37.6049 Y7.5748
G01 X37.6803 Y7.5391
G01 X37.6939 Y7.5335
G01 X37.7725 Y7.5054
G01 X37.7866 Y7.5011
G01 X37.8675 Y7.4808
G01 X37.8819 Y7.4780
G01 X37.9644 Y7.4657
G01 X37.9791 Y7.4643
G01 X38.0697 Y7.4600
G01 X38.5697 Y7.4600
G01 X38.6604 Y7.4643
G01 X38.6751 Y7.4657
G01 X38.7576 Y7.4780
G01 X38.7720 Y7.4808
G01 X38.8529 Y7.5011
G01 X38.8670 Y7.5054
G01 X38.9456 Y7.5335
G01 X38.9592 Y7.5391
G01 X39.0346 Y7.5748
G01 X39.0476 Y7.5817
G01 X39.1191 Y7.6246
G01 X39.1313 Y7.6328
G01 X39.1983 Y7.6825
G01 X39.2097 Y7.6918
G01 X39.2715 Y7.7478
G01 X39.2819 Y7.7582
G01 X39.3286 Y7.8097
G01 X48.4597 Y7.8097
G01 X48.5161 Y7.8123
G01 X48.5308 Y7.8138
G01 X48.5794 Y7.8210
G01 X48.5938 Y7.8239
G01 X48.6414 Y7.8358
G01 X48.6555 Y7.8401
G01 X48.7017 Y7.8566
G01 X48.7153 Y7.8622
G01 X48.7597 Y7.8832
G01 X48.7727 Y7.8902
G01 X48.8148 Y7.9154
G01 X48.8270 Y7.9236
G01 X48.8665 Y7.9528
G01 X48.8778 Y7.9622
G01 X48.9195 Y8.0002
G01 X54.1595 Y13.2402
G01 X54.1976 Y13.2819
G01 X54.2069 Y13.2933
G01 X54.2362 Y13.3327
G01 X54.2444 Y13.3450
G01 X54.2696 Y13.3871
G01 X54.2765 Y13.4001
G01 X54.2975 Y13.4444
G01 X54.3032 Y13.4580
G01 X54.3197 Y13.5043
G01 X54.3240 Y13.5183
G01 X54.3359 Y13.5660
G01 X54.3388 Y13.5804
G01 X54.3460 Y13.6290
G01 X54.3474 Y13.6436
G01 X54.3500 Y13.7000
G01 X54.3500 Y13.9307
G01 X55.5091 Y15.0897
G01 X57.2909 Y15.0897
G01 X57.3376 Y15.0382
G01 X57.3480 Y15.0278
G01 X57.4098 Y14.9718
G01 X57.4212 Y14.9625
G01 X57.4882 Y14.9128
G01 X57.5004 Y14.9046
G01 X57.5719 Y14.8617
G01 X57.5849 Y14.8548
G01 X57.6603 Y14.8191
G01 X57.6739 Y14.8135
G01 X57.7525 Y14.7854
G01 X57.7666 Y14.7811
G01 X57.8475 Y14.7608
G01 X57.8619 Y14.7580
G01 X57.9444 Y14.7457
G01 X57.9591 Y14.7443
G01 X58.0497 Y14.7400
G01 X58.3497 Y14.7400
G01 X58.4404 Y14.7443
G01 X58.4551 Y14.7457
G01 X58.5376 Y14.7580
G01 X58.5520 Y14.7608
G01 X58.6329 Y14.7811
G01 X58.6470 Y14.7854
G01 X58.7256 Y14.8135
G01 X58.7392 Y14.8191
G01 X58.8146 Y14.8548
G01 X58.8276 Y14.8617
G01 X58.8991 Y14.9046
G01 X58.9113 Y14.9128
G01 X58.9783 Y14.9625
G01 X58.9897 Y14.9718
G01 X59.0515 Y15.0278
G01 X59.0619 Y15.0382
G01 X59.1180 Y15.1000
G01 X59.1273 Y15.1114
G01 X59.1770 Y15.1784
G01 X59.1852 Y15.1906
G01 X59.2280 Y15.2622
G01 X59.2350 Y15.2752
G01 X59.2706 Y15.3506
G01 X59.2763 Y15.3642
G01 X59.3044 Y15.4427
G01 X59.3087 Y15.4568
G01 X59.3289 Y15.5377
G01 X59.3318 Y15.5522
G01 X59.3440 Y15.6347
G01 X59.3455 Y15.6493
G01 X59.3496 Y15.7326
G01 X59.3496 Y15.7474
G01 X59.3455 Y15.8307
G01 X59.3440 Y15.8453
G01 X59.3318 Y15.9278
G01 X59.3289 Y15.9423
G01 X59.3087 Y16.0232
G01 X59.3044 Y16.0373
G01 X59.2763 Y16.1158
G01 X59.2706 Y16.1294
G01 X59.2350 Y16.2048
G01 X59.2280 Y16.2178
G01 X59.1852 Y16.2894
G01 X59.1770 Y16.3016
G01 X59.1273 Y16.3686
G01 X59.1180 Y16.3800
G01 X59.0619 Y16.4418
G01 X59.0515 Y16.4522
G01 X58.9897 Y16.5082
G01 X58.9783 Y16.5175
G01 X58.9113 Y16.5672
G01 X58.8991 Y16.5754
G01 X58.8500 Y16.6048
G01 X58.8500 Y19.8352
G01 X58.8991 Y19.8646
G01 X58.9113 Y19.8728
G01 X58.9783 Y19.9225
G01 X58.9897 Y19.9318
G01 X59.0515 Y19.9878
G01 X59.0619 Y19.9982
G01 X59.1180 Y20.0600
G01 X59.1273 Y20.0714
G01 X59.1770 Y20.1384
G01 X59.1852 Y20.1506
G01 X59.2280 Y20.2222
G01 X59.2350 Y20.2352
G01 X59.2706 Y20.3106
G01 X59.2763 Y20.3242
G01 X59.3044 Y20.4027
G01 X59.3087 Y20.4168
G01 X59.3289 Y20.4977
G01 X59.3318 Y20.5122
G01 X59.3440 Y20.5947
G01 X59.3455 Y20.6093
G01 X59.3496 Y20.6926
G01 X59.3496 Y20.7074
G01 X59.3455 Y20.7907
G01 X59.3440 Y20.8053
G01 X59.3318 Y20.8878
G01 X59.3289 Y20.9023
G01 X59.3087 Y20.9832
G01 X59.3044 Y20.9973
G01 X59.2763 Y21.0758
G01 X59.2706 Y21.0894
G01 X59.2350 Y21.1648
G01 X59.2280 Y21.1778
G01 X59.1852 Y21.2494
G01 X59.1770 Y21.2616
G01 X59.1273 Y21.3286
G01 X59.1180 Y21.3400
G01 X59.0619 Y21.4018
G01 X59.0515 Y21.4122
G01 X58.9897 Y21.4682
G01 X58.9783 Y21.4775
G01 X58.9113 Y21.5272
G01 X58.8991 Y21.5354
G01 X58.8276 Y21.5783
G01 X58.8146 Y21.5852
G01 X58.7392 Y21.6209
G01 X58.7256 Y21.6265
G01 X58.6470 Y21.6546
G01 X58.6329 Y21.6589
G01 X58.5520 Y21.6792
G01 X58.5376 Y21.6820
G01 X58.4551 Y21.6943
G01 X58.4404 Y21.6957
G01 X58.3497 Y21.7000
G01 X58.0497 Y21.7000
G01 X57.9591 Y21.6957
G01 X57.9444 Y21.6943
G01 X57.8619 Y21.6820
G01 X57.8475 Y21.6792
G01 X57.7666 Y21.6589
G01 X57.7525 Y21.6546
G01 X57.6739 Y21.6265
G01 X57.6603 Y21.6209
G01 X57.5849 Y21.5852
G01 X57.5719 Y21.5783
G01 X57.5004 Y21.5354
G01 X57.4882 Y21.5272
G01 X57.4212 Y21.4775
G01 X57.4098 Y21.4682
G01 X57.3480 Y21.4122
G01 X57.3376 Y21.4018
G01 X57.2815 Y21.3400
G01 X57.2722 Y21.3286
G01 X57.2225 Y21.2616
G01 X57.2143 Y21.2494
G01 X57.1715 Y21.1778
G01 X57.1645 Y21.1648
G01 X57.1289 Y21.0894
G01 X57.1232 Y21.0758
G01 X57.0951 Y20.9973
G01 X57.0908 Y20.9832
G01 X57.0706 Y20.9023
G01 X57.0677 Y20.8878
G01 X57.0555 Y20.8053
G01 X57.0540 Y20.7907
G01 X57.0499 Y20.7074
G01 X57.0499 Y20.6926
G01 X57.0540 Y20.6093
G01 X57.0555 Y20.5947
G01 X57.0677 Y20.5122
G01 X57.0706 Y20.4977
G01 X57.0908 Y20.4168
G01 X57.0951 Y20.4027
G01 X57.1232 Y20.3242
G01 X57.1289 Y20.3106
G01 X57.1645 Y20.2352
G01 X57.1715 Y20.2222
G01 X57.2143 Y20.1506
G01 X57.2225 Y20.1384
G01 X57.2722 Y20.0714
G01 X57.2815 Y20.0600
G01 X57.3376 Y19.9982
G01 X57.3480 Y19.9878
G01 X57.4098 Y19.9318
G01 X57.4212 Y19.9225
G01 X57.4882 Y19.8728
G01 X57.5004 Y19.8646
G01 X57.5495 Y19.8352
G01 X57.5495 Y16.6048
G01 X57.5004 Y16.5754
G01 X57.4882 Y16.5672
G01 X57.4212 Y16.5175
G01 X57.4098 Y16.5082
G01 X57.3480 Y16.4522
G01 X57.3376 Y16.4418
G01 X57.2909 Y16.3903
G01 X55.2397 Y16.3903
G01 X55.1834 Y16.3877
G01 X55.1687 Y16.3862
G01 X55.1201 Y16.3790
G01 X55.1057 Y16.3761
G01 X55.0581 Y16.3642
G01 X55.0440 Y16.3599
G01 X54.9978 Y16.3434
G01 X54.9842 Y16.3378
G01 X54.9398 Y16.3168
G01 X54.9268 Y16.3098
G01 X54.8847 Y16.2846
G01 X54.8725 Y16.2764
G01 X54.8330 Y16.2472
G01 X54.8217 Y16.2378
G01 X54.7800 Y16.1998
G01 X53.4497 Y14.8696
G01 X52.8500 Y15.4693
G01 X52.8500 Y22.6752
G01 X52.8991 Y22.7046
G01 X52.9113 Y22.7128
G01 X52.9783 Y22.7625
G01 X52.9897 Y22.7718
G01 X53.0515 Y22.8278
G01 X53.0619 Y22.8382
G01 X53.1180 Y22.9000
G01 X53.1273 Y22.9114
G01 X53.1770 Y22.9784
G01 X53.1852 Y22.9906
G01 X53.2280 Y23.0622
G01 X53.2350 Y23.0752
G01 X53.2706 Y23.1506
G01 X53.2763 Y23.1642
G01 X53.3044 Y23.2427
G01 X53.3087 Y23.2568
G01 X53.3289 Y23.3377
G01 X53.3318 Y23.3522
G01 X53.3440 Y23.4347
G01 X53.3455 Y23.4493
G01 X53.3496 Y23.5326
G01 X53.3496 Y23.5474
G01 X53.3455 Y23.6307
G01 X53.3440 Y23.6453
G01 X53.3318 Y23.7278
G01 X53.3289 Y23.7423
G01 X53.3087 Y23.8232
G01 X53.3044 Y23.8373
G01 X53.2763 Y23.9158
G01 X53.2706 Y23.9294
G01 X53.2350 Y24.0048
G01 X53.2280 Y24.0178
G01 X53.1852 Y24.0894
G01 X53.1770 Y24.1016
G01 X53.1273 Y24.1686
G01 X53.1180 Y24.1800
G01 X53.0619 Y24.2418
G01 X53.0515 Y24.2522
G01 X52.9897 Y24.3082
G01 X52.9783 Y24.3175
G01 X52.9113 Y24.3672
G01 X52.8991 Y24.3754
G01 X52.8500 Y24.4048
G01 X52.8500 Y25.2152
G01 X52.8991 Y25.2446
G01 X52.9113 Y25.2528
G01 X52.9783 Y25.3025
G01 X52.9897 Y25.3118
G01 X53.0515 Y25.3678
G01 X53.0619 Y25.3782
G01 X53.1180 Y25.4400
G01 X53.1273 Y25.4514
G01 X53.1770 Y25.5184
G01 X53.1852 Y25.5306
G01 X53.2280 Y25.6022
G01 X53.2350 Y25.6152
G01 X53.2706 Y25.6906
G01 X53.2763 Y25.7042
G01 X53.3044 Y25.7827
G01 X53.3087 Y25.7968
G01 X53.3289 Y25.8777
G01 X53.3318 Y25.8922
G01 X53.3440 Y25.9747
G01 X53.3455 Y25.9893
G01 X53.3496 Y26.0726
G01 X53.3496 Y26.0874
G01 X53.3455 Y26.1707
G01 X53.3440 Y26.1853
G01 X53.3318 Y26.2678
G01 X53.3289 Y26.2823
G01 X53.3087 Y26.3632
G01 X53.3044 Y26.3773
G01 X53.2763 Y26.4558
G01 X53.2706 Y26.4694
G01 X53.2350 Y26.5448
G01 X53.2280 Y26.5578
G01 X53.1852 Y26.6294
G01 X53.1770 Y26.6416
G01 X53.1273 Y26.7086
G01 X53.1180 Y26.7200
G01 X53.0619 Y26.7818
G01 X53.0515 Y26.7922
G01 X52.9897 Y26.8482
G01 X52.9783 Y26.8575
G01 X52.9113 Y26.9072
G01 X52.8991 Y26.9154
G01 X52.8500 Y26.9448
G01 X52.8500 Y27.7552
G01 X52.8991 Y27.7846
G01 X52.9113 Y27.7928
G01 X52.9783 Y27.8425
G01 X52.9897 Y27.8518
G01 X53.0515 Y27.9078
G01 X53.0619 Y27.9182
G01 X53.1180 Y27.9800
G01 X53.1273 Y27.9914
G01 X53.1770 Y28.0584
G01 X53.1852 Y28.0706
G01 X53.2280 Y28.1422
G01 X53.2350 Y28.1552
G01 X53.2706 Y28.2306
G01 X53.2763 Y28.2442
G01 X53.3044 Y28.3227
G01 X53.3087 Y28.3368
G01 X53.3289 Y28.4177
G01 X53.3318 Y28.4322
G01 X53.3440 Y28.5147
G01 X53.3455 Y28.5293
G01 X53.3496 Y28.6126
G01 X53.3496 Y28.6274
G01 X53.3455 Y28.7107
G01 X53.3440 Y28.7253
G01 X53.3318 Y28.8078
G01 X53.3289 Y28.8223
G01 X53.3087 Y28.9032
G01 X53.3044 Y28.9173
G01 X53.2763 Y28.9958
G01 X53.2706 Y29.0094
G01 X53.2350 Y29.0848
G01 X53.2280 Y29.0978
G01 X53.1852 Y29.1694
G01 X53.1770 Y29.1816
G01 X53.1273 Y29.2486
G01 X53.1180 Y29.2600
G01 X53.0619 Y29.3218
G01 X53.0515 Y29.3322
G01 X52.9897 Y29.3882
G01 X52.9783 Y29.3975
G01 X52.9113 Y29.4472
G01 X52.8991 Y29.4554
G01 X52.8500 Y29.4848
G01 X52.8500 Y30.2952
G01 X52.8991 Y30.3246
G01 X52.9113 Y30.3328
G01 X52.9783 Y30.3825
G01 X52.9897 Y30.3918
G01 X53.0515 Y30.4478
G01 X53.0619 Y30.4582
G01 X53.1180 Y30.5200
G01 X53.1273 Y30.5314
G01 X53.1770 Y30.5984
G01 X53.1852 Y30.6106
G01 X53.2280 Y30.6822
G01 X53.2350 Y30.6952
G01 X53.2706 Y30.7706
G01 X53.2763 Y30.7842
G01 X53.3044 Y30.8627
G01 X53.3087 Y30.8768
G01 X53.3289 Y30.9577
G01 X53.3318 Y30.9722
G01 X53.3440 Y31.0547
G01 X53.3455 Y31.0693
G01 X53.3496 Y31.1526
G01 X53.3496 Y31.1674
G01 X53.3455 Y31.2507
G01 X53.3440 Y31.2653
G01 X53.3318 Y31.3478
G01 X53.3289 Y31.3623
G01 X53.3087 Y31.4432
G01 X53.3044 Y31.4573
G01 X53.2763 Y31.5358
G01 X53.2706 Y31.5494
G01 X53.2350 Y31.6248
G01 X53.2280 Y31.6378
G01 X53.1852 Y31.7094
G01 X53.1770 Y31.7216
G01 X53.1273 Y31.7886
G01 X53.1180 Y31.8000
G01 X53.0619 Y31.8618
G01 X53.0515 Y31.8722
G01 X52.9897 Y31.9282
G01 X52.9783 Y31.9375
G01 X52.9113 Y31.9872
G01 X52.8991 Y31.9954
G01 X52.8500 Y32.0248
G01 X52.8500 Y32.5500
G01 X53.1997 Y32.5500
G01 X53.2145 Y32.5507
G01 X53.2290 Y32.5529
G01 X53.2433 Y32.5565
G01 X53.2572 Y32.5614
G01 X53.2705 Y32.5677
G01 X53.2831 Y32.5753
G01 X53.2949 Y32.5840
G01 X53.3058 Y32.5939
G01 X53.3157 Y32.6048
G01 X53.3245 Y32.6167
G01 X53.3320 Y32.6293
G01 X53.3383 Y32.6426
G01 X53.3433 Y32.6565
G01 X53.3469 Y32.6707
G01 X53.3490 Y32.6853
G01 X53.3497 Y32.7000
G01 X53.3497 Y34.7000
G01 X53.3490 Y34.7147
G01 X53.3469 Y34.7293
G01 X53.3433 Y34.7435
G01 X53.3383 Y34.7574
G01 X53.3320 Y34.7707
G01 X53.3245 Y34.7833
G01 X53.3157 Y34.7952
G01 X53.3058 Y34.8061
G01 X53.2949 Y34.8160
G01 X53.2831 Y34.8247
G01 X53.2705 Y34.8323
G01 X53.2572 Y34.8386
G01 X53.2433 Y34.8435
G01 X53.2290 Y34.8471
G01 X53.2145 Y34.8493
G01 X53.1997 Y34.8500
G01 X52.8500 Y34.8500
G01 X52.8500 Y37.9307
G01 X54.5791 Y39.6598
G01 X55.3571 Y39.6599
G01 X55.4061 Y39.6623
G01 X55.4208 Y39.6638
G01 X55.4694 Y39.6710
G01 X55.4838 Y39.6739
G01 X55.5314 Y39.6858
G01 X55.5455 Y39.6901
G01 X55.5917 Y39.7066
G01 X55.6053 Y39.7122
G01 X55.6497 Y39.7332
G01 X55.6627 Y39.7402
G01 X55.7048 Y39.7654
G01 X55.7170 Y39.7736
G01 X55.7565 Y39.8028
G01 X55.7678 Y39.8122
G01 X55.8095 Y39.8502
G01 X56.1193 Y40.1600
G01 X56.3497 Y40.1600
G01 X56.4404 Y40.1643
G01 X56.4551 Y40.1657
G01 X56.5376 Y40.1780
G01 X56.5520 Y40.1808
G01 X56.6329 Y40.2011
G01 X56.6470 Y40.2054
G01 X56.7256 Y40.2335
G01 X56.7392 Y40.2391
G01 X56.8146 Y40.2748
G01 X56.8276 Y40.2817
G01 X56.8991 Y40.3246
G01 X56.9113 Y40.3328
G01 X56.9783 Y40.3825
G01 X56.9897 Y40.3918
G01 X57.0515 Y40.4478
G01 X57.0619 Y40.4582
G01 X57.1086 Y40.5097
G01 X57.6597 Y40.5097
G01 X57.7161 Y40.5123
G01 X57.7308 Y40.5138
G01 X57.7794 Y40.5210
G01 X57.7938 Y40.5239
G01 X57.8414 Y40.5358
G01 X57.8555 Y40.5401
G01 X57.9017 Y40.5566
G01 X57.9153 Y40.5622
G01 X57.9597 Y40.5832
G01 X57.9727 Y40.5902
G01 X58.0148 Y40.6154
G01 X58.0270 Y40.6236
G01 X58.0665 Y40.6528
G01 X58.0778 Y40.6622
G01 X58.1195 Y40.7002
G01 X59.6595 Y42.2402
G01 X59.6976 Y42.2819
G01 X59.7069 Y42.2933
G01 X59.7362 Y42.3327
G01 X59.7444 Y42.3450
G01 X59.7696 Y42.3871
G01 X59.7765 Y42.4001
G01 X59.7975 Y42.4444
G01 X59.8032 Y42.4580
G01 X59.8197 Y42.5043
G01 X59.8240 Y42.5183
G01 X59.8359 Y42.5660
G01 X59.8388 Y42.5804
G01 X59.8460 Y42.6290
G01 X59.8474 Y42.6436
G01 X59.8500 Y42.7000
G01 X59.8498 Y45.7074
G01 X59.8474 Y45.7564
G01 X59.8460 Y45.7710
G01 X59.8388 Y45.8196
G01 X59.8359 Y45.8340
G01 X59.8240 Y45.8817
G01 X59.8197 Y45.8957
G01 X59.8032 Y45.9420
G01 X59.7975 Y45.9556
G01 X59.7765 Y45.9999
G01 X59.7696 Y46.0129
G01 X59.7444 Y46.0550
G01 X59.7362 Y46.0673
G01 X59.7069 Y46.1067
G01 X59.6976 Y46.1181
G01 X59.6595 Y46.1598
G01 X57.3275 Y48.4919
G01 X57.3318 Y48.5122
G01 X57.3440 Y48.5947
G01 X57.3455 Y48.6093
G01 X57.3496 Y48.6926
G01 X57.3496 Y48.7074
G01 X57.3455 Y48.7907
G01 X57.3440 Y48.8053
G01 X57.3318 Y48.8878
G01 X57.3289 Y48.9023
G01 X57.3087 Y48.9832
G01 X57.3044 Y48.9973
G01 X57.2763 Y49.0758
G01 X57.2706 Y49.0894
G01 X57.2350 Y49.1648
G01 X57.2280 Y49.1778
G01 X57.1852 Y49.2494
G01 X57.1770 Y49.2616
G01 X57.1273 Y49.3286
G01 X57.1180 Y49.3400
G01 X57.0619 Y49.4018
G01 X57.0515 Y49.4122
G01 X56.9897 Y49.4682
G01 X56.9783 Y49.4775
G01 X56.9113 Y49.5272
G01 X56.8991 Y49.5354
G01 X56.8276 Y49.5783
G01 X56.8146 Y49.5852
G01 X56.7392 Y49.6209
G01 X56.7256 Y49.6265
G01 X56.6470 Y49.6546
G01 X56.6329 Y49.6589
G01 X56.5520 Y49.6792
G01 X56.5376 Y49.6820
G01 X56.4551 Y49.6943
G01 X56.4404 Y49.6957
G01 X56.3571 Y49.6998
G01 X56.0424 Y49.6998
G01 X55.9591 Y49.6957
G01 X55.9444 Y49.6943
G01 X55.8619 Y49.6820
G01 X55.8475 Y49.6792
G01 X55.7666 Y49.6589
G01 X55.7525 Y49.6546
G01 X55.6739 Y49.6265
G01 X55.6603 Y49.6209
G01 X55.5849 Y49.5852
G01 X55.5719 Y49.5783
G01 X55.5004 Y49.5354
G01 X55.4882 Y49.5272
G01 X55.4212 Y49.4775
G01 X55.4098 Y49.4682
G01 X55.3480 Y49.4122
G01 X55.3376 Y49.4018
G01 X55.2815 Y49.3400
G01 X55.2722 Y49.3286
G01 X55.2225 Y49.2616
G01 X55.2143 Y49.2494
G01 X55.1715 Y49.1778
G01 X55.1645 Y49.1648
G01 X55.1289 Y49.0894
G01 X55.1232 Y49.0758
G01 X55.0951 Y48.9973
G01 X55.0908 Y48.9832
G01 X55.0706 Y48.9023
G01 X55.0677 Y48.8878
G01 X55.0555 Y48.8053
G01 X55.0540 Y48.7907
G01 X55.0499 Y48.7074
G01 X55.0499 Y48.6926
G01 X55.0540 Y48.6093
G01 X55.0555 Y48.5947
G01 X55.0677 Y48.5122
G01 X55.0706 Y48.4977
G01 X55.0908 Y48.4168
G01 X55.0951 Y48.4027
G01 X55.1232 Y48.3242
G01 X55.1289 Y48.3106
G01 X55.1645 Y48.2352
G01 X55.1715 Y48.2222
G01 X55.2143 Y48.1506
G01 X55.2225 Y48.1384
G01 X55.2722 Y48.0714
G01 X55.2815 Y48.0600
G01 X55.3376 Y47.9982
G01 X55.3480 Y47.9878
G01 X55.4098 Y47.9318
G01 X55.4212 Y47.9225
G01 X55.4882 Y47.8728
G01 X55.5004 Y47.8646
G01 X55.5719 Y47.8217
G01 X55.5849 Y47.8148
G01 X55.6603 Y47.7791
G01 X55.6739 Y47.7735
G01 X55.7525 Y47.7454
G01 X55.7666 Y47.7411
G01 X55.8475 Y47.7208
G01 X55.8619 Y47.7180
G01 X55.9444 Y47.7057
G01 X55.9591 Y47.7043
G01 X56.0497 Y47.7000
G01 X56.2802 Y47.7000
G01 X58.5495 Y45.4307
G01 X58.5495 Y42.9693
G01 X57.3904 Y41.8103
G01 X57.1086 Y41.8103
G01 X57.0619 Y41.8618
G01 X57.0515 Y41.8722
G01 X56.9897 Y41.9282
G01 X56.9783 Y41.9375
G01 X56.9113 Y41.9872
G01 X56.8991 Y41.9954
G01 X56.8276 Y42.0383
G01 X56.8146 Y42.0452
G01 X56.7392 Y42.0809
G01 X56.7256 Y42.0865
G01 X56.6470 Y42.1146
G01 X56.6329 Y42.1189
G01 X56.5520 Y42.1392
G01 X56.5376 Y42.1420
G01 X56.4551 Y42.1543
G01 X56.4404 Y42.1557
G01 X56.3497 Y42.1600
G01 X56.0497 Y42.1600
G01 X55.9591 Y42.1557
G01 X55.9444 Y42.1543
G01 X55.8619 Y42.1420
G01 X55.8475 Y42.1392
G01 X55.7666 Y42.1189
G01 X55.7525 Y42.1146
G01 X55.6739 Y42.0865
G01 X55.6603 Y42.0809
G01 X55.5849 Y42.0452
G01 X55.5719 Y42.0383
G01 X55.5004 Y41.9954
G01 X55.4882 Y41.9872
G01 X55.4212 Y41.9375
G01 X55.4098 Y41.9282
G01 X55.3480 Y41.8722
G01 X55.3376 Y41.8618
G01 X55.2815 Y41.8000
G01 X55.2722 Y41.7886
G01 X55.2225 Y41.7216
G01 X55.2143 Y41.7094
G01 X55.1715 Y41.6378
G01 X55.1645 Y41.6248
G01 X55.1289 Y41.5494
G01 X55.1232 Y41.5358
G01 X55.0951 Y41.4573
G01 X55.0908 Y41.4432
G01 X55.0706 Y41.3623
G01 X55.0677 Y41.3478
G01 X55.0555 Y41.2653
G01 X55.0540 Y41.2507
G01 X55.0499 Y41.1674
G01 X55.0499 Y41.1526
G01 X55.0540 Y41.0693
G01 X55.0555 Y41.0547
G01 X55.0677 Y40.9722
G01 X55.0701 Y40.9603
G01 X54.3098 Y40.9603
G01 X54.2534 Y40.9577
G01 X54.2387 Y40.9562
G01 X54.1901 Y40.9490
G01 X54.1757 Y40.9461
G01 X54.1281 Y40.9342
G01 X54.1140 Y40.9299
G01 X54.0678 Y40.9134
G01 X54.0542 Y40.9078
G01 X54.0098 Y40.8868
G01 X53.9968 Y40.8798
G01 X53.9547 Y40.8546
G01 X53.9425 Y40.8464
G01 X53.9030 Y40.8172
G01 X53.8917 Y40.8078
G01 X53.8500 Y40.7698
G01 X51.7400 Y38.6598
G01 X51.7016 Y38.6177
G01 X48.8500 Y41.4693
G01 X48.8500 Y50.7000
G01 X48.8474 Y50.7564
G01 X48.8460 Y50.7710
G01 X48.8388 Y50.8196
G01 X48.8359 Y50.8340
G01 X48.8240 Y50.8817
G01 X48.8197 Y50.8957
G01 X48.8032 Y50.9420
G01 X48.7975 Y50.9556
G01 X48.7765 Y50.9999
G01 X48.7696 Y51.0129
G01 X48.7444 Y51.0550
G01 X48.7362 Y51.0673
G01 X48.7069 Y51.1067
G01 X48.6976 Y51.1181
G01 X48.6595 Y51.1598
G01 X46.6995 Y53.1198
G01 X46.6578 Y53.1578
G01 X46.6465 Y53.1672
G01 X46.6070 Y53.1964
G01 X46.5948 Y53.2046
G01 X46.5527 Y53.2298
G01 X46.5397 Y53.2368
G01 X46.4953 Y53.2578
G01 X46.4817 Y53.2634
G01 X46.4355 Y53.2799
G01 X46.4214 Y53.2842
G01 X46.3738 Y53.2961
G01 X46.3594 Y53.2990
G01 X46.3108 Y53.3062
G01 X46.2961 Y53.3077
G01 X46.2471 Y53.3101
G01 X44.8897 Y53.3103
G01 X44.8897 Y53.6600
G01 X44.8890 Y53.6747
G01 X44.8869 Y53.6893
G01 X44.8833 Y53.7035
G01 X44.8783 Y53.7174
G01 X44.8720 Y53.7307
G01 X44.8645 Y53.7433
G01 X44.8557 Y53.7552
G01 X44.8458 Y53.7661
G01 X44.8349 Y53.7760
G01 X44.8231 Y53.7847
G01 X44.8105 Y53.7923
G01 X44.7972 Y53.7986
G01 X44.7833 Y53.8035
G01 X44.7690 Y53.8071
G01 X44.7545 Y53.8093
G01 X44.7397 Y53.8100
G01 X42.7397 Y53.8100
G01 X42.7250 Y53.8093
G01 X42.7105 Y53.8071
G01 X42.6962 Y53.8035
G01 X42.6823 Y53.7986
G01 X42.6690 Y53.7923
G01 X42.6564 Y53.7847
G01 X42.6446 Y53.7760
G01 X42.6337 Y53.7661
G01 X42.6238 Y53.7552
G01 X42.6150 Y53.7433
G01 X42.6075 Y53.7307
G01 X42.6012 Y53.7174
G01 X42.5962 Y53.7035
G01 X42.5926 Y53.6893
G01 X42.5905 Y53.6747
G01 X42.5897 Y53.6600
G01 X42.5897 Y51.6600
G01 X42.5905 Y51.6453
G01 X42.5926 Y51.6307
G01 X42.5962 Y51.6165
G01 X42.6012 Y51.6026
G01 X42.6075 Y51.5893
G01 X42.6150 Y51.5767
G01 X42.6238 Y51.5648
G01 X42.6337 Y51.5539
G01 X42.6446 Y51.5440
G01 X42.6564 Y51.5353
G01 X42.6690 Y51.5277
G01 X42.6823 Y51.5214
G01 X42.6962 Y51.5165
G01 X42.7105 Y51.5129
G01 X42.7250 Y51.5107
G01 X42.7397 Y51.5100
G01 X44.7397 Y51.5100
G01 X44.7545 Y51.5107
G01 X44.7690 Y51.5129
G01 X44.7833 Y51.5165
G01 X44.7972 Y51.5214
G01 X44.8105 Y51.5277
G01 X44.8231 Y51.5353
G01 X44.8349 Y51.5440
G01 X44.8458 Y51.5539
G01 X44.8557 Y51.5648
G01 X44.8645 Y51.5767
G01 X44.8720 Y51.5893
G01 X44.8783 Y51.6026
G01 X44.8833 Y51.6165
G01 X44.8869 Y51.6307
G01 X44.8890 Y51.6453
G01 X44.8897 Y51.6600
G01 X44.8897 Y52.0097
G01 X45.9704 Y52.0097
G01 X47.5495 Y50.4307
G01 X47.5495 Y41.2000
G01 X47.5521 Y41.1436
G01 X47.5535 Y41.1290
G01 X47.5607 Y41.0804
G01 X47.5636 Y41.0660
G01 X47.5755 Y41.0183
G01 X47.5798 Y41.0043
G01 X47.5963 Y40.9580
G01 X47.6020 Y40.9444
G01 X47.6230 Y40.9001
G01 X47.6299 Y40.8871
G01 X47.6551 Y40.8450
G01 X47.6633 Y40.8327
G01 X47.6926 Y40.7933
G01 X47.7019 Y40.7819
G01 X47.7400 Y40.7402
G01 X51.5495 Y36.9307
G01 X51.5495 Y34.8500
G01 X51.1997 Y34.8500
G01 X51.1850 Y34.8493
G01 X51.1705 Y34.8471
G01 X51.1562 Y34.8435
G01 X51.1423 Y34.8386
G01 X51.1290 Y34.8323
G01 X51.1164 Y34.8247
G01 X51.1046 Y34.8160
G01 X51.0937 Y34.8061
G01 X51.0838 Y34.7952
G01 X51.0750 Y34.7833
G01 X51.0675 Y34.7707
G01 X51.0612 Y34.7574
G01 X51.0562 Y34.7435
G01 X51.0526 Y34.7293
G01 X51.0505 Y34.7147
G01 X51.0497 Y34.7000
G01 X51.0497 Y32.7000
G01 X51.0505 Y32.6853
G01 X51.0526 Y32.6707
G01 X51.0562 Y32.6565
G01 X51.0612 Y32.6426
G01 X51.0675 Y32.6293
G01 X51.0750 Y32.6167
G01 X51.0838 Y32.6048
G01 X51.0937 Y32.5939
G01 X51.1046 Y32.5840
G01 X51.1164 Y32.5753
G01 X51.1290 Y32.5677
G01 X51.1423 Y32.5614
G01 X51.1562 Y32.5565
G01 X51.1705 Y32.5529
G01 X51.1850 Y32.5507
G01 X51.1997 Y32.5500
G01 X51.5495 Y32.5500
G01 X51.5495 Y32.0248
G01 X51.5004 Y31.9954
G01 X51.4882 Y31.9872
G01 X51.4212 Y31.9375
G01 X51.4098 Y31.9282
G01 X51.3480 Y31.8722
G01 X51.3376 Y31.8618
G01 X51.2815 Y31.8000
G01 X51.2722 Y31.7886
G01 X51.2225 Y31.7216
G01 X51.2143 Y31.7094
G01 X51.1715 Y31.6378
G01 X51.1645 Y31.6248
G01 X51.1289 Y31.5494
G01 X51.1232 Y31.5358
G01 X51.0951 Y31.4573
G01 X51.0908 Y31.4432
G01 X51.0706 Y31.3623
G01 X51.0677 Y31.3478
G01 X51.0555 Y31.2653
G01 X51.0540 Y31.2507
G01 X51.0499 Y31.1674
G01 X51.0499 Y31.1526
G01 X51.0540 Y31.0693
G01 X51.0555 Y31.0547
G01 X51.0677 Y30.9722
G01 X51.0706 Y30.9577
G01 X51.0908 Y30.8768
G01 X51.0951 Y30.8627
G01 X51.1232 Y30.7842
G01 X51.1289 Y30.7706
G01 X51.1645 Y30.6952
G01 X51.1715 Y30.6822
G01 X51.2143 Y30.6106
G01 X51.2225 Y30.5984
G01 X51.2722 Y30.5314
G01 X51.2815 Y30.5200
G01 X51.3376 Y30.4582
G01 X51.3480 Y30.4478
G01 X51.4098 Y30.3918
G01 X51.4212 Y30.3825
G01 X51.4882 Y30.3328
G01 X51.5004 Y30.3246
G01 X51.5495 Y30.2952
G01 X51.5495 Y29.4848
G01 X51.5004 Y29.4554
G01 X51.4882 Y29.4472
G01 X51.4212 Y29.3975
G01 X51.4098 Y29.3882
G01 X51.3480 Y29.3322
G01 X51.3376 Y29.3218
G01 X51.2815 Y29.2600
G01 X51.2722 Y29.2486
G01 X51.2225 Y29.1816
G01 X51.2143 Y29.1694
G01 X51.1715 Y29.0978
G01 X51.1645 Y29.0848
G01 X51.1289 Y29.0094
G01 X51.1232 Y28.9958
G01 X51.0951 Y28.9173
G01 X51.0908 Y28.9032
G01 X51.0706 Y28.8223
G01 X51.0677 Y28.8078
G01 X51.0555 Y28.7253
G01 X51.0540 Y28.7107
G01 X51.0499 Y28.6274
G01 X51.0499 Y28.6126
G01 X51.0540 Y28.5293
G01 X51.0555 Y28.5147
G01 X51.0677 Y28.4322
G01 X51.0706 Y28.4177
G01 X51.0908 Y28.3368
G01 X51.0951 Y28.3227
G01 X51.1232 Y28.2442
G01 X51.1289 Y28.2306
G01 X51.1645 Y28.1552
G01 X51.1715 Y28.1422
G01 X51.2143 Y28.0706
G01 X51.2225 Y28.0584
G01 X51.2722 Y27.9914
G01 X51.2815 Y27.9800
G01 X51.3376 Y27.9182
G01 X51.3480 Y27.9078
G01 X51.4098 Y27.8518
G01 X51.4212 Y27.8425
G01 X51.4882 Y27.7928
G01 X51.5004 Y27.7846
G01 X51.5495 Y27.7552
G01 X51.5495 Y26.9448
G01 X51.5004 Y26.9154
G01 X51.4882 Y26.9072
G01 X51.4212 Y26.8575
G01 X51.4098 Y26.8482
G01 X51.3480 Y26.7922
G01 X51.3376 Y26.7818
G01 X51.2815 Y26.7200
G01 X51.2722 Y26.7086
G01 X51.2225 Y26.6416
G01 X51.2143 Y26.6294
G01 X51.1715 Y26.5578
G01 X51.1645 Y26.5448
G01 X51.1289 Y26.4694
G01 X51.1232 Y26.4558
G01 X51.0951 Y26.3773
G01 X51.0908 Y26.3632
G01 X51.0706 Y26.2823
G01 X51.0677 Y26.2678
G01 X51.0555 Y26.1853
G01 X51.0540 Y26.1707
G01 X51.0499 Y26.0874
G01 X51.0499 Y26.0726
G01 X51.0540 Y25.9893
G01 X51.0555 Y25.9747
G01 X51.0677 Y25.8922
G01 X51.0706 Y25.8777
G01 X51.0908 Y25.7968
G01 X51.0951 Y25.7827
G01 X51.1232 Y25.7042
G01 X51.1289 Y25.6906
G01 X51.1645 Y25.6152
G01 X51.1715 Y25.6022
G01 X51.2143 Y25.5306
G01 X51.2225 Y25.5184
G01 X51.2722 Y25.4514
G01 X51.2815 Y25.4400
G01 X51.3376 Y25.3782
G01 X51.3480 Y25.3678
G01 X51.4098 Y25.3118
G01 X51.4212 Y25.3025
G01 X51.4882 Y25.2528
G01 X51.5004 Y25.2446
G01 X51.5495 Y25.2152
G01 X51.5495 Y24.4048
G01 X51.5004 Y24.3754
G01 X51.4882 Y24.3672
G01 X51.4212 Y24.3175
G01 X51.4098 Y24.3082
G01 X51.3480 Y24.2522
G01 X51.3376 Y24.2418
G01 X51.2815 Y24.1800
G01 X51.2722 Y24.1686
G01 X51.2225 Y24.1016
G01 X51.2143 Y24.0894
G01 X51.1715 Y24.0178
G01 X51.1645 Y24.0048
G01 X51.1289 Y23.9294
G01 X51.1232 Y23.9158
G01 X51.0951 Y23.8373
G01 X51.0908 Y23.8232
G01 X51.0706 Y23.7423
G01 X51.0677 Y23.7278
G01 X51.0555 Y23.6453
G01 X51.0540 Y23.6307
G01 X51.0499 Y23.5474
G01 X51.0499 Y23.5326
G01 X51.0540 Y23.4493
G01 X51.0555 Y23.4347
G01 X51.0677 Y23.3522
G01 X51.0706 Y23.3377
G01 X51.0908 Y23.2568
G01 X51.0951 Y23.2427
G01 X51.1232 Y23.1642
G01 X51.1289 Y23.1506
G01 X51.1645 Y23.0752
G01 X51.1715 Y23.0622
G01 X51.2143 Y22.9906
G01 X51.2225 Y22.9784
G01 X51.2722 Y22.9114
G01 X51.2815 Y22.9000
G01 X51.3376 Y22.8382
G01 X51.3480 Y22.8278
G01 X51.4098 Y22.7718
G01 X51.4212 Y22.7625
G01 X51.4882 Y22.7128
G01 X51.5004 Y22.7046
G01 X51.5495 Y22.6752
G01 X51.5495 Y15.2000
G01 X51.5521 Y15.1436
G01 X51.5535 Y15.1290
G01 X51.5607 Y15.0804
G01 X51.5636 Y15.0660
G01 X51.5755 Y15.0183
G01 X51.5798 Y15.0043
G01 X51.5963 Y14.9580
G01 X51.6020 Y14.9444
G01 X51.6230 Y14.9001
G01 X51.6299 Y14.8871
G01 X51.6551 Y14.8450
G01 X51.6633 Y14.8327
G01 X51.6926 Y14.7933
G01 X51.7019 Y14.7819
G01 X51.7400 Y14.7402
G01 X52.7802 Y13.7000
G01 X48.1904 Y9.1103
G01 X39.3286 Y9.1103
G01 X39.2819 Y9.1618
G01 X39.2715 Y9.1722
G01 X39.2097 Y9.2282
G01 X39.1983 Y9.2375
G01 X39.1313 Y9.2872
G01 X39.1191 Y9.2954
G01 X39.0476 Y9.3383
G01 X39.0346 Y9.3452
G01 X38.9592 Y9.3809
G01 X38.9456 Y9.3865
G01 X38.8670 Y9.4146
G01 X38.8529 Y9.4189
G01 X38.7720 Y9.4392
G01 X38.7576 Y9.4420
G01 X38.6751 Y9.4543
G01 X38.6604 Y9.4557
G01 X38.5697 Y9.4600
G01 X38.0697 Y9.4600
G01 X37.9791 Y9.4557
G01 X37.9644 Y9.4543
G01 X37.8819 Y9.4420
G01 X37.8675 Y9.4392
G01 X37.7866 Y9.4189
G01 X37.7725 Y9.4146
G01 X37.6939 Y9.3865
G01 X37.6803 Y9.3809
G01 X37.6049 Y9.3452
G01 X37.5919 Y9.3383
G01 X37.5204 Y9.2954
G01 X37.5082 Y9.2872
G01 X37.4412 Y9.2375
G01 X37.4298 Y9.2282
G01 X37.3680 Y9.1722
G01 X37.3576 Y9.1618
G01 X37.3109 Y9.1103
G01 X36.4891 Y9.1103
G01 X31.5995 Y13.9998
G01 X31.5578 Y14.0378
G01 X31.5465 Y14.0472
G01 X31.5070 Y14.0764
G01 X31.4948 Y14.0846
G01 X31.4527 Y14.1098
G01 X31.4397 Y14.1168
G01 X31.3953 Y14.1378
G01 X31.3817 Y14.1434
G01 X31.3355 Y14.1599
G01 X31.3214 Y14.1642
G01 X31.2738 Y14.1761
G01 X31.2594 Y14.1790
G01 X31.2108 Y14.1862
G01 X31.1961 Y14.1877
G01 X31.1397 Y14.1903
G01 X24.0886 Y14.1903
G01 X24.0419 Y14.2418
G01 X24.0315 Y14.2522
G01 X23.9697 Y14.3082
G01 X23.9583 Y14.3175
G01 X23.8913 Y14.3672
G01 X23.8791 Y14.3754
G01 X23.8076 Y14.4183
G01 X23.7946 Y14.4252
G01 X23.7192 Y14.4609
G01 X23.7056 Y14.4665
G01 X23.6270 Y14.4946
G01 X23.6129 Y14.4989
G01 X23.5320 Y14.5192
G01 X23.5176 Y14.5220
G01 X23.4351 Y14.5343
G01 X23.4204 Y14.5357
G01 X23.3297 Y14.5400
G01 X22.8224 Y14.5398
G01 X22.7391 Y14.5357
G01 X22.7244 Y14.5343
G01 X22.6419 Y14.5220
G01 X22.6275 Y14.5192
G01 X22.5466 Y14.4989
G01 X22.5325 Y14.4946
G01 X22.4539 Y14.4665
G01 X22.4403 Y14.4609
G01 X22.3649 Y14.4252
G01 X22.3519 Y14.4183
G01 X22.2804 Y14.3754
G01 X22.2682 Y14.3672
G01 X22.2012 Y14.3175
G01 X22.1898 Y14.3082
G01 X22.1280 Y14.2522
G01 X22.1176 Y14.2418
G01 X22.0709 Y14.1903
G01 X20.9797 Y14.1903
G01 X20.9234 Y14.1877
G01 X20.9087 Y14.1862
G01 X20.8601 Y14.1790
G01 X20.8457 Y14.1761
G01 X20.7981 Y14.1642
G01 X20.7840 Y14.1599
G01 X20.7378 Y14.1434
G01 X20.7242 Y14.1378
G01 X20.6798 Y14.1168
G01 X20.6668 Y14.1098
G01 X20.6247 Y14.0846
G01 X20.6125 Y14.0764
G01 X20.5730 Y14.0472
G01 X20.5617 Y14.0378
G01 X20.5200 Y13.9998
G01 X18.2904 Y11.7703
G01 X15.6086 Y11.7703
G01 X15.5619 Y11.8218
G01 X15.5515 Y11.8322
G01 X15.4897 Y11.8882
G01 X15.4783 Y11.8975
G01 X15.4113 Y11.9472
G01 X15.3991 Y11.9554
G01 X15.3276 Y11.9983
G01 X15.3146 Y12.0052
G01 X15.2392 Y12.0409
G01 X15.2256 Y12.0465
G01 X15.1470 Y12.0746
G01 X15.1329 Y12.0789
G01 X15.0520 Y12.0992
G01 X15.0376 Y12.1020
G01 X14.9551 Y12.1143
G01 X14.9404 Y12.1157
G01 X14.8497 Y12.1200
G01 X14.5497 Y12.1200
G01 X14.4591 Y12.1157
G01 X14.4444 Y12.1143
G01 X14.3619 Y12.1020
G01 X14.3475 Y12.0992
G01 X14.2666 Y12.0789
G01 X14.2525 Y12.0746
G01 X14.1739 Y12.0465
G01 X14.1603 Y12.0409
G01 X14.0849 Y12.0052
G01 X14.0719 Y11.9983
G01 X14.0004 Y11.9554
G01 X13.9882 Y11.9472
G01 X13.9212 Y11.8975
G01 X13.9098 Y11.8882
G01 X13.8480 Y11.8322
G01 X13.8376 Y11.8218
G01 X13.7815 Y11.7600
G01 X13.7722 Y11.7486
G01 X13.7225 Y11.6816
G01 X13.7143 Y11.6694
G01 X13.6715 Y11.5978
G01 X13.6645 Y11.5848
G01 X13.6289 Y11.5094
G01 X13.6232 Y11.4958
G01 X13.5951 Y11.4173
G01 X13.5908 Y11.4032
G01 X13.5706 Y11.3223
G01 X13.5677 Y11.3078
G01 X13.5555 Y11.2253
G01 X13.5540 Y11.2107
G01 X13.5499 Y11.1274
G01 X13.5499 Y11.1126
G01 X13.5540 Y11.0293
G01 X13.5555 Y11.0147
G01 X13.5677 Y10.9322
G01 X13.5701 Y10.9203
G01 X11.8985 Y10.9203
G00 Z2.0000
G00 X13.7909 Y13.0097
G01 F60.00
G01 Z-0.1500
G01 F120.00
G01 X13.8376 Y12.9582
G01 X13.8480 Y12.9478
G01 X13.9098 Y12.8918
G01 X13.9212 Y12.8825
G01 X13.9882 Y12.8328
G01 X14.0004 Y12.8246
G01 X14.0719 Y12.7817
G01 X14.0849 Y12.7748
G01 X14.1603 Y12.7391
G01 X14.1739 Y12.7335
G01 X14.2525 Y12.7054
G01 X14.2666 Y12.7011
G01 X14.3475 Y12.6808
G01 X14.3619 Y12.6780
G01 X14.4444 Y12.6657
G01 X14.4591 Y12.6643
G01 X14.5497 Y12.6600
G01 X14.8497 Y12.6600
G01 X14.9404 Y12.6643
G01 X14.9551 Y12.6657
G01 X15.0376 Y12.6780
G01 X15.0520 Y12.6808
G01 X15.1329 Y12.7011
G01 X15.1470 Y12.7054
G01 X15.2256 Y12.7335
G01 X15.2392 Y12.7391
G01 X15.3146 Y12.7748
G01 X15.3276 Y12.7817
G01 X15.3991 Y12.8246
G01 X15.4113 Y12.8328
G01 X15.4783 Y12.8825
G01 X15.4897 Y12.8918
G01 X15.5515 Y12.9478
G01 X15.5619 Y12.9582
G01 X15.6180 Y13.0200
G01 X15.6273 Y13.0314
G01 X15.6770 Y13.0984
G01 X15.6852 Y13.1106
G01 X15.7280 Y13.1822
G01 X15.7350 Y13.1952
G01 X15.7706 Y13.2706
G01 X15.7763 Y13.2842
G01 X15.8044 Y13.3627
G01 X15.8087 Y13.3768
G01 X15.8289 Y13.4577
G01 X15.8318 Y13.4722
G01 X15.8440 Y13.5547
G01 X15.8455 Y13.5693
G01 X15.8496 Y13.6526
G01 X15.8496 Y13.6674
G01 X15.8455 Y13.7507
G01 X15.8440 Y13.7653
G01 X15.8318 Y13.8478
G01 X15.8289 Y13.8623
G01 X15.8087 Y13.9432
G01 X15.8044 Y13.9573
G01 X15.7763 Y14.0358
G01 X15.7706 Y14.0494
G01 X15.7350 Y14.1248
G01 X15.7280 Y14.1378
G01 X15.6852 Y14.2094
G01 X15.6770 Y14.2216
G01 X15.6273 Y14.2886
G01 X15.6180 Y14.3000
G01 X15.5619 Y14.3618
G01 X15.5515 Y14.3722
G01 X15.4897 Y14.4282
G01 X15.4783 Y14.4375
G01 X15.4113 Y14.4872
G01 X15.3991 Y14.4954
G01 X15.3276 Y14.5383
G01 X15.3146 Y14.5452
G01 X15.2392 Y14.5809
G01 X15.2256 Y14.5865
G01 X15.1470 Y14.6146
G01 X15.1329 Y14.6189
G01 X15.0520 Y14.6392
G01 X15.0376 Y14.6420
G01 X14.9551 Y14.6543
G01 X14.9404 Y14.6557
G01 X14.8497 Y14.6600
G01 X14.5497 Y14.6600
G01 X14.4591 Y14.6557
G01 X14.4444 Y14.6543
G01 X14.3619 Y14.6420
G01 X14.3475 Y14.6392
G01 X14.2666 Y14.6189
G01 X14.2525 Y14.6146
G01 X14.1739 Y14.5865
G01 X14.1603 Y14.5809
G01 X14.0849 Y14.5452
G01 X14.0719 Y14.5383
G01 X14.0004 Y14.4954
G01 X13.9882 Y14.4872
G01 X13.9212 Y14.4375
G01 X13.9098 Y14.4282
G01 X13.8480 Y14.3722
G01 X13.8376 Y14.3618
G01 X13.7909 Y14.3103
G01 X12.1597 Y14.3103
G01 X12.1034 Y14.3077
G01 X12.0887 Y14.3062
G01 X12.0401 Y14.2990
G01 X12.0257 Y14.2961
G01 X11.9781 Y14.2842
G01 X11.9640 Y14.2799
G01 X11.9178 Y14.2634
G01 X11.9042 Y14.2578
G01 X11.8598 Y14.2368
G01 X11.8468 Y14.2298
G01 X11.8047 Y14.2046
G01 X11.7925 Y14.1964
G01 X11.7530 Y14.1672
G01 X11.7417 Y14.1578
G01 X11.7000 Y14.1198
G01 X11.4304 Y13.8503
G01 X9.1997 Y13.8503
G01 X9.1434 Y13.8477
G01 X9.1287 Y13.8462
G01 X9.0801 Y13.8390
G01 X9.0657 Y13.8361
G01 X9.0181 Y13.8242
G01 X9.0040 Y13.8199
G01 X8.9578 Y13.8034
G01 X8.9442 Y13.7978
G01 X8.8998 Y13.7768
G01 X8.8868 Y13.7698
G01 X8.8447 Y13.7446
G01 X8.8325 Y13.7364
G01 X8.7930 Y13.7072
G01 X8.7817 Y13.6978
G01 X8.7400 Y13.6598
G01 X7.7349 Y12.6545
G01 X7.7019 Y12.6181
G01 X7.6926 Y12.6067
G01 X7.6633 Y12.5673
G01 X7.6551 Y12.5550
G01 X7.6299 Y12.5129
G01 X7.6230 Y12.4999
G01 X7.6020 Y12.4556
G01 X7.5963 Y12.4420
G01 X7.5798 Y12.3957
G01 X7.5755 Y12.3817
G01 X7.5636 Y12.3340
G01 X7.5607 Y12.3196
G01 X7.5535 Y12.2710
G01 X7.5521 Y12.2564
G01 X7.5495 Y12.2000
G01 X7.5495 Y5.7000
G01 X7.5521 Y5.6436
G01 X7.5535 Y5.6290
G01 X7.5607 Y5.5804
G01 X7.5636 Y5.5660
G01 X7.5755 Y5.5183
G01 X7.5798 Y5.5043
G01 X7.5963 Y5.4580
G01 X7.6020 Y5.4444
G01 X7.6230 Y5.4001
G01 X7.6299 Y5.3871
G01 X7.6551 Y5.3450
G01 X7.6633 Y5.3327
G01 X7.6926 Y5.2933
G01 X7.7019 Y5.2819
G01 X7.7400 Y5.2402
G01 X10.2400 Y2.7402
G01 X10.2817 Y2.7022
G01 X10.2930 Y2.6928
G01 X10.3325 Y2.6636
G01 X10.3447 Y2.6554
G01 X10.3868 Y2.6302
G01 X10.3998 Y2.6232
G01 X10.4442 Y2.6022
G01 X10.4578 Y2.5966
G01 X10.5040 Y2.5801
G01 X10.5181 Y2.5758
G01 X10.5657 Y2.5639
G01 X10.5801 Y2.5610
G01 X10.6287 Y2.5538
G01 X10.6434 Y2.5523
G01 X10.6997 Y2.5497
G01 X25.6997 Y2.5497
G01 X25.7561 Y2.5523
G01 X25.7708 Y2.5538
G01 X25.8194 Y2.5610
G01 X25.8338 Y2.5639
G01 X25.8814 Y2.5758
G01 X25.8955 Y2.5801
G01 X25.9417 Y2.5966
G01 X25.9553 Y2.6022
G01 X25.9997 Y2.6232
G01 X26.0127 Y2.6302
G01 X26.0548 Y2.6554
G01 X26.0670 Y2.6636
G01 X26.1065 Y2.6928
G01 X26.1178 Y2.7022
G01 X26.1595 Y2.7402
G01 X29.6595 Y6.2402
G01 X29.6976 Y6.2819
G01 X29.7069 Y6.2933
G01 X29.7362 Y6.3327
G01 X29.7444 Y6.3450
G01 X29.7696 Y6.3871
G01 X29.7765 Y6.4001
G01 X29.7975 Y6.4444
G01 X29.8032 Y6.4580
G01 X29.8197 Y6.5043
G01 X29.8240 Y6.5183
G01 X29.8359 Y6.5660
G01 X29.8388 Y6.5804
G01 X29.8460 Y6.6290
G01 X29.8474 Y6.6436
G01 X29.8500 Y6.7000
G01 X29.8500 Y7.6302
G01 X32.2453 Y5.2351
G01 X32.2817 Y5.2022
G01 X32.2930 Y5.1928
G01 X32.3325 Y5.1636
G01 X32.3447 Y5.1554
G01 X32.3868 Y5.1302
G01 X32.3998 Y5.1232
G01 X32.4442 Y5.1022
G01 X32.4578 Y5.0966
G01 X32.5040 Y5.0801
G01 X32.5181 Y5.0758
G01 X32.5657 Y5.0639
G01 X32.5801 Y5.0610
G01 X32.6287 Y5.0538
G01 X32.6434 Y5.0523
G01 X32.6997 Y5.0497
G01 X36.0071 Y5.0499
G01 X36.0561 Y5.0523
G01 X36.0708 Y5.0538
G01 X36.1194 Y5.0610
G01 X36.1338 Y5.0639
G01 X36.1814 Y5.0758
G01 X36.1955 Y5.0801
G01 X36.2417 Y5.0966
G01 X36.2553 Y5.1022
G01 X36.2997 Y5.1232
G01 X36.3127 Y5.1302
G01 X36.3548 Y5.1554
G01 X36.3670 Y5.1636
G01 X36.4065 Y5.1928
G01 X36.4178 Y5.2022
G01 X36.4542 Y5.2351
G01 X36.4891 Y5.2697
G01 X37.3109 Y5.2697
G01 X37.3576 Y5.2182
G01 X37.3680 Y5.2078
G01 X37.4298 Y5.1518
G01 X37.4412 Y5.1425
G01 X37.5082 Y5.0928
G01 X37.5204 Y5.0846
G01 X37.5919 Y5.0417
G01 X37.6049 Y5.0348
G01 X37.6803 Y4.9991
G01 X37.6939 Y4.9935
G01 X37.7725 Y4.9654
G01 X37.7866 Y4.9611
G01 X37.8675 Y4.9408
G01 X37.8819 Y4.9380
G01 X37.9644 Y4.9257
G01 X37.9791 Y4.9243
G01 X38.0697 Y4.9200
G01 X38.5771 Y4.9202
G01 X38.6604 Y4.9243
G01 X38.6751 Y4.9257
G01 X38.7576 Y4.9380
G01 X38.7720 Y4.9408
G01 X38.8529 Y4.9611
G01 X38.8670 Y4.9654
G01 X38.9456 Y4.9935
G01 X38.9592 Y4.9991
G01 X39.0346 Y5.0348
G01 X39.0476 Y5.0417
G01 X39.1191 Y5.0846
G01 X39.1313 Y5.0928
G01 X39.1983 Y5.1425
G01 X39.2097 Y5.1518
G01 X39.2715 Y5.2078
G01 X39.2819 Y5.2182
G01 X39.3286 Y5.2697
G01 X43.9197 Y5.2697
G01 X43.9761 Y5.2723
G01 X43.9908 Y5.2738
G01 X44.0394 Y5.2810
G01 X44.0538 Y5.2839
G01 X44.1014 Y5.2958
G01 X44.1155 Y5.3001
G01 X44.1617 Y5.3166
G01 X44.1753 Y5.3222
G01 X44.2197 Y5.3432
G01 X44.2327 Y5.3502
G01 X44.2748 Y5.3754
G01 X44.2870 Y5.3836
G01 X44.3265 Y5.4128
G01 X44.3378 Y5.4222
G01 X44.3742 Y5.4551
G01 X44.3846 Y5.4655
G01 X44.4176 Y5.5019
G01 X44.4269 Y5.5133
G01 X44.4540 Y5.5497
G01 X44.4603 Y5.5497
G01 X44.4687 Y5.5336
G01 X44.5318 Y5.4284
G01 X44.5399 Y5.4162
G01 X44.6130 Y5.3177
G01 X44.6223 Y5.3063
G01 X44.7047 Y5.2154
G01 X44.7151 Y5.2050
G01 X44.8060 Y5.1226
G01 X44.8174 Y5.1133
G01 X44.9159 Y5.0402
G01 X44.9282 Y5.0320
G01 X45.0334 Y4.9689
G01 X45.0464 Y4.9620
G01 X45.1573 Y4.9096
G01 X45.1709 Y4.9039
G01 X45.2864 Y4.8626
G01 X45.3004 Y4.8583
G01 X45.4194 Y4.8285
G01 X45.4339 Y4.8256
G01 X45.5552 Y4.8076
G01 X45.5699 Y4.8062
G01 X45.6924 Y4.8002
G01 X45.7071 Y4.8002
G01 X45.8296 Y4.8062
G01 X45.8443 Y4.8076
G01 X45.9656 Y4.8256
G01 X45.9801 Y4.8285
G01 X46.0991 Y4.8583
G01 X46.1131 Y4.8626
G01 X46.2286 Y4.9039
G01 X46.2422 Y4.9096
G01 X46.3531 Y4.9620
G01 X46.3661 Y4.9689
G01 X46.4713 Y5.0320
G01 X46.4836 Y5.0402
G01 X46.5821 Y5.1133
G01 X46.5935 Y5.1226
G01 X46.6844 Y5.2050
G01 X46.6948 Y5.2154
G01 X46.7772 Y5.3063
G01 X46.7865 Y5.3177
G01 X46.8596 Y5.4162
G01 X46.8677 Y5.4284
G01 X46.9308 Y5.5336
G01 X46.9377 Y5.5466
G01 X46.9902 Y5.6575
G01 X46.9958 Y5.6711
G01 X47.0372 Y5.7866
G01 X47.0414 Y5.8007
G01 X47.0712 Y5.9197
G01 X47.0741 Y5.9341
G01 X47.0921 Y6.0555
G01 X47.0936 Y6.0701
G01 X47.0996 Y6.1926
G01 X47.0996 Y6.2074
G01 X47.0936 Y6.3299
G01 X47.0921 Y6.3445
G01 X47.0741 Y6.4659
G01 X47.0712 Y6.4803
G01 X47.0414 Y6.5993
G01 X47.0372 Y6.6134
G01 X46.9958 Y6.7289
G01 X46.9902 Y6.7425
G01 X46.9377 Y6.8534
G01 X46.9308 Y6.8664
G01 X46.8677 Y6.9716
G01 X46.8596 Y6.9838
G01 X46.7865 Y7.0823
G01 X46.7772 Y7.0937
G01 X46.6948 Y7.1846
G01 X46.6844 Y7.1950
G01 X46.5935 Y7.2774
G01 X46.5821 Y7.2867
G01 X46.4836 Y7.3598
G01 X46.4713 Y7.3680
G01 X46.3661 Y7.4311
G01 X46.3531 Y7.4380
G01 X46.2422 Y7.4904
G01 X46.2286 Y7.4961
G01 X46.1131 Y7.5374
G01 X46.0991 Y7.5417
G01 X45.9801 Y7.5715
G01 X45.9656 Y7.5744
G01 X45.8443 Y7.5924
G01 X45.8296 Y7.5938
G01 X45.7071 Y7.5998
G01 X45.6924 Y7.5998
G01 X45.5699 Y7.5938
G01 X45.5552 Y7.5924
G01 X45.4339 Y7.5744
G01 X45.4194 Y7.5715
G01 X45.3004 Y7.5417
G01 X45.2864 Y7.5374
G01 X45.1709 Y7.4961
G01 X45.1573 Y7.4904
G01 X45.0464 Y7.4380
G01 X45.0334 Y7.4311
G01 X44.9282 Y7.3680
G01 X44.9159 Y7.3598
G01 X44.8174 Y7.2867
G01 X44.8060 Y7.2774
G01 X44.7151 Y7.1950
G01 X44.7047 Y7.1846
G01 X44.6223 Y7.0937
G01 X44.6130 Y7.0823
G01 X44.5399 Y6.9838
G01 X44.5318 Y6.9716
G01 X44.4687 Y6.8664
G01 X44.4603 Y6.8503
G01 X43.9246 Y6.8501
G01 X43.8756 Y6.8477
G01 X43.8609 Y6.8462
G01 X43.8124 Y6.8390
G01 X43.7979 Y6.8361
G01 X43.7503 Y6.8242
G01 X43.7362 Y6.8199
G01 X43.6900 Y6.8034
G01 X43.6764 Y6.7978
G01 X43.6320 Y6.7768
G01 X43.6191 Y6.7698
G01 X43.5769 Y6.7446
G01 X43.5647 Y6.7364
G01 X43.5253 Y6.7072
G01 X43.5139 Y6.6978
G01 X43.4722 Y6.6598
G01 X43.4549 Y6.6422
G01 X43.4219 Y6.6059
G01 X43.4126 Y6.5945
G01 X43.3946 Y6.5703
G01 X39.3286 Y6.5703
G01 X39.2819 Y6.6218
G01 X39.2715 Y6.6322
G01 X39.2097 Y6.6882
G01 X39.1983 Y6.6975
G01 X39.1313 Y6.7472
G01 X39.1191 Y6.7554
G01 X39.0476 Y6.7983
G01 X39.0346 Y6.8052
G01 X38.9592 Y6.8409
G01 X38.9456 Y6.8465
G01 X38.8670 Y6.8746
G01 X38.8529 Y6.8789
G01 X38.7720 Y6.8992
G01 X38.7576 Y6.9020
G01 X38.6751 Y6.9143
G01 X38.6604 Y6.9157
G01 X38.5697 Y6.9200
G01 X38.0697 Y6.9200
G01 X37.9791 Y6.9157
G01 X37.9644 Y6.9143
G01 X37.8819 Y6.9020
G01 X37.8675 Y6.8992
G01 X37.7866 Y6.8789
G01 X37.7725 Y6.8746
G01 X37.6939 Y6.8465
G01 X37.6803 Y6.8409
G01 X37.6049 Y6.8052
G01 X37.5919 Y6.7983
G01 X37.5204 Y6.7554
G01 X37.5082 Y6.7472
G01 X37.4412 Y6.6975
G01 X37.4298 Y6.6882
G01 X37.3680 Y6.6322
G01 X37.3576 Y6.6218
G01 X37.3109 Y6.5703
G01 X36.2197 Y6.5703
G01 X36.1634 Y6.5677
G01 X36.1487 Y6.5662
G01 X36.1001 Y6.5590
G01 X36.0857 Y6.5561
G01 X36.0381 Y6.5442
G01 X36.0240 Y6.5399
G01 X35.9778 Y6.5234
G01 X35.9642 Y6.5178
G01 X35.9198 Y6.4968
G01 X35.9068 Y6.4898
G01 X35.8647 Y6.4646
G01 X35.8525 Y6.4564
G01 X35.8130 Y6.4272
G01 X35.8017 Y6.4178
G01 X35.7653 Y6.3849
G01 X35.7304 Y6.3503
G01 X32.9691 Y6.3503
G01 X30.5360 Y8.7834
G01 X30.5414 Y8.8007
G01 X30.5712 Y8.9197
G01 X30.5741 Y8.9341
G01 X30.5921 Y9.0555
G01 X30.5936 Y9.0701
G01 X30.5996 Y9.1926
G01 X30.5996 Y9.2074
G01 X30.5936 Y9.3299
G01 X30.5921 Y9.3445
G01 X30.5741 Y9.4659
G01 X30.5712 Y9.4803
G01 X30.5414 Y9.5993
G01 X30.5372 Y9.6134
G01 X30.4958 Y9.7289
G01 X30.4902 Y9.7425
G01 X30.4377 Y9.8534
G01 X30.4308 Y9.8664
G01 X30.3677 Y9.9716
G01 X30.3596 Y9.9838
G01 X30.2865 Y10.0823
G01 X30.2772 Y10.0937
G01 X30.1948 Y10.1846
G01 X30.1844 Y10.1950
G01 X30.0935 Y10.2774
G01 X30.0821 Y10.2867
G01 X29.9836 Y10.3598
G01 X29.9713 Y10.3680
G01 X29.8661 Y10.4311
G01 X29.8531 Y10.4380
G01 X29.7422 Y10.4904
G01 X29.7286 Y10.4961
G01 X29.6131 Y10.5374
G01 X29.5991 Y10.5417
G01 X29.4801 Y10.5715
G01 X29.4656 Y10.5744
G01 X29.3443 Y10.5924
G01 X29.3296 Y10.5938
G01 X29.2071 Y10.5998
G01 X29.1924 Y10.5998
G01 X29.0699 Y10.5938
G01 X29.0552 Y10.5924
G01 X28.9339 Y10.5744
G01 X28.9194 Y10.5715
G01 X28.8004 Y10.5417
G01 X28.7864 Y10.5374
G01 X28.6709 Y10.4961
G01 X28.6573 Y10.4904
G01 X28.5464 Y10.4380
G01 X28.5334 Y10.4311
G01 X28.4282 Y10.3680
G01 X28.4159 Y10.3598
G01 X28.3174 Y10.2867
G01 X28.3060 Y10.2774
G01 X28.2151 Y10.1950
G01 X28.2047 Y10.1846
G01 X28.1223 Y10.0937
G01 X28.1130 Y10.0823
G01 X28.0399 Y9.9838
G01 X28.0318 Y9.9716
G01 X27.9687 Y9.8664
G01 X27.9617 Y9.8534
G01 X27.9093 Y9.7425
G01 X27.9037 Y9.7289
G01 X27.8623 Y9.6134
G01 X27.8581 Y9.5993
G01 X27.8283 Y9.4803
G01 X27.8254 Y9.4659
G01 X27.8074 Y9.3445
G01 X27.8059 Y9.3299
G01 X27.7999 Y9.2074
G01 X27.7999 Y9.1926
G01 X27.8059 Y9.0701
G01 X27.8074 Y9.0555
G01 X27.8254 Y8.9341
G01 X27.8283 Y8.9197
G01 X27.8581 Y8.8007
G01 X27.8623 Y8.7866
G01 X27.9037 Y8.6711
G01 X27.9093 Y8.6575
G01 X27.9617 Y8.5466
G01 X27.9687 Y8.5336
G01 X28.0318 Y8.4284
G01 X28.0399 Y8.4162
G01 X28.1130 Y8.3177
G01 X28.1223 Y8.3063
G01 X28.2047 Y8.2154
G01 X28.2151 Y8.2050
G01 X28.3060 Y8.1226
G01 X28.3174 Y8.1133
G01 X28.4159 Y8.0402
G01 X28.4282 Y8.0320
G01 X28.5334 Y7.9689
G01 X28.5495 Y7.9605
G01 X28.5495 Y6.9693
G01 X25.4304 Y3.8503
G01 X10.9691 Y3.8503
G01 X8.8500 Y5.9693
G01 X8.8500 Y11.9307
G01 X9.4691 Y12.5497
G01 X11.6997 Y12.5497
G01 X11.7561 Y12.5523
G01 X11.7708 Y12.5538
G01 X11.8194 Y12.5610
G01 X11.8338 Y12.5639
G01 X11.8814 Y12.5758
G01 X11.8955 Y12.5801
G01 X11.9417 Y12.5966
G01 X11.9553 Y12.6022
G01 X11.9997 Y12.6232
G01 X12.0127 Y12.6302
G01 X12.0548 Y12.6554
G01 X12.0670 Y12.6636
G01 X12.1065 Y12.6928
G01 X12.1178 Y12.7022
G01 X12.1595 Y12.7402
G01 X12.4291 Y13.0097
G01 X13.7909 Y13.0097
G00 Z2.0000
G00 X22.0709 Y15.4297
G01 F60.00
G01 Z-0.1500
G01 F120.00
G01 X22.1176 Y15.3782
G01 X22.1280 Y15.3678
G01 X22.1898 Y15.3118
G01 X22.2012 Y15.3025
G01 X22.2682 Y15.2528
G01 X22.2804 Y15.2446
G01 X22.3519 Y15.2017
G01 X22.3649 Y15.1948
G01 X22.4403 Y15.1591
G01 X22.4539 Y15.1535
G01 X22.5325 Y15.1254
G01 X22.5466 Y15.1211
G01 X22.6275 Y15.1008
G01 X22.6419 Y15.0980
G01 X22.7244 Y15.0857
G01 X22.7391 Y15.0843
G01 X22.8297 Y15.0800
G01 X23.3297 Y15.0800
G01 X23.4204 Y15.0843
G01 X23.4351 Y15.0857
G01 X23.5176 Y15.0980
G01 X23.5320 Y15.1008
G01 X23.6129 Y15.1211
G01 X23.6270 Y15.1254
G01 X23.7056 Y15.1535
G01 X23.7192 Y15.1591
G01 X23.7946 Y15.1948
G01 X23.8076 Y15.2017
G01 X23.8791 Y15.2446
G01 X23.8913 Y15.2528
G01 X23.9583 Y15.3025
G01 X23.9697 Y15.3118
G01 X24.0315 Y15.3678
G01 X24.0419 Y15.3782
G01 X24.0980 Y15.4400
G01 X24.1073 Y15.4514
G01 X24.1570 Y15.5184
G01 X24.1652 Y15.5306
G01 X24.2080 Y15.6022
G01 X24.2150 Y15.6152
G01 X24.2506 Y15.6906
G01 X24.2563 Y15.7042
G01 X24.2844 Y15.7827
G01 X24.2887 Y15.7968
G01 X24.3089 Y15.8777
G01 X24.3118 Y15.8922
G01 X24.3240 Y15.9747
G01 X24.3255 Y15.9893
G01 X24.3296 Y16.0726
G01 X24.3296 Y16.0874
G01 X24.3255 Y16.1707
G01 X24.3240 Y16.1853
G01 X24.3118 Y16.2678
G01 X24.3089 Y16.2823
G01 X24.2887 Y16.3632
G01 X24.2844 Y16.3773
G01 X24.2563 Y16.4558
G01 X24.2506 Y16.4694
G01 X24.2150 Y16.5448
G01 X24.2080 Y16.5578
G01 X24.1652 Y16.6294
G01 X24.1570 Y16.6416
G01 X24.1073 Y16.7086
G01 X24.0980 Y16.7200
G01 X24.0419 Y16.7818
G01 X24.0315 Y16.7922
G01 X23.9697 Y16.8482
G01 X23.9583 Y16.8575
G01 X23.8913 Y16.9072
G01 X23.8791 Y16.9154
G01 X23.8076 Y16.9583
G01 X23.7946 Y16.9652
G01 X23.7192 Y17.0009
G01 X23.7056 Y17.0065
G01 X23.6270 Y17.0346
G01 X23.6129 Y17.0389
G01 X23.5320 Y17.0592
G01 X23.5176 Y17.0620
G01 X23.4351 Y17.0743
G01 X23.4204 Y17.0757
G01 X23.3297 Y17.0800
G01 X22.8224 Y17.0798
G01 X22.7391 Y17.0757
G01 X22.7244 Y17.0743
G01 X22.6419 Y17.0620
G01 X22.6275 Y17.0592
G01 X22.5466 Y17.0389
G01 X22.5325 Y17.0346
G01 X22.4539 Y17.0065
G01 X22.4403 Y17.0009
G01 X22.3649 Y16.9652
G01 X22.3519 Y16.9583
G01 X22.2804 Y16.9154
G01 X22.2682 Y16.9072
G01 X22.2012 Y16.8575
G01 X22.1898 Y16.8482
G01 X22.1280 Y16.7922
G01 X22.1176 Y16.7818
G01 X22.0709 Y16.7303
G01 X15.8497 Y16.7303
G01 X15.8497 Y17.2000
G01 X15.8490 Y17.2147
G01 X15.8469 Y17.2293
G01 X15.8433 Y17.2435
G01 X15.8383 Y17.2574
G01 X15.8320 Y17.2707
G01 X15.8245 Y17.2833
G01 X15.8157 Y17.2952
G01 X15.8058 Y17.3061
G01 X15.7949 Y17.3160
G01 X15.7831 Y17.3247
G01 X15.7705 Y17.3323
G01 X15.7572 Y17.3386
G01 X15.7433 Y17.3435
G01 X15.7290 Y17.3471
G01 X15.7145 Y17.3493
G01 X15.6997 Y17.3500
G01 X13.6997 Y17.3500
G01 X13.6850 Y17.3493
G01 X13.6705 Y17.3471
G01 X13.6562 Y17.3435
G01 X13.6423 Y17.3386
G01 X13.6290 Y17.3323
G01 X13.6164 Y17.3247
G01 X13.6046 Y17.3160
G01 X13.5937 Y17.3061
G01 X13.5838 Y17.2952
G01 X13.5750 Y17.2833
G01 X13.5675 Y17.2707
G01 X13.5612 Y17.2574
G01 X13.5562 Y17.2435
G01 X13.5526 Y17.2293
G01 X13.5505 Y17.2147
G01 X13.5497 Y17.2000
G01 X13.5497 Y15.2000
G01 X13.5505 Y15.1853
G01 X13.5526 Y15.1707
G01 X13.5562 Y15.1565
G01 X13.5612 Y15.1426
G01 X13.5675 Y15.1293
G01 X13.5750 Y15.1167
G01 X13.5838 Y15.1048
G01 X13.5937 Y15.0939
G01 X13.6046 Y15.0840
G01 X13.6164 Y15.0753
G01 X13.6290 Y15.0677
G01 X13.6423 Y15.0614
G01 X13.6562 Y15.0565
G01 X13.6705 Y15.0529
G01 X13.6850 Y15.0507
G01 X13.6997 Y15.0500
G01 X15.6997 Y15.0500
G01 X15.7145 Y15.0507
G01 X15.7290 Y15.0529
G01 X15.7433 Y15.0565
G01 X15.7572 Y15.0614
G01 X15.7705 Y15.0677
G01 X15.7831 Y15.0753
G01 X15.7949 Y15.0840
G01 X15.8058 Y15.0939
G01 X15.8157 Y15.1048
G01 X15.8245 Y15.1167
G01 X15.8320 Y15.1293
G01 X15.8383 Y15.1426
G01 X15.8433 Y15.1565
G01 X15.8469 Y15.1707
G01 X15.8490 Y15.1853
G01 X15.8497 Y15.2000
G01 X15.8497 Y15.4297
G01 X22.0709 Y15.4297
G00 Z2.0000
G00 X24.3240 Y10.8947
G01 F60.00
G01 Z-0.1500
G01 F120.00
G01 X24.3255 Y10.9093
G01 X24.3296 Y10.9926
G01 X24.3296 Y11.0074
G01 X24.3255 Y11.0907
G01 X24.3240 Y11.1053
G01 X24.3118 Y11.1878
G01 X24.3089 Y11.2023
G01 X24.2887 Y11.2832
G01 X24.2844 Y11.2973
G01 X24.2563 Y11.3758
G01 X24.2506 Y11.3894
G01 X24.2150 Y11.4648
G01 X24.2080 Y11.4778
G01 X24.1652 Y11.5494
G01 X24.1570 Y11.5616
G01 X24.1073 Y11.6286
G01 X24.0980 Y11.6400
G01 X24.0419 Y11.7018
G01 X24.0315 Y11.7122
G01 X23.9697 Y11.7682
G01 X23.9583 Y11.7775
G01 X23.8913 Y11.8272
G01 X23.8791 Y11.8354
G01 X23.8076 Y11.8783
G01 X23.7946 Y11.8852
G01 X23.7192 Y11.9209
G01 X23.7056 Y11.9265
G01 X23.6270 Y11.9546
G01 X23.6129 Y11.9589
G01 X23.5320 Y11.9792
G01 X23.5176 Y11.9820
G01 X23.4351 Y11.9943
G01 X23.4204 Y11.9957
G01 X23.3297 Y12.0000
G01 X22.8297 Y12.0000
G01 X22.7391 Y11.9957
G01 X22.7244 Y11.9943
G01 X22.6419 Y11.9820
G01 X22.6275 Y11.9792
G01 X22.5466 Y11.9589
G01 X22.5325 Y11.9546
G01 X22.4539 Y11.9265
G01 X22.4403 Y11.9209
G01 X22.3649 Y11.8852
G01 X22.3519 Y11.8783
G01 X22.2804 Y11.8354
G01 X22.2682 Y11.8272
G01 X22.2012 Y11.7775
G01 X22.1898 Y11.7682
G01 X22.1280 Y11.7122
G01 X22.1176 Y11.7018
G01 X22.0615 Y11.6400
G01 X22.0522 Y11.6286
G01 X22.0025 Y11.5616
G01 X21.9943 Y11.5494
G01 X21.9515 Y11.4778
G01 X21.9445 Y11.4648
G01 X21.9089 Y11.3894
G01 X21.9032 Y11.3758
G01 X21.8751 Y11.2973
G01 X21.8708 Y11.2832
G01 X21.8506 Y11.2023
G01 X21.8477 Y11.1878
G01 X21.8355 Y11.1053
G01 X21.8340 Y11.0907
G01 X21.8299 Y11.0074
G01 X21.8299 Y10.9926
G01 X21.8340 Y10.9093
G01 X21.8355 Y10.8947
G01 X21.8477 Y10.8122
G01 X21.8506 Y10.7977
G01 X21.8708 Y10.7168
G01 X21.8751 Y10.7027
G01 X21.9032 Y10.6242
G01 X21.9089 Y10.6106
G01 X21.9445 Y10.5352
G01 X21.9515 Y10.5222
G01 X21.9943 Y10.4506
G01 X22.0025 Y10.4384
G01 X22.0522 Y10.3714
G01 X22.0615 Y10.3600
G01 X22.1176 Y10.2982
G01 X22.1280 Y10.2878
G01 X22.1898 Y10.2318
G01 X22.2012 Y10.2225
G01 X22.2682 Y10.1728
G01 X22.2804 Y10.1646
G01 X22.3519 Y10.1217
G01 X22.3649 Y10.1148
G01 X22.4403 Y10.0791
G01 X22.4539 Y10.0735
G01 X22.5325 Y10.0454
G01 X22.5466 Y10.0411
G01 X22.6275 Y10.0208
G01 X22.6419 Y10.0180
G01 X22.7244 Y10.0057
G01 X22.7391 Y10.0043
G01 X22.8297 Y10.0000
G01 X23.3297 Y10.0000
G01 X23.4204 Y10.0043
G01 X23.4351 Y10.0057
G01 X23.5176 Y10.0180
G01 X23.5320 Y10.0208
G01 X23.6129 Y10.0411
G01 X23.6270 Y10.0454
G01 X23.7056 Y10.0735
G01 X23.7192 Y10.0791
G01 X23.7946 Y10.1148
G01 X23.8076 Y10.1217
G01 X23.8791 Y10.1646
G01 X23.8913 Y10.1728
G01 X23.9583 Y10.2225
G01 X23.9697 Y10.2318
G01 X24.0315 Y10.2878
G01 X24.0419 Y10.2982
G01 X24.0980 Y10.3600
G01 X24.1073 Y10.3714
G01 X24.1570 Y10.4384
G01 X24.1652 Y10.4506
G01 X24.2080 Y10.5222
G01 X24.2150 Y10.5352
G01 X24.2506 Y10.6106
G01 X24.2563 Y10.6242
G01 X24.2844 Y10.7027
G01 X24.2887 Y10.7168
G01 X24.3089 Y10.7977
G01 X24.3118 Y10.8122
G01 X24.3240 Y10.8947
G00 Z2.0000
G00 X24.3240 Y8.3547
G01 F60.00
G01 Z-0.1500
G01 F120.00
G01 X24.3255 Y8.3693
G01 X24.3296 Y8.4526
G01 X24.3296 Y8.4674
G01 X24.3255 Y8.5507
G01 X24.3240 Y8.5653
G01 X24.3118 Y8.6478
G01 X24.3089 Y8.6623
G01 X24.2887 Y8.7432
G01 X24.2844 Y8.7573
G01 X24.2563 Y8.8358
G01 X24.2506 Y8.8494
G01 X24.2150 Y8.9248
G01 X24.2080 Y8.9378
G01 X24.1652 Y9.0094
G01 X24.1570 Y9.0216
G01 X24.1073 Y9.0886
G01 X24.0980 Y9.1000
G01 X24.0419 Y9.1618
G01 X24.0315 Y9.1722
G01 X23.9697 Y9.2282
G01 X23.9583 Y9.2375
G01 X23.8913 Y9.2872
G01 X23.8791 Y9.2954
G01 X23.8076 Y9.3383
G01 X23.7946 Y9.3452
G01 X23.7192 Y9.3809
G01 X23.7056 Y9.3865
G01 X23.6270 Y9.4146
G01 X23.6129 Y9.4189
G01 X23.5320 Y9.4392
G01 X23.5176 Y9.4420
G01 X23.4351 Y9.4543
G01 X23.4204 Y9.4557
G01 X23.3297 Y9.4600
G01 X22.8297 Y9.4600
G01 X22.7391 Y9.4557
G01 X22.7244 Y9.4543
G01 X22.6419 Y9.4420
G01 X22.6275 Y9.4392
G01 X22.5466 Y9.4189
G01 X22.5325 Y9.4146
G01 X22.4539 Y9.3865
G01 X22.4403 Y9.3809
G01 X22.3649 Y9.3452
G01 X22.3519 Y9.3383
G01 X22.2804 Y9.2954
G01 X22.2682 Y9.2872
G01 X22.2012 Y9.2375
G01 X22.1898 Y9.2282
G01 X22.1280 Y9.1722
G01 X22.1176 Y9.1618
G01 X22.0615 Y9.1000
G01 X22.0522 Y9.0886
G01 X22.0025 Y9.0216
G01 X21.9943 Y9.0094
G01 X21.9515 Y8.9378
G01 X21.9445 Y8.9248
G01 X21.9089 Y8.8494
G01 X21.9032 Y8.8358
G01 X21.8751 Y8.7573
G01 X21.8708 Y8.7432
G01 X21.8506 Y8.6623
G01 X21.8477 Y8.6478
G01 X21.8355 Y8.5653
G01 X21.8340 Y8.5507
G01 X21.8299 Y8.4674
G01 X21.8299 Y8.4526
G01 X21.8340 Y8.3693
G01 X21.8355 Y8.3547
G01 X21.8477 Y8.2722
G01 X21.8506 Y8.2577
G01 X21.8708 Y8.1768
G01 X21.8751 Y8.1627
G01 X21.9032 Y8.0842
G01 X21.9089 Y8.0706
G01 X21.9445 Y7.9952
G01 X21.9515 Y7.9822
G01 X21.9943 Y7.9106
G01 X22.0025 Y7.8984
G01 X22.0522 Y7.8314
G01 X22.0615 Y7.8200
G01 X22.1176 Y7.7582
G01 X22.1280 Y7.7478
G01 X22.1898 Y7.6918
G01 X22.2012 Y7.6825
G01 X22.2682 Y7.6328
G01 X22.2804 Y7.6246
G01 X22.3519 Y7.5817
G01 X22.3649 Y7.5748
G01 X22.4403 Y7.5391
G01 X22.4539 Y7.5335
G01 X22.5325 Y7.5054
G01 X22.5466 Y7.5011
G01 X22.6275 Y7.4808
G01 X22.6419 Y7.4780
G01 X22.7244 Y7.4657
G01 X22.7391 Y7.4643
G01 X22.8297 Y7.4600
G01 X23.3297 Y7.4600
G01 X23.4204 Y7.4643
G01 X23.4351 Y7.4657
G01 X23.5176 Y7.4780
G01 X23.5320 Y7.4808
G01 X23.6129 Y7.5011
G01 X23.6270 Y7.5054
G01 X23.7056 Y7.5335
G01 X23.7192 Y7.5391
G01 X23.7946 Y7.5748
G01 X23.8076 Y7.5817
G01 X23.8791 Y7.6246
G01 X23.8913 Y7.6328
G01 X23.9583 Y7.6825
G01 X23.9697 Y7.6918
G01 X24.0315 Y7.7478
G01 X24.0419 Y7.7582
G01 X24.0980 Y7.8200
G01 X24.1073 Y7.8314
G01 X24.1570 Y7.8984
G01 X24.1652 Y7.9106
G01 X24.2080 Y7.9822
G01 X24.2150 Y7.9952
G01 X24.2506 Y8.0706
G01 X24.2563 Y8.0842
G01 X24.2844 Y8.1627
G01 X24.2887 Y8.1768
G01 X24.3089 Y8.2577
G01 X24.3118 Y8.2722
G01 X24.3240 Y8.3547
G00 Z2.0000
G00 X24.0797 Y4.7700
G01 F60.00
G01 Z-0.1500
G01 F120.00
G01 X24.0945 Y4.7707
G01 X24.1090 Y4.7729
G01 X24.1233 Y4.7765
G01 X24.1372 Y4.7814
G01 X24.1505 Y4.7877
G01 X24.1631 Y4.7953
G01 X24.1749 Y4.8040
G01 X24.1858 Y4.8139
G01 X24.1957 Y4.8248
G01 X24.2045 Y4.8367
G01 X24.2120 Y4.8493
G01 X24.2183 Y4.8626
G01 X24.2233 Y4.8765
G01 X24.2269 Y4.8907
G01 X24.2290 Y4.9053
G01 X24.2297 Y4.9200
G01 X24.2297 Y6.9200
G01 X24.2290 Y6.9347
G01 X24.2269 Y6.9493
G01 X24.2233 Y6.9635
G01 X24.2183 Y6.9774
G01 X24.2120 Y6.9907
G01 X24.2045 Y7.0033
G01 X24.1957 Y7.0152
G01 X24.1858 Y7.0261
G01 X24.1749 Y7.0360
G01 X24.1631 Y7.0447
G01 X24.1505 Y7.0523
G01 X24.1372 Y7.0586
G01 X24.1233 Y7.0635
G01 X24.1090 Y7.0671
G01 X24.0945 Y7.0693
G01 X24.0797 Y7.0700
G01 X22.0797 Y7.0700
G01 X22.0650 Y7.0693
G01 X22.0505 Y7.0671
G01 X22.0362 Y7.0635
G01 X22.0223 Y7.0586
G01 X22.0090 Y7.0523
G01 X21.9964 Y7.0447
G01 X21.9846 Y7.0360
G01 X21.9737 Y7.0261
G01 X21.9638 Y7.0152
G01 X21.9550 Y7.0033
G01 X21.9475 Y6.9907
G01 X21.9412 Y6.9774
G01 X21.9362 Y6.9635
G01 X21.9326 Y6.9493
G01 X21.9305 Y6.9347
G01 X21.9297 Y6.9200
G01 X21.9297 Y4.9200
G01 X21.9305 Y4.9053
G01 X21.9326 Y4.8907
G01 X21.9362 Y4.8765
G01 X21.9412 Y4.8626
G01 X21.9475 Y4.8493
G01 X21.9550 Y4.8367
G01 X21.9638 Y4.8248
G01 X21.9737 Y4.8139
G01 X21.9846 Y4.8040
G01 X21.9964 Y4.7953
G01 X22.0090 Y4.7877
G01 X22.0223 Y4.7814
G01 X22.0362 Y4.7765
G01 X22.0505 Y4.7729
G01 X22.0650 Y4.7707
G01 X22.0797 Y4.7700
G01 X24.0797 Y4.7700
G00 Z2.0000
G00 X22.0709 Y20.5097
G01 F60.00
G01 Z-0.1500
G01 F120.00
G01 X22.1176 Y20.4582
G01 X22.1280 Y20.4478
G01 X22.1898 Y20.3918
G01 X22.2012 Y20.3825
G01 X22.2682 Y20.3328
G01 X22.2804 Y20.3246
G01 X22.3519 Y20.2817
G01 X22.3649 Y20.2748
G01 X22.4403 Y20.2391
G01 X22.4539 Y20.2335
G01 X22.5325 Y20.2054
G01 X22.5466 Y20.2011
G01 X22.6275 Y20.1808
G01 X22.6419 Y20.1780
G01 X22.7244 Y20.1657
G01 X22.7391 Y20.1643
G01 X22.8297 Y20.1600
G01 X23.3297 Y20.1600
G01 X23.4204 Y20.1643
G01 X23.4351 Y20.1657
G01 X23.5176 Y20.1780
G01 X23.5320 Y20.1808
G01 X23.6129 Y20.2011
G01 X23.6270 Y20.2054
G01 X23.7056 Y20.2335
G01 X23.7192 Y20.2391
G01 X23.7946 Y20.2748
G01 X23.8076 Y20.2817
G01 X23.8791 Y20.3246
G01 X23.8913 Y20.3328
G01 X23.9583 Y20.3825
G01 X23.9697 Y20.3918
G01 X24.0315 Y20.4478
G01 X24.0419 Y20.4582
G01 X24.0980 Y20.5200
G01 X24.1073 Y20.5314
G01 X24.1570 Y20.5984
G01 X24.1652 Y20.6106
G01 X24.2080 Y20.6822
G01 X24.2150 Y20.6952
G01 X24.2506 Y20.7706
G01 X24.2563 Y20.7842
G01 X24.2844 Y20.8627
G01 X24.2887 Y20.8768
G01 X24.3089 Y20.9577
G01 X24.3118 Y20.9722
G01 X24.3240 Y21.0547
G01 X24.3255 Y21.0693
G01 X24.3296 Y21.1526
G01 X24.3296 Y21.1674
G01 X24.3255 Y21.2507
G01 X24.3240 Y21.2653
G01 X24.3118 Y21.3478
G01 X24.3089 Y21.3623
G01 X24.2887 Y21.4432
G01 X24.2844 Y21.4573
G01 X24.2563 Y21.5358
G01 X24.2506 Y21.5494
G01 X24.2150 Y21.6248
G01 X24.2080 Y21.6378
G01 X24.1652 Y21.7094
G01 X24.1570 Y21.7216
G01 X24.1073 Y21.7886
G01 X24.0980 Y21.8000
G01 X24.0419 Y21.8618
G01 X24.0315 Y21.8722
G01 X23.9697 Y21.9282
G01 X23.9583 Y21.9375
G01 X23.8913 Y21.9872
G01 X23.8791 Y21.9954
G01 X23.8076 Y22.0383
G01 X23.7946 Y22.0452
G01 X23.7192 Y22.0809
G01 X23.7056 Y22.0865
G01 X23.6270 Y22.1146
G01 X23.6129 Y22.1189
G01 X23.5320 Y22.1392
G01 X23.5176 Y22.1420
G01 X23.4351 Y22.1543
G01 X23.4204 Y22.1557
G01 X23.3297 Y22.1600
G01 X22.8224 Y22.1598
G01 X22.7391 Y22.1557
G01 X22.7244 Y22.1543
G01 X22.6419 Y22.1420
G01 X22.6275 Y22.1392
G01 X22.5466 Y22.1189
G01 X22.5325 Y22.1146
G01 X22.4539 Y22.0865
G01 X22.4403 Y22.0809
G01 X22.3649 Y22.0452
G01 X22.3519 Y22.0383
G01 X22.2804 Y21.9954
G01 X22.2682 Y21.9872
G01 X22.2012 Y21.9375
G01 X22.1898 Y21.9282
G01 X22.1280 Y21.8722
G01 X22.1176 Y21.8618
G01 X22.0709 Y21.8103
G01 X15.8497 Y21.8103
G01 X15.8497 Y22.2000
G01 X15.8490 Y22.2147
G01 X15.8469 Y22.2293
G01 X15.8433 Y22.2435
G01 X15.8383 Y22.2574
G01 X15.8320 Y22.2707
G01 X15.8245 Y22.2833
G01 X15.8157 Y22.2952
G01 X15.8058 Y22.3061
G01 X15.7949 Y22.3160
G01 X15.7831 Y22.3247
G01 X15.7705 Y22.3323
G01 X15.7572 Y22.3386
G01 X15.7433 Y22.3435
G01 X15.7290 Y22.3471
G01 X15.7145 Y22.3493
G01 X15.6997 Y22.3500
G01 X13.6997 Y22.3500
G01 X13.6850 Y22.3493
G01 X13.6705 Y22.3471
G01 X13.6562 Y22.3435
G01 X13.6423 Y22.3386
G01 X13.6290 Y22.3323
G01 X13.6164 Y22.3247
G01 X13.6046 Y22.3160
G01 X13.5937 Y22.3061
G01 X13.5838 Y22.2952
G01 X13.5750 Y22.2833
G01 X13.5675 Y22.2707
G01 X13.5612 Y22.2574
G01 X13.5562 Y22.2435
G01 X13.5526 Y22.2293
G01 X13.5505 Y22.2147
G01 X13.5497 Y22.2000
G01 X13.5497 Y20.2000
G01 X13.5505 Y20.1853
G01 X13.5526 Y20.1707
G01 X13.5562 Y20.1565
G01 X13.5612 Y20.1426
G01 X13.5675 Y20.1293
G01 X13.5750 Y20.1167
G01 X13.5838 Y20.1048
G01 X13.5937 Y20.0939
G01 X13.6046 Y20.0840
G01 X13.6164 Y20.0753
G01 X13.6290 Y20.0677
G01 X13.6423 Y20.0614
G01 X13.6562 Y20.0565
G01 X13.6705 Y20.0529
G01 X13.6850 Y20.0507
G01 X13.6997 Y20.0500
G01 X15.6997 Y20.0500
G01 X15.7145 Y20.0507
G01 X15.7290 Y20.0529
G01 X15.7433 Y20.0565
G01 X15.7572 Y20.0614
G01 X15.7705 Y20.0677
G01 X15.7831 Y20.0753
G01 X15.7949 Y20.0840
G01 X15.8058 Y20.0939
G01 X15.8157 Y20.1048
G01 X15.8245 Y20.1167
G01 X15.8320 Y20.1293
G01 X15.8383 Y20.1426
G01 X15.8433 Y20.1565
G01 X15.8469 Y20.1707
G01 X15.8490 Y20.1853
G01 X15.8497 Y20.2000
G01 X15.8497 Y20.5097
G01 X22.0709 Y20.5097
G00 Z2.0000
G00 X22.0709 Y25.5897
G01 F60.00
G01 Z-0.1500
G01 F120.00
G01 X22.1176 Y25.5382
G01 X22.1280 Y25.5278
G01 X22.1898 Y25.4718
G01 X22.2012 Y25.4625
G01 X22.2682 Y25.4128
G01 X22.2804 Y25.4046
G01 X22.3519 Y25.3617
G01 X22.3649 Y25.3548
G01 X22.4403 Y25.3191
G01 X22.4539 Y25.3135
G01 X22.5325 Y25.2854
G01 X22.5466 Y25.2811
G01 X22.6275 Y25.2608
G01 X22.6419 Y25.2580
G01 X22.7244 Y25.2457
G01 X22.7391 Y25.2443
G01 X22.8297 Y25.2400
G01 X23.3297 Y25.2400
G01 X23.4204 Y25.2443
G01 X23.4351 Y25.2457
G01 X23.5176 Y25.2580
G01 X23.5320 Y25.2608
G01 X23.6129 Y25.2811
G01 X23.6270 Y25.2854
G01 X23.7056 Y25.3135
G01 X23.7192 Y25.3191
G01 X23.7946 Y25.3548
G01 X23.8076 Y25.3617
G01 X23.8791 Y25.4046
G01 X23.8913 Y25.4128
G01 X23.9583 Y25.4625
G01 X23.9697 Y25.4718
G01 X24.0315 Y25.5278
G01 X24.0419 Y25.5382
G01 X24.0980 Y25.6000
G01 X24.1073 Y25.6114
G01 X24.1570 Y25.6784
G01 X24.1652 Y25.6906
G01 X24.2080 Y25.7622
G01 X24.2150 Y25.7752
G01 X24.2506 Y25.8506
G01 X24.2563 Y25.8642
G01 X24.2844 Y25.9427
G01 X24.2887 Y25.9568
G01 X24.3089 Y26.0377
G01 X24.3118 Y26.0522
G01 X24.3240 Y26.1347
G01 X24.3255 Y26.1493
G01 X24.3296 Y26.2326
G01 X24.3296 Y26.2474
G01 X24.3255 Y26.3307
G01 X24.3240 Y26.3453
G01 X24.3118 Y26.4278
G01 X24.3089 Y26.4423
G01 X24.2887 Y26.5232
G01 X24.2844 Y26.5373
G01 X24.2563 Y26.6158
G01 X24.2506 Y26.6294
G01 X24.2150 Y26.7048
G01 X24.2080 Y26.7178
G01 X24.1652 Y26.7894
G01 X24.1570 Y26.8016
G01 X24.1073 Y26.8686
G01 X24.0980 Y26.8800
G01 X24.0419 Y26.9418
G01 X24.0315 Y26.9522
G01 X23.9697 Y27.0082
G01 X23.9583 Y27.0175
G01 X23.8913 Y27.0672
G01 X23.8791 Y27.0754
G01 X23.8076 Y27.1183
G01 X23.7946 Y27.1252
G01 X23.7192 Y27.1609
G01 X23.7056 Y27.1665
G01 X23.6270 Y27.1946
G01 X23.6129 Y27.1989
G01 X23.5320 Y27.2192
G01 X23.5176 Y27.2220
G01 X23.4351 Y27.2343
G01 X23.4204 Y27.2357
G01 X23.3297 Y27.2400
G01 X22.8224 Y27.2398
G01 X22.7391 Y27.2357
G01 X22.7244 Y27.2343
G01 X22.6419 Y27.2220
G01 X22.6275 Y27.2192
G01 X22.5466 Y27.1989
G01 X22.5325 Y27.1946
G01 X22.4539 Y27.1665
G01 X22.4403 Y27.1609
G01 X22.3649 Y27.1252
G01 X22.3519 Y27.1183
G01 X22.2804 Y27.0754
G01 X22.2682 Y27.0672
G01 X22.2012 Y27.0175
G01 X22.1898 Y27.0082
G01 X22.1280 Y26.9522
G01 X22.1176 Y26.9418
G01 X22.0709 Y26.8903
G01 X20.5091 Y26.8903
G01 X16.3500 Y31.0493
G01 X16.3500 Y44.7000
G01 X16.3474 Y44.7564
G01 X16.3460 Y44.7710
G01 X16.3388 Y44.8196
G01 X16.3359 Y44.8340
G01 X16.3240 Y44.8817
G01 X16.3197 Y44.8957
G01 X16.3032 Y44.9420
G01 X16.2975 Y44.9556
G01 X16.2765 Y44.9999
G01 X16.2696 Y45.0129
G01 X16.2444 Y45.0550
G01 X16.2362 Y45.0673
G01 X16.2069 Y45.1067
G01 X16.1976 Y45.1181
G01 X16.1646 Y45.1545
G01 X15.6595 Y45.6598
G01 X15.6178 Y45.6978
G01 X15.6065 Y45.7072
G01 X15.5670 Y45.7364
G01 X15.5548 Y45.7446
G01 X15.5127 Y45.7698
G01 X15.4997 Y45.7768
G01 X15.4553 Y45.7978
G01 X15.4417 Y45.8034
G01 X15.3955 Y45.8199
G01 X15.3814 Y45.8242
G01 X15.3338 Y45.8361
G01 X15.3194 Y45.8390
G01 X15.2708 Y45.8462
G01 X15.2561 Y45.8477
G01 X15.1997 Y45.8503
G01 X12.3497 Y45.8503
G01 X12.3497 Y46.2000
G01 X12.3490 Y46.2147
G01 X12.3469 Y46.2293
G01 X12.3433 Y46.2435
G01 X12.3383 Y46.2574
G01 X12.3320 Y46.2707
G01 X12.3245 Y46.2833
G01 X12.3157 Y46.2952
G01 X12.3058 Y46.3061
G01 X12.2949 Y46.3160
G01 X12.2831 Y46.3247
G01 X12.2705 Y46.3323
G01 X12.2572 Y46.3386
G01 X12.2433 Y46.3435
G01 X12.2290 Y46.3471
G01 X12.2145 Y46.3493
G01 X12.1997 Y46.3500
G01 X10.1997 Y46.3500
G01 X10.1850 Y46.3493
G01 X10.1705 Y46.3471
G01 X10.1562 Y46.3435
G01 X10.1423 Y46.3386
G01 X10.1290 Y46.3323
G01 X10.1164 Y46.3247
G01 X10.1046 Y46.3160
G01 X10.0937 Y46.3061
G01 X10.0838 Y46.2952
G01 X10.0750 Y46.2833
G01 X10.0675 Y46.2707
G01 X10.0612 Y46.2574
G01 X10.0562 Y46.2435
G01 X10.0526 Y46.2293
G01 X10.0505 Y46.2147
G01 X10.0497 Y46.2000
G01 X10.0497 Y44.2000
G01 X10.0505 Y44.1853
G01 X10.0526 Y44.1707
G01 X10.0562 Y44.1565
G01 X10.0612 Y44.1426
G01 X10.0675 Y44.1293
G01 X10.0750 Y44.1167
G01 X10.0838 Y44.1048
G01 X10.0937 Y44.0939
G01 X10.1046 Y44.0840
G01 X10.1164 Y44.0753
G01 X10.1290 Y44.0677
G01 X10.1423 Y44.0614
G01 X10.1562 Y44.0565
G01 X10.1705 Y44.0529
G01 X10.1850 Y44.0507
G01 X10.1997 Y44.0500
G01 X12.1997 Y44.0500
G01 X12.2145 Y44.0507
G01 X12.2290 Y44.0529
G01 X12.2433 Y44.0565
G01 X12.2572 Y44.0614
G01 X12.2705 Y44.0677
G01 X12.2831 Y44.0753
G01 X12.2949 Y44.0840
G01 X12.3058 Y44.0939
G01 X12.3157 Y44.1048
G01 X12.3245 Y44.1167
G01 X12.3320 Y44.1293
G01 X12.3383 Y44.1426
G01 X12.3433 Y44.1565
G01 X12.3469 Y44.1707
G01 X12.3490 Y44.1853
G01 X12.3497 Y44.2000
G01 X12.3497 Y44.5497
G01 X14.9304 Y44.5497
G01 X15.0495 Y44.4307
G01 X15.0495 Y30.7800
G01 X15.0521 Y30.7236
G01 X15.0535 Y30.7090
G01 X15.0607 Y30.6604
G01 X15.0636 Y30.6460
G01 X15.0755 Y30.5983
G01 X15.0798 Y30.5843
G01 X15.0963 Y30.5380
G01 X15.1020 Y30.5244
G01 X15.1230 Y30.4801
G01 X15.1299 Y30.4671
G01 X15.1551 Y30.4250
G01 X15.1633 Y30.4127
G01 X15.1926 Y30.3733
G01 X15.2019 Y30.3619
G01 X15.2400 Y30.3202
G01 X19.7800 Y25.7802
G01 X19.8217 Y25.7422
G01 X19.8330 Y25.7328
G01 X19.8725 Y25.7036
G01 X19.8847 Y25.6954
G01 X19.9268 Y25.6702
G01 X19.9398 Y25.6632
G01 X19.9842 Y25.6422
G01 X19.9978 Y25.6366
G01 X20.0440 Y25.6201
G01 X20.0581 Y25.6158
G01 X20.1057 Y25.6039
G01 X20.1201 Y25.6010
G01 X20.1687 Y25.5938
G01 X20.1834 Y25.5923
G01 X20.2397 Y25.5897
G01 X22.0709 Y25.5897
G00 Z2.0000
G00 X22.0709 Y30.6697
G01 F60.00
G01 Z-0.1500
G01 F120.00
G01 X22.1176 Y30.6182
G01 X22.1280 Y30.6078
G01 X22.1898 Y30.5518
G01 X22.2012 Y30.5425
G01 X22.2682 Y30.4928
G01 X22.2804 Y30.4846
G01 X22.3519 Y30.4417
G01 X22.3649 Y30.4348
G01 X22.4403 Y30.3991
G01 X22.4539 Y30.3935
G01 X22.5325 Y30.3654
G01 X22.5466 Y30.3611
G01 X22.6275 Y30.3408
G01 X22.6419 Y30.3380
G01 X22.7244 Y30.3257
G01 X22.7391 Y30.3243
G01 X22.8224 Y30.3202
G01 X23.3371 Y30.3202
G01 X23.4204 Y30.3243
G01 X23.4351 Y30.3257
G01 X23.5176 Y30.3380
G01 X23.5320 Y30.3408
G01 X23.6129 Y30.3611
G01 X23.6270 Y30.3654
G01 X23.7056 Y30.3935
G01 X23.7192 Y30.3991
G01 X23.7946 Y30.4348
G01 X23.8076 Y30.4417
G01 X23.8791 Y30.4846
G01 X23.8913 Y30.4928
G01 X23.9583 Y30.5425
G01 X23.9697 Y30.5518
G01 X24.0315 Y30.6078
G01 X24.0419 Y30.6182
G01 X24.0980 Y30.6800
G01 X24.1073 Y30.6914
G01 X24.1570 Y30.7584
G01 X24.1652 Y30.7706
G01 X24.2080 Y30.8422
G01 X24.2150 Y30.8552
G01 X24.2506 Y30.9306
G01 X24.2563 Y30.9442
G01 X24.2844 Y31.0227
G01 X24.2887 Y31.0368
G01 X24.3089 Y31.1177
G01 X24.3118 Y31.1322
G01 X24.3240 Y31.2147
G01 X24.3255 Y31.2293
G01 X24.3296 Y31.3126
G01 X24.3296 Y31.3274
G01 X24.3255 Y31.4107
G01 X24.3240 Y31.4253
G01 X24.3118 Y31.5078
G01 X24.3089 Y31.5223
G01 X24.2887 Y31.6032
G01 X24.2844 Y31.6173
G01 X24.2563 Y31.6958
G01 X24.2506 Y31.7094
G01 X24.2150 Y31.7848
G01 X24.2080 Y31.7978
G01 X24.1652 Y31.8694
G01 X24.1570 Y31.8816
G01 X24.1073 Y31.9486
G01 X24.0980 Y31.9600
G01 X24.0419 Y32.0218
G01 X24.0315 Y32.0322
G01 X23.9697 Y32.0882
G01 X23.9583 Y32.0975
G01 X23.8913 Y32.1472
G01 X23.8791 Y32.1554
G01 X23.8076 Y32.1983
G01 X23.7946 Y32.2052
G01 X23.7192 Y32.2409
G01 X23.7056 Y32.2465
G01 X23.6270 Y32.2746
G01 X23.6129 Y32.2789
G01 X23.5320 Y32.2992
G01 X23.5176 Y32.3020
G01 X23.4351 Y32.3143
G01 X23.4204 Y32.3157
G01 X23.3297 Y32.3200
G01 X22.8297 Y32.3200
G01 X22.7391 Y32.3157
G01 X22.7244 Y32.3143
G01 X22.6419 Y32.3020
G01 X22.6275 Y32.2992
G01 X22.5466 Y32.2789
G01 X22.5325 Y32.2746
G01 X22.4539 Y32.2465
G01 X22.4403 Y32.2409
G01 X22.3649 Y32.2052
G01 X22.3519 Y32.1983
G01 X22.2804 Y32.1554
G01 X22.2682 Y32.1472
G01 X22.2012 Y32.0975
G01 X22.1898 Y32.0882
G01 X22.1280 Y32.0322
G01 X22.1176 Y32.0218
G01 X22.0709 Y31.9703
G01 X21.2491 Y31.9703
G01 X20.3500 Y32.8693
G01 X20.3500 Y49.9307
G01 X24.4691 Y54.0497
G01 X26.6997 Y54.0497
G01 X26.7561 Y54.0523
G01 X26.7708 Y54.0538
G01 X26.8194 Y54.0610
G01 X26.8338 Y54.0639
G01 X26.8814 Y54.0758
G01 X26.8955 Y54.0801
G01 X26.9417 Y54.0966
G01 X26.9553 Y54.1022
G01 X26.9997 Y54.1232
G01 X27.0127 Y54.1302
G01 X27.0548 Y54.1554
G01 X27.0670 Y54.1636
G01 X27.1065 Y54.1928
G01 X27.1178 Y54.2022
G01 X27.1595 Y54.2402
G01 X28.6595 Y55.7402
G01 X28.6976 Y55.7819
G01 X28.7069 Y55.7933
G01 X28.7362 Y55.8327
G01 X28.7444 Y55.8450
G01 X28.7696 Y55.8871
G01 X28.7765 Y55.9001
G01 X28.7975 Y55.9444
G01 X28.8032 Y55.9580
G01 X28.8197 Y56.0043
G01 X28.8240 Y56.0183
G01 X28.8359 Y56.0660
G01 X28.8388 Y56.0804
G01 X28.8460 Y56.1290
G01 X28.8474 Y56.1436
G01 X28.8498 Y56.1926
G01 X28.8500 Y56.4307
G01 X30.9691 Y58.5497
G01 X38.9304 Y58.5497
G01 X40.5495 Y56.9307
G01 X40.5495 Y56.1089
G01 X40.4980 Y56.0622
G01 X40.4876 Y56.0518
G01 X40.4315 Y55.9900
G01 X40.4222 Y55.9786
G01 X40.3725 Y55.9116
G01 X40.3643 Y55.8994
G01 X40.3215 Y55.8278
G01 X40.3145 Y55.8148
G01 X40.2789 Y55.7394
G01 X40.2732 Y55.7258
G01 X40.2451 Y55.6473
G01 X40.2408 Y55.6332
G01 X40.2206 Y55.5523
G01 X40.2177 Y55.5378
G01 X40.2055 Y55.4553
G01 X40.2040 Y55.4407
G01 X40.1997 Y55.3500
G01 X40.1997 Y55.0500
G01 X40.2040 Y54.9593
G01 X40.2055 Y54.9447
G01 X40.2177 Y54.8622
G01 X40.2206 Y54.8477
G01 X40.2408 Y54.7668
G01 X40.2451 Y54.7527
G01 X40.2732 Y54.6742
G01 X40.2789 Y54.6606
G01 X40.3145 Y54.5852
G01 X40.3215 Y54.5722
G01 X40.3643 Y54.5006
G01 X40.3725 Y54.4884
G01 X40.4222 Y54.4214
G01 X40.4315 Y54.4100
G01 X40.4876 Y54.3482
G01 X40.4980 Y54.3378
G01 X40.5598 Y54.2818
G01 X40.5712 Y54.2725
G01 X40.6382 Y54.2228
G01 X40.6504 Y54.2146
G01 X40.7219 Y54.1717
G01 X40.7349 Y54.1648
G01 X40.8103 Y54.1291
G01 X40.8239 Y54.1235
G01 X40.9025 Y54.0954
G01 X40.9166 Y54.0911
G01 X40.9975 Y54.0708
G01 X41.0119 Y54.0680
G01 X41.0944 Y54.0557
G01 X41.1091 Y54.0543
G01 X41.1924 Y54.0502
G01 X41.2071 Y54.0502
G01 X41.2904 Y54.0543
G01 X41.3051 Y54.0557
G01 X41.3876 Y54.0680
G01 X41.4020 Y54.0708
G01 X41.4829 Y54.0911
G01 X41.4970 Y54.0954
G01 X41.5756 Y54.1235
G01 X41.5892 Y54.1291
G01 X41.6646 Y54.1648
G01 X41.6776 Y54.1717
G01 X41.7491 Y54.2146
G01 X41.7613 Y54.2228
G01 X41.8283 Y54.2725
G01 X41.8397 Y54.2818
G01 X41.9015 Y54.3378
G01 X41.9119 Y54.3482
G01 X41.9680 Y54.4100
G01 X41.9773 Y54.4214
G01 X42.0270 Y54.4884
G01 X42.0352 Y54.5006
G01 X42.0780 Y54.5722
G01 X42.0850 Y54.5852
G01 X42.1206 Y54.6606
G01 X42.1263 Y54.6742
G01 X42.1544 Y54.7527
G01 X42.1587 Y54.7668
G01 X42.1789 Y54.8477
G01 X42.1818 Y54.8622
G01 X42.1940 Y54.9447
G01 X42.1955 Y54.9593
G01 X42.1996 Y55.0426
G01 X42.1997 Y55.3500
G01 X42.1955 Y55.4407
G01 X42.1940 Y55.4553
G01 X42.1818 Y55.5378
G01 X42.1789 Y55.5523
G01 X42.1587 Y55.6332
G01 X42.1544 Y55.6473
G01 X42.1263 Y55.7258
G01 X42.1206 Y55.7394
G01 X42.0850 Y55.8148
G01 X42.0780 Y55.8278
G01 X42.0352 Y55.8994
G01 X42.0270 Y55.9116
G01 X41.9773 Y55.9786
G01 X41.9680 Y55.9900
G01 X41.9119 Y56.0518
G01 X41.9015 Y56.0622
G01 X41.8500 Y56.1089
G01 X41.8498 Y57.2074
G01 X41.8474 Y57.2564
G01 X41.8460 Y57.2710
G01 X41.8388 Y57.3196
G01 X41.8359 Y57.3340
G01 X41.8240 Y57.3817
G01 X41.8197 Y57.3957
G01 X41.8032 Y57.4420
G01 X41.7975 Y57.4556
G01 X41.7765 Y57.4999
G01 X41.7696 Y57.5129
G01 X41.7444 Y57.5550
G01 X41.7362 Y57.5673
G01 X41.7069 Y57.6067
G01 X41.6976 Y57.6181
G01 X41.6595 Y57.6598
G01 X39.6595 Y59.6598
G01 X39.6178 Y59.6978
G01 X39.6065 Y59.7072
G01 X39.5670 Y59.7364
G01 X39.5548 Y59.7446
G01 X39.5127 Y59.7698
G01 X39.4997 Y59.7768
G01 X39.4553 Y59.7978
G01 X39.4417 Y59.8034
G01 X39.3955 Y59.8199
G01 X39.3814 Y59.8242
G01 X39.3338 Y59.8361
G01 X39.3194 Y59.8390
G01 X39.2708 Y59.8462
G01 X39.2561 Y59.8477
G01 X39.1997 Y59.8503
G01 X30.6997 Y59.8503
G01 X30.6434 Y59.8477
G01 X30.6287 Y59.8462
G01 X30.5801 Y59.8390
G01 X30.5657 Y59.8361
G01 X30.5181 Y59.8242
G01 X30.5040 Y59.8199
G01 X30.4578 Y59.8034
G01 X30.4442 Y59.7978
G01 X30.3998 Y59.7768
G01 X30.3868 Y59.7698
G01 X30.3447 Y59.7446
G01 X30.3325 Y59.7364
G01 X30.2930 Y59.7072
G01 X30.2817 Y59.6978
G01 X30.2400 Y59.6598
G01 X27.7400 Y57.1598
G01 X27.7019 Y57.1181
G01 X27.6926 Y57.1067
G01 X27.6633 Y57.0673
G01 X27.6551 Y57.0550
G01 X27.6299 Y57.0129
G01 X27.6230 Y56.9999
G01 X27.6020 Y56.9556
G01 X27.5963 Y56.9420
G01 X27.5798 Y56.8957
G01 X27.5755 Y56.8817
G01 X27.5636 Y56.8340
G01 X27.5607 Y56.8196
G01 X27.5535 Y56.7710
G01 X27.5521 Y56.7564
G01 X27.5497 Y56.7074
G01 X27.5495 Y56.4693
G01 X26.4304 Y55.3503
G01 X24.1924 Y55.3501
G01 X24.1434 Y55.3477
G01 X24.1287 Y55.3462
G01 X24.0801 Y55.3390
G01 X24.0657 Y55.3361
G01 X24.0181 Y55.3242
G01 X24.0040 Y55.3199
G01 X23.9578 Y55.3034
G01 X23.9442 Y55.2978
G01 X23.8998 Y55.2768
G01 X23.8868 Y55.2698
G01 X23.8447 Y55.2446
G01 X23.8325 Y55.2364
G01 X23.7930 Y55.2072
G01 X23.7817 Y55.1978
G01 X23.7400 Y55.1598
G01 X19.2400 Y50.6598
G01 X19.2019 Y50.6181
G01 X19.1926 Y50.6067
G01 X19.1633 Y50.5673
G01 X19.1551 Y50.5550
G01 X19.1299 Y50.5129
G01 X19.1230 Y50.4999
G01 X19.1020 Y50.4556
G01 X19.0963 Y50.4420
G01 X19.0798 Y50.3957
G01 X19.0755 Y50.3817
G01 X19.0636 Y50.3340
G01 X19.0607 Y50.3196
G01 X19.0535 Y50.2710
G01 X19.0521 Y50.2564
G01 X19.0495 Y50.2000
G01 X19.0495 Y32.6000
G01 X19.0521 Y32.5436
G01 X19.0535 Y32.5290
G01 X19.0607 Y32.4804
G01 X19.0636 Y32.4660
G01 X19.0755 Y32.4183
G01 X19.0798 Y32.4043
G01 X19.0963 Y32.3580
G01 X19.1020 Y32.3444
G01 X19.1230 Y32.3001
G01 X19.1299 Y32.2871
G01 X19.1551 Y32.2450
G01 X19.1633 Y32.2327
G01 X19.1926 Y32.1933
G01 X19.2019 Y32.1819
G01 X19.2400 Y32.1402
G01 X20.5200 Y30.8602
G01 X20.5617 Y30.8222
G01 X20.5730 Y30.8128
G01 X20.6125 Y30.7836
G01 X20.6247 Y30.7754
G01 X20.6668 Y30.7502
G01 X20.6798 Y30.7432
G01 X20.7242 Y30.7222
G01 X20.7378 Y30.7166
G01 X20.7840 Y30.7001
G01 X20.7981 Y30.6958
G01 X20.8457 Y30.6839
G01 X20.8601 Y30.6810
G01 X20.9087 Y30.6738
G01 X20.9234 Y30.6723
G01 X20.9797 Y30.6697
G01 X22.0709 Y30.6697
G00 Z2.0000
G00 X24.0886 Y33.2097
G01 F60.00
G01 Z-0.1500
G01 F120.00
G01 X28.8597 Y33.2097
G01 X28.9161 Y33.2123
G01 X28.9308 Y33.2138
G01 X28.9794 Y33.2210
G01 X28.9938 Y33.2239
G01 X29.0414 Y33.2358
G01 X29.0555 Y33.2401
G01 X29.1017 Y33.2566
G01 X29.1153 Y33.2622
G01 X29.1597 Y33.2832
G01 X29.1727 Y33.2902
G01 X29.2148 Y33.3154
G01 X29.2270 Y33.3236
G01 X29.2665 Y33.3528
G01 X29.2778 Y33.3622
G01 X29.3195 Y33.4002
G01 X32.6595 Y36.7402
G01 X32.6976 Y36.7819
G01 X32.7069 Y36.7933
G01 X32.7362 Y36.8327
G01 X32.7444 Y36.8450
G01 X32.7696 Y36.8871
G01 X32.7765 Y36.9001
G01 X32.7975 Y36.9444
G01 X32.8032 Y36.9580
G01 X32.8197 Y37.0043
G01 X32.8240 Y37.0183
G01 X32.8359 Y37.0660
G01 X32.8388 Y37.0804
G01 X32.8460 Y37.1290
G01 X32.8474 Y37.1436
G01 X32.8500 Y37.2000
G01 X32.8500 Y44.9307
G01 X33.4691 Y45.5497
G01 X37.7071 Y45.5499
G01 X37.7561 Y45.5523
G01 X37.7708 Y45.5538
G01 X37.8194 Y45.5610
G01 X37.8338 Y45.5639
G01 X37.8814 Y45.5758
G01 X37.8955 Y45.5801
G01 X37.9417 Y45.5966
G01 X37.9553 Y45.6022
G01 X37.9997 Y45.6232
G01 X38.0127 Y45.6302
G01 X38.0548 Y45.6554
G01 X38.0670 Y45.6636
G01 X38.1065 Y45.6928
G01 X38.1178 Y45.7022
G01 X38.1595 Y45.7402
G01 X41.6595 Y49.2402
G01 X41.6976 Y49.2819
G01 X41.7069 Y49.2933
G01 X41.7362 Y49.3327
G01 X41.7444 Y49.3450
G01 X41.7696 Y49.3871
G01 X41.7765 Y49.4001
G01 X41.7975 Y49.4444
G01 X41.8032 Y49.4580
G01 X41.8197 Y49.5043
G01 X41.8240 Y49.5183
G01 X41.8359 Y49.5660
G01 X41.8388 Y49.5804
G01 X41.8460 Y49.6290
G01 X41.8474 Y49.6436
G01 X41.8500 Y49.7000
G01 X41.8500 Y51.7511
G01 X41.9015 Y51.7978
G01 X41.9119 Y51.8082
G01 X41.9680 Y51.8700
G01 X41.9773 Y51.8814
G01 X42.0270 Y51.9484
G01 X42.0352 Y51.9606
G01 X42.0780 Y52.0322
G01 X42.0850 Y52.0452
G01 X42.1206 Y52.1206
G01 X42.1263 Y52.1342
G01 X42.1544 Y52.2127
G01 X42.1587 Y52.2268
G01 X42.1789 Y52.3077
G01 X42.1818 Y52.3222
G01 X42.1940 Y52.4047
G01 X42.1955 Y52.4193
G01 X42.1997 Y52.5100
G01 X42.1997 Y52.8100
G01 X42.1955 Y52.9007
G01 X42.1940 Y52.9153
G01 X42.1818 Y52.9978
G01 X42.1789 Y53.0123
G01 X42.1587 Y53.0932
G01 X42.1544 Y53.1073
G01 X42.1263 Y53.1858
G01 X42.1206 Y53.1994
G01 X42.0850 Y53.2748
G01 X42.0780 Y53.2878
G01 X42.0352 Y53.3594
G01 X42.0270 Y53.3716
G01 X41.9773 Y53.4386
G01 X41.9680 Y53.4500
G01 X41.9119 Y53.5118
G01 X41.9015 Y53.5222
G01 X41.8397 Y53.5782
G01 X41.8283 Y53.5875
G01 X41.7613 Y53.6372
G01 X41.7491 Y53.6454
G01 X41.6776 Y53.6883
G01 X41.6646 Y53.6952
G01 X41.5892 Y53.7309
G01 X41.5756 Y53.7365
G01 X41.4970 Y53.7646
G01 X41.4829 Y53.7689
G01 X41.4020 Y53.7892
G01 X41.3876 Y53.7920
G01 X41.3051 Y53.8043
G01 X41.2904 Y53.8057
G01 X41.2071 Y53.8098
G01 X41.1924 Y53.8098
G01 X41.1091 Y53.8057
G01 X41.0944 Y53.8043
G01 X41.0119 Y53.7920
G01 X40.9975 Y53.7892
G01 X40.9166 Y53.7689
G01 X40.9025 Y53.7646
G01 X40.8239 Y53.7365
G01 X40.8103 Y53.7309
G01 X40.7349 Y53.6952
G01 X40.7219 Y53.6883
G01 X40.6504 Y53.6454
G01 X40.6382 Y53.6372
G01 X40.5712 Y53.5875
G01 X40.5598 Y53.5782
G01 X40.4980 Y53.5222
G01 X40.4876 Y53.5118
G01 X40.4315 Y53.4500
G01 X40.4222 Y53.4386
G01 X40.3725 Y53.3716
G01 X40.3643 Y53.3594
G01 X40.3215 Y53.2878
G01 X40.3145 Y53.2748
G01 X40.2789 Y53.1994
G01 X40.2732 Y53.1858
G01 X40.2451 Y53.1073
G01 X40.2408 Y53.0932
G01 X40.2206 Y53.0123
G01 X40.2177 Y52.9978
G01 X40.2055 Y52.9153
G01 X40.2040 Y52.9007
G01 X40.1997 Y52.8100
G01 X40.1997 Y52.5100
G01 X40.2040 Y52.4193
G01 X40.2055 Y52.4047
G01 X40.2177 Y52.3222
G01 X40.2206 Y52.3077
G01 X40.2408 Y52.2268
G01 X40.2451 Y52.2127
G01 X40.2732 Y52.1342
G01 X40.2789 Y52.1206
G01 X40.3145 Y52.0452
G01 X40.3215 Y52.0322
G01 X40.3643 Y51.9606
G01 X40.3725 Y51.9484
G01 X40.4222 Y51.8814
G01 X40.4315 Y51.8700
G01 X40.4876 Y51.8082
G01 X40.4980 Y51.7978
G01 X40.5495 Y51.7511
G01 X40.5495 Y49.9693
G01 X37.4304 Y46.8503
G01 X33.1997 Y46.8503
G01 X33.1434 Y46.8477
G01 X33.1287 Y46.8462
G01 X33.0801 Y46.8390
G01 X33.0657 Y46.8361
G01 X33.0181 Y46.8242
G01 X33.0040 Y46.8199
G01 X32.9578 Y46.8034
G01 X32.9442 Y46.7978
G01 X32.8998 Y46.7768
G01 X32.8868 Y46.7698
G01 X32.8447 Y46.7446
G01 X32.8325 Y46.7364
G01 X32.7930 Y46.7072
G01 X32.7817 Y46.6978
G01 X32.7453 Y46.6649
G01 X31.7400 Y45.6598
G01 X31.7019 Y45.6181
G01 X31.6926 Y45.6067
G01 X31.6633 Y45.5673
G01 X31.6551 Y45.5550
G01 X31.6299 Y45.5129
G01 X31.6230 Y45.4999
G01 X31.6020 Y45.4556
G01 X31.5963 Y45.4420
G01 X31.5798 Y45.3957
G01 X31.5755 Y45.3817
G01 X31.5636 Y45.3340
G01 X31.5607 Y45.3196
G01 X31.5535 Y45.2710
G01 X31.5521 Y45.2564
G01 X31.5495 Y45.2000
G01 X31.5495 Y37.4693
G01 X28.5904 Y34.5103
G01 X24.0886 Y34.5103
G01 X24.0419 Y34.5618
G01 X24.0315 Y34.5722
G01 X23.9697 Y34.6282
G01 X23.9583 Y34.6375
G01 X23.8913 Y34.6872
G01 X23.8791 Y34.6954
G01 X23.8076 Y34.7383
G01 X23.7946 Y34.7452
G01 X23.7192 Y34.7809
G01 X23.7056 Y34.7865
G01 X23.6270 Y34.8146
G01 X23.6129 Y34.8189
G01 X23.5320 Y34.8392
G01 X23.5176 Y34.8420
G01 X23.4351 Y34.8543
G01 X23.4204 Y34.8557
G01 X23.3297 Y34.8600
G01 X22.8224 Y34.8598
G01 X22.7391 Y34.8557
G01 X22.7244 Y34.8543
G01 X22.6419 Y34.8420
G01 X22.6275 Y34.8392
G01 X22.5466 Y34.8189
G01 X22.5325 Y34.8146
G01 X22.4539 Y34.7865
G01 X22.4403 Y34.7809
G01 X22.3649 Y34.7452
G01 X22.3519 Y34.7383
G01 X22.2804 Y34.6954
G01 X22.2682 Y34.6872
G01 X22.2012 Y34.6375
G01 X22.1898 Y34.6282
G01 X22.1280 Y34.5722
G01 X22.1176 Y34.5618
G01 X22.0615 Y34.5000
G01 X22.0522 Y34.4886
G01 X22.0025 Y34.4216
G01 X21.9943 Y34.4094
G01 X21.9515 Y34.3378
G01 X21.9445 Y34.3248
G01 X21.9089 Y34.2494
G01 X21.9032 Y34.2358
G01 X21.8751 Y34.1573
G01 X21.8708 Y34.1432
G01 X21.8506 Y34.0623
G01 X21.8477 Y34.0478
G01 X21.8355 Y33.9653
G01 X21.8340 Y33.9507
G01 X21.8299 Y33.8674
G01 X21.8299 Y33.8526
G01 X21.8340 Y33.7693
G01 X21.8355 Y33.7547
G01 X21.8477 Y33.6722
G01 X21.8506 Y33.6577
G01 X21.8708 Y33.5768
G01 X21.8751 Y33.5627
G01 X21.9032 Y33.4842
G01 X21.9089 Y33.4706
G01 X21.9445 Y33.3952
G01 X21.9515 Y33.3822
G01 X21.9943 Y33.3106
G01 X22.0025 Y33.2984
G01 X22.0522 Y33.2314
G01 X22.0615 Y33.2200
G01 X22.1176 Y33.1582
G01 X22.1280 Y33.1478
G01 X22.1898 Y33.0918
G01 X22.2012 Y33.0825
G01 X22.2682 Y33.0328
G01 X22.2804 Y33.0246
G01 X22.3519 Y32.9817
G01 X22.3649 Y32.9748
G01 X22.4403 Y32.9391
G01 X22.4539 Y32.9335
G01 X22.5325 Y32.9054
G01 X22.5466 Y32.9011
G01 X22.6275 Y32.8808
G01 X22.6419 Y32.8780
G01 X22.7244 Y32.8657
G01 X22.7391 Y32.8643
G01 X22.8297 Y32.8600
G01 X23.3297 Y32.8600
G01 X23.4204 Y32.8643
G01 X23.4351 Y32.8657
G01 X23.5176 Y32.8780
G01 X23.5320 Y32.8808
G01 X23.6129 Y32.9011
G01 X23.6270 Y32.9054
G01 X23.7056 Y32.9335
G01 X23.7192 Y32.9391
G01 X23.7946 Y32.9748
G01 X23.8076 Y32.9817
G01 X23.8791 Y33.0246
G01 X23.8913 Y33.0328
G01 X23.9583 Y33.0825
G01 X23.9697 Y33.0918
G01 X24.0315 Y33.1478
G01 X24.0419 Y33.1582
G01 X24.0886 Y33.2097
G00 Z2.0000
G00 X24.3240 Y36.2947
G01 F60.00
G01 Z-0.1500
G01 F120.00
G01 X24.3255 Y36.3093
G01 X24.3296 Y36.3926
G01 X24.3296 Y36.4074
G01 X24.3255 Y36.4907
G01 X24.3240 Y36.5053
G01 X24.3118 Y36.5878
G01 X24.3089 Y36.6023
G01 X24.2887 Y36.6832
G01 X24.2844 Y36.6973
G01 X24.2563 Y36.7758
G01 X24.2506 Y36.7894
G01 X24.2150 Y36.8648
G01 X24.2080 Y36.8778
G01 X24.1652 Y36.9494
G01 X24.1570 Y36.9616
G01 X24.1073 Y37.0286
G01 X24.0980 Y37.0400
G01 X24.0419 Y37.1018
G01 X24.0315 Y37.1122
G01 X23.9697 Y37.1682
G01 X23.9583 Y37.1775
G01 X23.8913 Y37.2272
G01 X23.8791 Y37.2354
G01 X23.8076 Y37.2783
G01 X23.7946 Y37.2852
G01 X23.7192 Y37.3209
G01 X23.7056 Y37.3265
G01 X23.6270 Y37.3546
G01 X23.6129 Y37.3589
G01 X23.5320 Y37.3792
G01 X23.5176 Y37.3820
G01 X23.4351 Y37.3943
G01 X23.4204 Y37.3957
G01 X23.3297 Y37.4000
G01 X22.8297 Y37.4000
G01 X22.7391 Y37.3957
G01 X22.7244 Y37.3943
G01 X22.6419 Y37.3820
G01 X22.6275 Y37.3792
G01 X22.5466 Y37.3589
G01 X22.5325 Y37.3546
G01 X22.4539 Y37.3265
G01 X22.4403 Y37.3209
G01 X22.3649 Y37.2852
G01 X22.3519 Y37.2783
G01 X22.2804 Y37.2354
G01 X22.2682 Y37.2272
G01 X22.2012 Y37.1775
G01 X22.1898 Y37.1682
G01 X22.1280 Y37.1122
G01 X22.1176 Y37.1018
G01 X22.0615 Y37.0400
G01 X22.0522 Y37.0286
G01 X22.0025 Y36.9616
G01 X21.9943 Y36.9494
G01 X21.9515 Y36.8778
G01 X21.9445 Y36.8648
G01 X21.9089 Y36.7894
G01 X21.9032 Y36.7758
G01 X21.8751 Y36.6973
G01 X21.8708 Y36.6832
G01 X21.8506 Y36.6023
G01 X21.8477 Y36.5878
G01 X21.8355 Y36.5053
G01 X21.8340 Y36.4907
G01 X21.8299 Y36.4074
G01 X21.8299 Y36.3926
G01 X21.8340 Y36.3093
G01 X21.8355 Y36.2947
G01 X21.8477 Y36.2122
G01 X21.8506 Y36.1977
G01 X21.8708 Y36.1168
G01 X21.8751 Y36.1027
G01 X21.9032 Y36.0242
G01 X21.9089 Y36.0106
G01 X21.9445 Y35.9352
G01 X21.9515 Y35.9222
G01 X21.9943 Y35.8506
G01 X22.0025 Y35.8384
G01 X22.0522 Y35.7714
G01 X22.0615 Y35.7600
G01 X22.1176 Y35.6982
G01 X22.1280 Y35.6878
G01 X22.1898 Y35.6318
G01 X22.2012 Y35.6225
G01 X22.2682 Y35.5728
G01 X22.2804 Y35.5646
G01 X22.3519 Y35.5217
G01 X22.3649 Y35.5148
G01 X22.4403 Y35.4791
G01 X22.4539 Y35.4735
G01 X22.5325 Y35.4454
G01 X22.5466 Y35.4411
G01 X22.6275 Y35.4208
G01 X22.6419 Y35.4180
G01 X22.7244 Y35.4057
G01 X22.7391 Y35.4043
G01 X22.8297 Y35.4000
G01 X23.3297 Y35.4000
G01 X23.4204 Y35.4043
G01 X23.4351 Y35.4057
G01 X23.5176 Y35.4180
G01 X23.5320 Y35.4208
G01 X23.6129 Y35.4411
G01 X23.6270 Y35.4454
G01 X23.7056 Y35.4735
G01 X23.7192 Y35.4791
G01 X23.7946 Y35.5148
G01 X23.8076 Y35.5217
G01 X23.8791 Y35.5646
G01 X23.8913 Y35.5728
G01 X23.9583 Y35.6225
G01 X23.9697 Y35.6318
G01 X24.0315 Y35.6878
G01 X24.0419 Y35.6982
G01 X24.0980 Y35.7600
G01 X24.1073 Y35.7714
G01 X24.1570 Y35.8384
G01 X24.1652 Y35.8506
G01 X24.2080 Y35.9222
G01 X24.2150 Y35.9352
G01 X24.2506 Y36.0106
G01 X24.2563 Y36.0242
G01 X24.2844 Y36.1027
G01 X24.2887 Y36.1168
G01 X24.3089 Y36.1977
G01 X24.3118 Y36.2122
G01 X24.3240 Y36.2947
G00 Z2.0000
G00 X24.0886 Y38.2897
G01 F60.00
G01 Z-0.1500
G01 F120.00
G01 X28.4397 Y38.2897
G01 X28.4961 Y38.2923
G01 X28.5108 Y38.2938
G01 X28.5594 Y38.3010
G01 X28.5738 Y38.3039
G01 X28.6214 Y38.3158
G01 X28.6355 Y38.3201
G01 X28.6817 Y38.3366
G01 X28.6953 Y38.3422
G01 X28.7397 Y38.3632
G01 X28.7527 Y38.3702
G01 X28.7948 Y38.3954
G01 X28.8070 Y38.4036
G01 X28.8465 Y38.4328
G01 X28.8578 Y38.4422
G01 X28.8942 Y38.4751
G01 X30.4095 Y39.9902
G01 X30.4476 Y40.0319
G01 X30.4569 Y40.0433
G01 X30.4862 Y40.0827
G01 X30.4944 Y40.0950
G01 X30.5196 Y40.1371
G01 X30.5265 Y40.1501
G01 X30.5475 Y40.1944
G01 X30.5532 Y40.2080
G01 X30.5697 Y40.2543
G01 X30.5740 Y40.2683
G01 X30.5859 Y40.3160
G01 X30.5888 Y40.3304
G01 X30.5960 Y40.3790
G01 X30.5974 Y40.3936
G01 X30.6000 Y40.4500
G01 X30.6000 Y47.6807
G01 X30.7831 Y47.8638
G01 X30.8004 Y47.8583
G01 X30.9194 Y47.8285
G01 X30.9339 Y47.8256
G01 X31.0552 Y47.8076
G01 X31.0699 Y47.8062
G01 X31.1924 Y47.8002
G01 X31.2071 Y47.8002
G01 X31.3296 Y47.8062
G01 X31.3443 Y47.8076
G01 X31.4656 Y47.8256
G01 X31.4801 Y47.8285
G01 X31.5991 Y47.8583
G01 X31.6131 Y47.8626
G01 X31.7286 Y47.9039
G01 X31.7422 Y47.9096
G01 X31.8531 Y47.9620
G01 X31.8661 Y47.9689
G01 X31.9713 Y48.0320
G01 X31.9836 Y48.0402
G01 X32.0821 Y48.1133
G01 X32.0935 Y48.1226
G01 X32.1844 Y48.2050
G01 X32.1948 Y48.2154
G01 X32.2772 Y48.3063
G01 X32.2865 Y48.3177
G01 X32.3596 Y48.4162
G01 X32.3677 Y48.4284
G01 X32.4308 Y48.5336
G01 X32.4377 Y48.5466
G01 X32.4902 Y48.6575
G01 X32.4958 Y48.6711
G01 X32.5372 Y48.7866
G01 X32.5414 Y48.8007
G01 X32.5712 Y48.9197
G01 X32.5741 Y48.9341
G01 X32.5921 Y49.0555
G01 X32.5936 Y49.0701
G01 X32.5996 Y49.1926
G01 X32.5996 Y49.2074
G01 X32.5936 Y49.3299
G01 X32.5921 Y49.3445
G01 X32.5741 Y49.4659
G01 X32.5712 Y49.4803
G01 X32.5414 Y49.5993
G01 X32.5372 Y49.6134
G01 X32.4958 Y49.7289
G01 X32.4902 Y49.7425
G01 X32.4377 Y49.8534
G01 X32.4308 Y49.8664
G01 X32.3677 Y49.9716
G01 X32.3596 Y49.9838
G01 X32.2865 Y50.0823
G01 X32.2772 Y50.0937
G01 X32.1948 Y50.1846
G01 X32.1844 Y50.1950
G01 X32.0935 Y50.2774
G01 X32.0821 Y50.2867
G01 X31.9836 Y50.3598
G01 X31.9713 Y50.3680
G01 X31.8661 Y50.4311
G01 X31.8531 Y50.4380
G01 X31.7422 Y50.4904
G01 X31.7286 Y50.4961
G01 X31.6131 Y50.5374
G01 X31.5991 Y50.5417
G01 X31.4801 Y50.5715
G01 X31.4656 Y50.5744
G01 X31.3443 Y50.5924
G01 X31.3296 Y50.5938
G01 X31.2071 Y50.5998
G01 X31.1924 Y50.5998
G01 X31.0699 Y50.5938
G01 X31.0552 Y50.5924
G01 X30.9339 Y50.5744
G01 X30.9194 Y50.5715
G01 X30.8004 Y50.5417
G01 X30.7864 Y50.5374
G01 X30.6709 Y50.4961
G01 X30.6573 Y50.4904
G01 X30.5464 Y50.4380
G01 X30.5334 Y50.4311
G01 X30.4282 Y50.3680
G01 X30.4159 Y50.3598
G01 X30.3174 Y50.2867
G01 X30.3060 Y50.2774
G01 X30.2151 Y50.1950
G01 X30.2047 Y50.1846
G01 X30.1223 Y50.0937
G01 X30.1130 Y50.0823
G01 X30.0399 Y49.9838
G01 X30.0318 Y49.9716
G01 X29.9687 Y49.8664
G01 X29.9617 Y49.8534
G01 X29.9093 Y49.7425
G01 X29.9037 Y49.7289
G01 X29.8623 Y49.6134
G01 X29.8581 Y49.5993
G01 X29.8283 Y49.4803
G01 X29.8254 Y49.4659
G01 X29.8074 Y49.3445
G01 X29.8059 Y49.3299
G01 X29.7999 Y49.2074
G01 X29.7999 Y49.1926
G01 X29.8059 Y49.0701
G01 X29.8074 Y49.0555
G01 X29.8254 Y48.9341
G01 X29.8283 Y48.9197
G01 X29.8581 Y48.8007
G01 X29.8635 Y48.7834
G01 X29.4900 Y48.4098
G01 X29.4519 Y48.3681
G01 X29.4426 Y48.3567
G01 X29.4133 Y48.3173
G01 X29.4051 Y48.3050
G01 X29.3799 Y48.2629
G01 X29.3730 Y48.2500
G01 X29.3520 Y48.2056
G01 X29.3463 Y48.1920
G01 X29.3298 Y48.1457
G01 X29.3255 Y48.1317
G01 X29.3136 Y48.0840
G01 X29.3107 Y48.0696
G01 X29.3035 Y48.0210
G01 X29.3021 Y48.0064
G01 X29.2995 Y47.9500
G01 X29.2995 Y40.7193
G01 X28.1704 Y39.5903
G01 X24.0886 Y39.5903
G01 X24.0419 Y39.6418
G01 X24.0315 Y39.6522
G01 X23.9697 Y39.7082
G01 X23.9583 Y39.7175
G01 X23.8913 Y39.7672
G01 X23.8791 Y39.7754
G01 X23.8076 Y39.8183
G01 X23.7946 Y39.8252
G01 X23.7192 Y39.8609
G01 X23.7056 Y39.8665
G01 X23.6270 Y39.8946
G01 X23.6129 Y39.8989
G01 X23.5320 Y39.9192
G01 X23.5176 Y39.9220
G01 X23.4351 Y39.9343
G01 X23.4204 Y39.9357
G01 X23.3297 Y39.9400
G01 X22.8224 Y39.9398
G01 X22.7391 Y39.9357
G01 X22.7244 Y39.9343
G01 X22.6419 Y39.9220
G01 X22.6275 Y39.9192
G01 X22.5466 Y39.8989
G01 X22.5325 Y39.8946
G01 X22.4539 Y39.8665
G01 X22.4403 Y39.8609
G01 X22.3649 Y39.8252
G01 X22.3519 Y39.8183
G01 X22.2804 Y39.7754
G01 X22.2682 Y39.7672
G01 X22.2012 Y39.7175
G01 X22.1898 Y39.7082
G01 X22.1280 Y39.6522
G01 X22.1176 Y39.6418
G01 X22.0615 Y39.5800
G01 X22.0522 Y39.5686
G01 X22.0025 Y39.5016
G01 X21.9943 Y39.4894
G01 X21.9515 Y39.4178
G01 X21.9445 Y39.4048
G01 X21.9089 Y39.3294
G01 X21.9032 Y39.3158
G01 X21.8751 Y39.2373
G01 X21.8708 Y39.2232
G01 X21.8506 Y39.1423
G01 X21.8477 Y39.1278
G01 X21.8355 Y39.0453
G01 X21.8340 Y39.0307
G01 X21.8299 Y38.9474
G01 X21.8299 Y38.9326
G01 X21.8340 Y38.8493
G01 X21.8355 Y38.8347
G01 X21.8477 Y38.7522
G01 X21.8506 Y38.7377
G01 X21.8708 Y38.6568
G01 X21.8751 Y38.6427
G01 X21.9032 Y38.5642
G01 X21.9089 Y38.5506
G01 X21.9445 Y38.4752
G01 X21.9515 Y38.4622
G01 X21.9943 Y38.3906
G01 X22.0025 Y38.3784
G01 X22.0522 Y38.3114
G01 X22.0615 Y38.3000
G01 X22.1176 Y38.2382
G01 X22.1280 Y38.2278
G01 X22.1898 Y38.1718
G01 X22.2012 Y38.1625
G01 X22.2682 Y38.1128
G01 X22.2804 Y38.1046
G01 X22.3519 Y38.0617
G01 X22.3649 Y38.0548
G01 X22.4403 Y38.0191
G01 X22.4539 Y38.0135
G01 X22.5325 Y37.9854
G01 X22.5466 Y37.9811
G01 X22.6275 Y37.9608
G01 X22.6419 Y37.9580
G01 X22.7244 Y37.9457
G01 X22.7391 Y37.9443
G01 X22.8297 Y37.9400
G01 X23.3297 Y37.9400
G01 X23.4204 Y37.9443
G01 X23.4351 Y37.9457
G01 X23.5176 Y37.9580
G01 X23.5320 Y37.9608
G01 X23.6129 Y37.9811
G01 X23.6270 Y37.9854
G01 X23.7056 Y38.0135
G01 X23.7192 Y38.0191
G01 X23.7946 Y38.0548
G01 X23.8076 Y38.0617
G01 X23.8791 Y38.1046
G01 X23.8913 Y38.1128
G01 X23.9583 Y38.1625
G01 X23.9697 Y38.1718
G01 X24.0315 Y38.2278
G01 X24.0419 Y38.2382
G01 X24.0886 Y38.2897
G00 Z2.0000
G00 X22.4295 Y42.3958
G01 F60.00
G01 Z-0.1500
G01 F120.00
G01 X22.3649 Y42.3652
G01 X22.3519 Y42.3583
G01 X22.2804 Y42.3154
G01 X22.2682 Y42.3072
G01 X22.2012 Y42.2575
G01 X22.1898 Y42.2482
G01 X22.1280 Y42.1922
G01 X22.1176 Y42.1818
G01 X22.0615 Y42.1200
G01 X22.0522 Y42.1086
G01 X22.0025 Y42.0416
G01 X21.9943 Y42.0294
G01 X21.9515 Y41.9578
G01 X21.9445 Y41.9448
G01 X21.9089 Y41.8694
G01 X21.9032 Y41.8558
G01 X21.8751 Y41.7773
G01 X21.8708 Y41.7632
G01 X21.8506 Y41.6823
G01 X21.8477 Y41.6678
G01 X21.8355 Y41.5853
G01 X21.8340 Y41.5707
G01 X21.8299 Y41.4874
G01 X21.8299 Y41.4726
G01 X21.8340 Y41.3893
G01 X21.8355 Y41.3747
G01 X21.8477 Y41.2922
G01 X21.8506 Y41.2777
G01 X21.8708 Y41.1968
G01 X21.8751 Y41.1827
G01 X21.9032 Y41.1042
G01 X21.9089 Y41.0906
G01 X21.9445 Y41.0152
G01 X21.9515 Y41.0022
G01 X21.9943 Y40.9306
G01 X22.0025 Y40.9184
G01 X22.0522 Y40.8514
G01 X22.0615 Y40.8400
G01 X22.1176 Y40.7782
G01 X22.1280 Y40.7678
G01 X22.1898 Y40.7118
G01 X22.2012 Y40.7025
G01 X22.2682 Y40.6528
G01 X22.2804 Y40.6446
G01 X22.3519 Y40.6017
G01 X22.3649 Y40.5948
G01 X22.4403 Y40.5591
G01 X22.4539 Y40.5535
G01 X22.5325 Y40.5254
G01 X22.5466 Y40.5211
G01 X22.6275 Y40.5008
G01 X22.6419 Y40.4980
G01 X22.7244 Y40.4857
G01 X22.7391 Y40.4843
G01 X22.8297 Y40.4800
G01 X23.3371 Y40.4802
G01 X23.4204 Y40.4843
G01 X23.4351 Y40.4857
G01 X23.5176 Y40.4980
G01 X23.5320 Y40.5008
G01 X23.6129 Y40.5211
G01 X23.6270 Y40.5254
G01 X23.7056 Y40.5535
G01 X23.7192 Y40.5591
G01 X23.7946 Y40.5948
G01 X23.8076 Y40.6017
G01 X23.8791 Y40.6446
G01 X23.8913 Y40.6528
G01 X23.9583 Y40.7025
G01 X23.9697 Y40.7118
G01 X24.0315 Y40.7678
G01 X24.0419 Y40.7782
G01 X24.0980 Y40.8400
G01 X24.1073 Y40.8514
G01 X24.1570 Y40.9184
G01 X24.1652 Y40.9306
G01 X24.2080 Y41.0022
G01 X24.2150 Y41.0152
G01 X24.2506 Y41.0906
G01 X24.2563 Y41.1042
G01 X24.2844 Y41.1827
G01 X24.2887 Y41.1968
G01 X24.3089 Y41.2777
G01 X24.3118 Y41.2922
G01 X24.3240 Y41.3747
G01 X24.3255 Y41.3893
G01 X24.3296 Y41.4726
G01 X24.3296 Y41.4874
G01 X24.3255 Y41.5707
G01 X24.3240 Y41.5853
G01 X24.3118 Y41.6678
G01 X24.3089 Y41.6823
G01 X24.2887 Y41.7632
G01 X24.2844 Y41.7773
G01 X24.2563 Y41.8558
G01 X24.2506 Y41.8694
G01 X24.2150 Y41.9448
G01 X24.2080 Y41.9578
G01 X24.1652 Y42.0294
G01 X24.1570 Y42.0416
G01 X24.1073 Y42.1086
G01 X24.0980 Y42.1200
G01 X24.0419 Y42.1818
G01 X24.0315 Y42.1922
G01 X23.9697 Y42.2482
G01 X23.9583 Y42.2575
G01 X23.8913 Y42.3072
G01 X23.8791 Y42.3154
G01 X23.8076 Y42.3583
G01 X23.7946 Y42.3652
G01 X23.7300 Y42.3958
G01 X23.7300 Y49.8107
G01 X25.9291 Y52.0097
G01 X35.2549 Y52.0097
G01 X35.2843 Y51.9606
G01 X35.2925 Y51.9484
G01 X35.3422 Y51.8814
G01 X35.3515 Y51.8700
G01 X35.4076 Y51.8082
G01 X35.4180 Y51.7978
G01 X35.4798 Y51.7418
G01 X35.4912 Y51.7325
G01 X35.5582 Y51.6828
G01 X35.5704 Y51.6746
G01 X35.6419 Y51.6317
G01 X35.6549 Y51.6248
G01 X35.7303 Y51.5891
G01 X35.7439 Y51.5835
G01 X35.8225 Y51.5554
G01 X35.8366 Y51.5511
G01 X35.9175 Y51.5308
G01 X35.9319 Y51.5280
G01 X36.0144 Y51.5157
G01 X36.0291 Y51.5143
G01 X36.1124 Y51.5102
G01 X36.1271 Y51.5102
G01 X36.2104 Y51.5143
G01 X36.2251 Y51.5157
G01 X36.3076 Y51.5280
G01 X36.3220 Y51.5308
G01 X36.4029 Y51.5511
G01 X36.4170 Y51.5554
G01 X36.4956 Y51.5835
G01 X36.5092 Y51.5891
G01 X36.5846 Y51.6248
G01 X36.5976 Y51.6317
G01 X36.6691 Y51.6746
G01 X36.6813 Y51.6828
G01 X36.7483 Y51.7325
G01 X36.7597 Y51.7418
G01 X36.8215 Y51.7978
G01 X36.8319 Y51.8082
G01 X36.8880 Y51.8700
G01 X36.8973 Y51.8814
G01 X36.9470 Y51.9484
G01 X36.9552 Y51.9606
G01 X36.9980 Y52.0322
G01 X37.0050 Y52.0452
G01 X37.0406 Y52.1206
G01 X37.0463 Y52.1342
G01 X37.0744 Y52.2127
G01 X37.0787 Y52.2268
G01 X37.0989 Y52.3077
G01 X37.1018 Y52.3222
G01 X37.1140 Y52.4047
G01 X37.1155 Y52.4193
G01 X37.1197 Y52.5100
G01 X37.1197 Y52.8100
G01 X37.1155 Y52.9007
G01 X37.1140 Y52.9153
G01 X37.1018 Y52.9978
G01 X37.0989 Y53.0123
G01 X37.0787 Y53.0932
G01 X37.0744 Y53.1073
G01 X37.0463 Y53.1858
G01 X37.0406 Y53.1994
G01 X37.0050 Y53.2748
G01 X36.9980 Y53.2878
G01 X36.9552 Y53.3594
G01 X36.9470 Y53.3716
G01 X36.8973 Y53.4386
G01 X36.8880 Y53.4500
G01 X36.8319 Y53.5118
G01 X36.8215 Y53.5222
G01 X36.7597 Y53.5782
G01 X36.7483 Y53.5875
G01 X36.6813 Y53.6372
G01 X36.6691 Y53.6454
G01 X36.5976 Y53.6883
G01 X36.5846 Y53.6952
G01 X36.5092 Y53.7309
G01 X36.4956 Y53.7365
G01 X36.4170 Y53.7646
G01 X36.4029 Y53.7689
G01 X36.3220 Y53.7892
G01 X36.3076 Y53.7920
G01 X36.2251 Y53.8043
G01 X36.2104 Y53.8057
G01 X36.1271 Y53.8098
G01 X36.1124 Y53.8098
G01 X36.0291 Y53.8057
G01 X36.0144 Y53.8043
G01 X35.9319 Y53.7920
G01 X35.9175 Y53.7892
G01 X35.8366 Y53.7689
G01 X35.8225 Y53.7646
G01 X35.7439 Y53.7365
G01 X35.7303 Y53.7309
G01 X35.6549 Y53.6952
G01 X35.6419 Y53.6883
G01 X35.5704 Y53.6454
G01 X35.5582 Y53.6372
G01 X35.4912 Y53.5875
G01 X35.4798 Y53.5782
G01 X35.4180 Y53.5222
G01 X35.4076 Y53.5118
G01 X35.3515 Y53.4500
G01 X35.3422 Y53.4386
G01 X35.2925 Y53.3716
G01 X35.2843 Y53.3594
G01 X35.2549 Y53.3103
G01 X25.6597 Y53.3103
G01 X25.6034 Y53.3077
G01 X25.5887 Y53.3062
G01 X25.5401 Y53.2990
G01 X25.5257 Y53.2961
G01 X25.4781 Y53.2842
G01 X25.4640 Y53.2799
G01 X25.4178 Y53.2634
G01 X25.4042 Y53.2578
G01 X25.3598 Y53.2368
G01 X25.3468 Y53.2298
G01 X25.3047 Y53.2046
G01 X25.2925 Y53.1964
G01 X25.2530 Y53.1672
G01 X25.2417 Y53.1578
G01 X25.2000 Y53.1198
G01 X22.6200 Y50.5398
G01 X22.5819 Y50.4981
G01 X22.5726 Y50.4867
G01 X22.5433 Y50.4473
G01 X22.5351 Y50.4350
G01 X22.5099 Y50.3929
G01 X22.5030 Y50.3799
G01 X22.4820 Y50.3356
G01 X22.4763 Y50.3220
G01 X22.4598 Y50.2757
G01 X22.4555 Y50.2617
G01 X22.4436 Y50.2140
G01 X22.4407 Y50.1996
G01 X22.4335 Y50.1510
G01 X22.4321 Y50.1364
G01 X22.4295 Y50.0800
G01 X22.4295 Y42.3958
G00 Z2.0000
G00 X25.5497 Y47.9604
G01 F60.00
G01 Z-0.1500
G01 F120.00
G01 X25.5521 Y47.9114
G01 X25.5535 Y47.8967
G01 X25.5607 Y47.8482
G01 X25.5636 Y47.8337
G01 X25.5755 Y47.7861
G01 X25.5798 Y47.7720
G01 X25.5963 Y47.7258
G01 X25.6020 Y47.7122
G01 X25.6230 Y47.6678
G01 X25.6299 Y47.6548
G01 X25.6551 Y47.6127
G01 X25.6633 Y47.6005
G01 X25.6926 Y47.5611
G01 X25.7019 Y47.5497
G01 X25.7400 Y47.5080
G01 X26.5495 Y46.6984
G01 X26.5495 Y46.4395
G01 X26.5334 Y46.4311
G01 X26.4282 Y46.3680
G01 X26.4159 Y46.3598
G01 X26.3174 Y46.2867
G01 X26.3060 Y46.2774
G01 X26.2151 Y46.1950
G01 X26.2047 Y46.1846
G01 X26.1223 Y46.0937
G01 X26.1130 Y46.0823
G01 X26.0399 Y45.9838
G01 X26.0318 Y45.9716
G01 X25.9687 Y45.8664
G01 X25.9617 Y45.8534
G01 X25.9093 Y45.7425
G01 X25.9037 Y45.7289
G01 X25.8623 Y45.6134
G01 X25.8581 Y45.5993
G01 X25.8283 Y45.4803
G01 X25.8254 Y45.4659
G01 X25.8074 Y45.3445
G01 X25.8059 Y45.3299
G01 X25.7999 Y45.2074
G01 X25.7999 Y45.1926
G01 X25.8059 Y45.0701
G01 X25.8074 Y45.0555
G01 X25.8254 Y44.9341
G01 X25.8283 Y44.9197
G01 X25.8581 Y44.8007
G01 X25.8623 Y44.7866
G01 X25.9037 Y44.6711
G01 X25.9093 Y44.6575
G01 X25.9617 Y44.5466
G01 X25.9687 Y44.5336
G01 X26.0318 Y44.4284
G01 X26.0399 Y44.4162
G01 X26.1130 Y44.3177
G01 X26.1223 Y44.3063
G01 X26.2047 Y44.2154
G01 X26.2151 Y44.2050
G01 X26.3060 Y44.1226
G01 X26.3174 Y44.1133
G01 X26.4159 Y44.0402
G01 X26.4282 Y44.0320
G01 X26.5334 Y43.9689
G01 X26.5464 Y43.9620
G01 X26.6573 Y43.9096
G01 X26.6709 Y43.9039
G01 X26.7864 Y43.8626
G01 X26.8004 Y43.8583
G01 X26.9194 Y43.8285
G01 X26.9339 Y43.8256
G01 X27.0552 Y43.8076
G01 X27.0699 Y43.8062
G01 X27.1924 Y43.8002
G01 X27.2071 Y43.8002
G01 X27.3296 Y43.8062
G01 X27.3443 Y43.8076
G01 X27.4656 Y43.8256
G01 X27.4801 Y43.8285
G01 X27.5991 Y43.8583
G01 X27.6131 Y43.8626
G01 X27.7286 Y43.9039
G01 X27.7422 Y43.9096
G01 X27.8531 Y43.9620
G01 X27.8661 Y43.9689
G01 X27.9713 Y44.0320
G01 X27.9836 Y44.0402
G01 X28.0821 Y44.1133
G01 X28.0935 Y44.1226
G01 X28.1844 Y44.2050
G01 X28.1948 Y44.2154
G01 X28.2772 Y44.3063
G01 X28.2865 Y44.3177
G01 X28.3596 Y44.4162
G01 X28.3677 Y44.4284
G01 X28.4308 Y44.5336
G01 X28.4377 Y44.5466
G01 X28.4902 Y44.6575
G01 X28.4958 Y44.6711
G01 X28.5372 Y44.7866
G01 X28.5414 Y44.8007
G01 X28.5712 Y44.9197
G01 X28.5741 Y44.9341
G01 X28.5921 Y45.0555
G01 X28.5936 Y45.0701
G01 X28.5996 Y45.1926
G01 X28.5996 Y45.2074
G01 X28.5936 Y45.3299
G01 X28.5921 Y45.3445
G01 X28.5741 Y45.4659
G01 X28.5712 Y45.4803
G01 X28.5414 Y45.5993
G01 X28.5372 Y45.6134
G01 X28.4958 Y45.7289
G01 X28.4902 Y45.7425
G01 X28.4377 Y45.8534
G01 X28.4308 Y45.8664
G01 X28.3677 Y45.9716
G01 X28.3596 Y45.9838
G01 X28.2865 Y46.0823
G01 X28.2772 Y46.0937
G01 X28.1948 Y46.1846
G01 X28.1844 Y46.1950
G01 X28.0935 Y46.2774
G01 X28.0821 Y46.2867
G01 X27.9836 Y46.3598
G01 X27.9713 Y46.3680
G01 X27.8661 Y46.4311
G01 X27.8500 Y46.4395
G01 X27.8500 Y46.9678
G01 X27.8474 Y47.0242
G01 X27.8460 Y47.0388
G01 X27.8388 Y47.0874
G01 X27.8359 Y47.1018
G01 X27.8240 Y47.1494
G01 X27.8197 Y47.1635
G01 X27.8032 Y47.2097
G01 X27.7975 Y47.2233
G01 X27.7765 Y47.2677
G01 X27.7696 Y47.2807
G01 X27.7444 Y47.3228
G01 X27.7362 Y47.3350
G01 X27.7069 Y47.3745
G01 X27.6976 Y47.3859
G01 X27.6595 Y47.4276
G01 X27.0199 Y48.0672
G01 X27.0821 Y48.1133
G01 X27.0935 Y48.1226
G01 X27.1844 Y48.2050
G01 X27.1948 Y48.2154
G01 X27.2772 Y48.3063
G01 X27.2865 Y48.3177
G01 X27.3596 Y48.4162
G01 X27.3677 Y48.4284
G01 X27.4308 Y48.5336
G01 X27.4377 Y48.5466
G01 X27.4902 Y48.6575
G01 X27.4958 Y48.6711
G01 X27.5372 Y48.7866
G01 X27.5414 Y48.8007
G01 X27.5712 Y48.9197
G01 X27.5741 Y48.9341
G01 X27.5921 Y49.0555
G01 X27.5936 Y49.0701
G01 X27.5996 Y49.1926
G01 X27.5996 Y49.2074
G01 X27.5936 Y49.3299
G01 X27.5921 Y49.3445
G01 X27.5741 Y49.4659
G01 X27.5712 Y49.4803
G01 X27.5414 Y49.5993
G01 X27.5372 Y49.6134
G01 X27.4958 Y49.7289
G01 X27.4902 Y49.7425
G01 X27.4377 Y49.8534
G01 X27.4308 Y49.8664
G01 X27.3677 Y49.9716
G01 X27.3596 Y49.9838
G01 X27.2865 Y50.0823
G01 X27.2772 Y50.0937
G01 X27.1948 Y50.1846
G01 X27.1844 Y50.1950
G01 X27.0935 Y50.2774
G01 X27.0821 Y50.2867
G01 X26.9836 Y50.3598
G01 X26.9713 Y50.3680
G01 X26.8661 Y50.4311
G01 X26.8531 Y50.4380
G01 X26.7422 Y50.4904
G01 X26.7286 Y50.4961
G01 X26.6131 Y50.5374
G01 X26.5991 Y50.5417
G01 X26.4801 Y50.5715
G01 X26.4656 Y50.5744
G01 X26.3443 Y50.5924
G01 X26.3296 Y50.5938
G01 X26.2071 Y50.5998
G01 X26.1924 Y50.5998
G01 X26.0699 Y50.5938
G01 X26.0552 Y50.5924
G01 X25.9339 Y50.5744
G01 X25.9194 Y50.5715
G01 X25.8004 Y50.5417
G01 X25.7864 Y50.5374
G01 X25.6709 Y50.4961
G01 X25.6573 Y50.4904
G01 X25.5464 Y50.4380
G01 X25.5334 Y50.4311
G01 X25.4282 Y50.3680
G01 X25.4159 Y50.3598
G01 X25.3174 Y50.2867
G01 X25.3060 Y50.2774
G01 X25.2151 Y50.1950
G01 X25.2047 Y50.1846
G01 X25.1223 Y50.0937
