(G-CODE GENERATED BY FLATCAM v8.991 - www.flatcam.org - Version Date: 2019/12/27)

(Name: 2)
(Type: G-code from Geometry)
(Units: MM)

(Created on Wednesday, 08 April 2020 at 14:38)

(TOOL DIAMETER: 0.3 mm)
(Feedrate: 120.0 mm/min)
(Feedrate_Z: 60.0 mm/min)
(Feedrate rapids 1500.0 mm/min)

(Z_Cut: -0.15 mm)
(Z_Move: 2.0 mm)
(Z Toolchange: 15.0 mm)
(X,Y Toolchange: 0.0000, 0.0000 mm)
(Z Start: None mm)
(Z End: 4.0 mm)
(Steps per circle: 64)
(Preprocessor Geometry: default)

(X range:    0.4297 ...   59.9700  mm)
(Y range:    0.9297 ...   59.9703  mm)

(Spindle Speed: None RPM)
G21
G90
G94




G01 F120.00
G00 Z2.0000

M03
G00 X10.4547 Y2.4703
G01 F60.00
G01 Z-0.1500
G01 F120.00
G01 X10.4174 Y2.4836
G01 X10.3929 Y2.4938
G01 X10.3485 Y2.5147
G01 X10.3251 Y2.5272
G01 X10.2830 Y2.5525
G01 X10.2610 Y2.5672
G01 X10.2216 Y2.5964
G01 X10.2011 Y2.6132
G01 X10.1647 Y2.6462
G01 X10.1551 Y2.6554
G01 X7.6551 Y5.1554
G01 X7.6460 Y5.1649
G01 X7.6130 Y5.2013
G01 X7.5962 Y5.2218
G01 X7.5669 Y5.2612
G01 X7.5522 Y5.2833
G01 X7.5270 Y5.3254
G01 X7.5145 Y5.3487
G01 X7.4935 Y5.3931
G01 X7.4834 Y5.4176
G01 X7.4700 Y5.4549
G01 X7.4700 Y4.5190
G01 X9.5188 Y2.4703
G01 X10.4547 Y2.4703
G00 Z2.0000
G00 X13.7377 Y12.8897
G01 F60.00
G01 Z-0.1500
G01 F120.00
G01 X13.7487 Y12.8776
G01 X13.7674 Y12.8589
G01 X13.8292 Y12.8029
G01 X13.8497 Y12.7861
G01 X13.9167 Y12.7364
G01 X13.9387 Y12.7217
G01 X14.0103 Y12.6788
G01 X14.0336 Y12.6663
G01 X14.1090 Y12.6306
G01 X14.1335 Y12.6205
G01 X14.2120 Y12.5924
G01 X14.2374 Y12.5847
G01 X14.3183 Y12.5644
G01 X14.3443 Y12.5593
G01 X14.4268 Y12.5470
G01 X14.4532 Y12.5444
G01 X14.5365 Y12.5403
G01 X14.5497 Y12.5400
G01 X14.8497 Y12.5400
G01 X14.8630 Y12.5403
G01 X14.9463 Y12.5444
G01 X14.9727 Y12.5470
G01 X15.0552 Y12.5593
G01 X15.0812 Y12.5644
G01 X15.1621 Y12.5847
G01 X15.1875 Y12.5924
G01 X15.2660 Y12.6205
G01 X15.2905 Y12.6306
G01 X15.3659 Y12.6663
G01 X15.3892 Y12.6788
G01 X15.4608 Y12.7217
G01 X15.4828 Y12.7364
G01 X15.5498 Y12.7861
G01 X15.5703 Y12.8029
G01 X15.6321 Y12.8589
G01 X15.6508 Y12.8776
G01 X15.7069 Y12.9394
G01 X15.7237 Y12.9599
G01 X15.7734 Y13.0269
G01 X15.7881 Y13.0490
G01 X15.8310 Y13.1205
G01 X15.8435 Y13.1439
G01 X15.8791 Y13.2193
G01 X15.8893 Y13.2438
G01 X15.9174 Y13.3223
G01 X15.9251 Y13.3477
G01 X15.9453 Y13.4286
G01 X15.9505 Y13.4546
G01 X15.9627 Y13.5371
G01 X15.9653 Y13.5634
G01 X15.9694 Y13.6468
G01 X15.9694 Y13.6732
G01 X15.9653 Y13.7566
G01 X15.9627 Y13.7829
G01 X15.9505 Y13.8654
G01 X15.9453 Y13.8914
G01 X15.9251 Y13.9723
G01 X15.9174 Y13.9977
G01 X15.8893 Y14.0762
G01 X15.8791 Y14.1007
G01 X15.8435 Y14.1761
G01 X15.8310 Y14.1995
G01 X15.7881 Y14.2710
G01 X15.7734 Y14.2931
G01 X15.7237 Y14.3601
G01 X15.7069 Y14.3806
G01 X15.6508 Y14.4424
G01 X15.6321 Y14.4611
G01 X15.5703 Y14.5171
G01 X15.5498 Y14.5339
G01 X15.4828 Y14.5836
G01 X15.4608 Y14.5983
G01 X15.3892 Y14.6412
G01 X15.3659 Y14.6537
G01 X15.2905 Y14.6894
G01 X15.2660 Y14.6995
G01 X15.1875 Y14.7276
G01 X15.1621 Y14.7353
G01 X15.0812 Y14.7556
G01 X15.0552 Y14.7607
G01 X14.9727 Y14.7730
G01 X14.9463 Y14.7756
G01 X14.8630 Y14.7797
G01 X14.8497 Y14.7800
G01 X14.5497 Y14.7800
G01 X14.5365 Y14.7797
G01 X14.4532 Y14.7756
G01 X14.4268 Y14.7730
G01 X14.3443 Y14.7607
G01 X14.3183 Y14.7556
G01 X14.2374 Y14.7353
G01 X14.2120 Y14.7276
G01 X14.1335 Y14.6995
G01 X14.1090 Y14.6894
G01 X14.0336 Y14.6537
G01 X14.0103 Y14.6412
G01 X13.9387 Y14.5983
G01 X13.9167 Y14.5836
G01 X13.8497 Y14.5339
G01 X13.8292 Y14.5171
G01 X13.7674 Y14.4611
G01 X13.7487 Y14.4424
G01 X13.7377 Y14.4303
G01 X12.1597 Y14.4303
G01 X12.1465 Y14.4299
G01 X12.0975 Y14.4275
G01 X12.0711 Y14.4249
G01 X12.0225 Y14.4177
G01 X11.9966 Y14.4125
G01 X11.9489 Y14.4006
G01 X11.9236 Y14.3929
G01 X11.8774 Y14.3764
G01 X11.8529 Y14.3662
G01 X11.8085 Y14.3453
G01 X11.7851 Y14.3328
G01 X11.7430 Y14.3075
G01 X11.7210 Y14.2928
G01 X11.6816 Y14.2636
G01 X11.6611 Y14.2468
G01 X11.6247 Y14.2138
G01 X11.6151 Y14.2046
G01 X11.3807 Y13.9703
G01 X9.1997 Y13.9703
G01 X9.1865 Y13.9699
G01 X9.1375 Y13.9675
G01 X9.1111 Y13.9649
G01 X9.0625 Y13.9577
G01 X9.0366 Y13.9525
G01 X8.9889 Y13.9406
G01 X8.9636 Y13.9329
G01 X8.9174 Y13.9164
G01 X8.8929 Y13.9062
G01 X8.8485 Y13.8853
G01 X8.8251 Y13.8728
G01 X8.7830 Y13.8475
G01 X8.7610 Y13.8328
G01 X8.7216 Y13.8036
G01 X8.7011 Y13.7868
G01 X8.6647 Y13.7538
G01 X8.6551 Y13.7446
G01 X7.6551 Y12.7446
G01 X7.6460 Y12.7351
G01 X7.6130 Y12.6987
G01 X7.5962 Y12.6782
G01 X7.5669 Y12.6388
G01 X7.5522 Y12.6167
G01 X7.5270 Y12.5746
G01 X7.5145 Y12.5513
G01 X7.4935 Y12.5069
G01 X7.4834 Y12.4824
G01 X7.4700 Y12.4451
G01 X7.4700 Y18.4300
G01 X7.6997 Y18.4300
G01 X7.7262 Y18.4313
G01 X7.7524 Y18.4352
G01 X7.7781 Y18.4416
G01 X7.8031 Y18.4506
G01 X7.8270 Y18.4619
G01 X7.8498 Y18.4755
G01 X7.8710 Y18.4913
G01 X7.8907 Y18.5091
G01 X7.9085 Y18.5287
G01 X7.9242 Y18.5500
G01 X7.9379 Y18.5727
G01 X7.9492 Y18.5967
G01 X7.9581 Y18.6216
G01 X7.9646 Y18.6473
G01 X7.9684 Y18.6735
G01 X7.9697 Y18.7000
G01 X7.9697 Y20.7000
G01 X7.9684 Y20.7265
G01 X7.9646 Y20.7527
G01 X7.9581 Y20.7784
G01 X7.9492 Y20.8033
G01 X7.9379 Y20.8273
G01 X7.9242 Y20.8500
G01 X7.9085 Y20.8713
G01 X7.8907 Y20.8909
G01 X7.8710 Y20.9087
G01 X7.8498 Y20.9245
G01 X7.8270 Y20.9381
G01 X7.8031 Y20.9494
G01 X7.7781 Y20.9584
G01 X7.7524 Y20.9648
G01 X7.7262 Y20.9687
G01 X7.6997 Y20.9700
G01 X5.6997 Y20.9700
G01 X5.6733 Y20.9687
G01 X5.6471 Y20.9648
G01 X5.6214 Y20.9584
G01 X5.5964 Y20.9494
G01 X5.5725 Y20.9381
G01 X5.5497 Y20.9245
G01 X5.5285 Y20.9087
G01 X5.5088 Y20.8909
G01 X5.4910 Y20.8713
G01 X5.4753 Y20.8500
G01 X5.4616 Y20.8273
G01 X5.4503 Y20.8033
G01 X5.4414 Y20.7784
G01 X5.4349 Y20.7527
G01 X5.4311 Y20.7265
G01 X5.4297 Y20.7000
G01 X5.4297 Y18.7000
G01 X5.4311 Y18.6735
G01 X5.4349 Y18.6473
G01 X5.4414 Y18.6216
G01 X5.4503 Y18.5967
G01 X5.4616 Y18.5727
G01 X5.4753 Y18.5500
G01 X5.4910 Y18.5287
G01 X5.5088 Y18.5091
G01 X5.5285 Y18.4913
G01 X5.5497 Y18.4755
G01 X5.5725 Y18.4619
G01 X5.5964 Y18.4506
G01 X5.6214 Y18.4416
G01 X5.6471 Y18.4352
G01 X5.6733 Y18.4313
G01 X5.6997 Y18.4300
G01 X5.9295 Y18.4300
G01 X5.9295 Y4.2000
G01 X5.9298 Y4.1868
G01 X5.9322 Y4.1377
G01 X5.9348 Y4.1113
G01 X5.9420 Y4.0628
G01 X5.9472 Y4.0368
G01 X5.9591 Y3.9892
G01 X5.9668 Y3.9638
G01 X5.9834 Y3.9176
G01 X5.9935 Y3.8931
G01 X6.0145 Y3.8487
G01 X6.0270 Y3.8254
G01 X6.0522 Y3.7833
G01 X6.0669 Y3.7612
G01 X6.0962 Y3.7218
G01 X6.1130 Y3.7013
G01 X6.1460 Y3.6649
G01 X6.1551 Y3.6554
G01 X8.6551 Y1.1554
G01 X8.6647 Y1.1462
G01 X8.7011 Y1.1132
G01 X8.7216 Y1.0964
G01 X8.7610 Y1.0672
G01 X8.7830 Y1.0525
G01 X8.8251 Y1.0272
G01 X8.8485 Y1.0147
G01 X8.8929 Y0.9938
G01 X8.9174 Y0.9836
G01 X8.9636 Y0.9671
G01 X8.9889 Y0.9594
G01 X9.0366 Y0.9475
G01 X9.0625 Y0.9423
G01 X9.1111 Y0.9351
G01 X9.1375 Y0.9325
G01 X9.1865 Y0.9301
G01 X9.1997 Y0.9297
G01 X49.6997 Y0.9297
G01 X49.7130 Y0.9301
G01 X49.7620 Y0.9325
G01 X49.7884 Y0.9351
G01 X49.8370 Y0.9423
G01 X49.8629 Y0.9475
G01 X49.9106 Y0.9594
G01 X49.9359 Y0.9671
G01 X49.9821 Y0.9836
G01 X50.0066 Y0.9938
G01 X50.0510 Y1.0147
G01 X50.0744 Y1.0272
G01 X50.1165 Y1.0525
G01 X50.1385 Y1.0672
G01 X50.1779 Y1.0964
G01 X50.1984 Y1.1132
G01 X50.2348 Y1.1462
G01 X50.2444 Y1.1554
G01 X53.7444 Y4.6554
G01 X53.7535 Y4.6649
G01 X53.7865 Y4.7013
G01 X53.8033 Y4.7218
G01 X53.8326 Y4.7612
G01 X53.8473 Y4.7833
G01 X53.8725 Y4.8254
G01 X53.8850 Y4.8487
G01 X53.9060 Y4.8931
G01 X53.9161 Y4.9176
G01 X53.9327 Y4.9638
G01 X53.9404 Y4.9892
G01 X53.9523 Y5.0368
G01 X53.9575 Y5.0628
G01 X53.9647 Y5.1113
G01 X53.9673 Y5.1377
G01 X53.9697 Y5.1868
G01 X53.9700 Y5.2000
G01 X53.9700 Y6.0310
G01 X58.7444 Y10.8054
G01 X58.7535 Y10.8149
G01 X58.7865 Y10.8513
G01 X58.8033 Y10.8718
G01 X58.8326 Y10.9112
G01 X58.8473 Y10.9333
G01 X58.8725 Y10.9754
G01 X58.8850 Y10.9987
G01 X58.9060 Y11.0431
G01 X58.9161 Y11.0676
G01 X58.9327 Y11.1138
G01 X58.9404 Y11.1392
G01 X58.9523 Y11.1868
G01 X58.9575 Y11.2128
G01 X58.9647 Y11.2613
G01 X58.9673 Y11.2877
G01 X58.9697 Y11.3368
G01 X58.9700 Y11.3500
G01 X58.9700 Y11.9300
G01 X59.1997 Y11.9300
G01 X59.2262 Y11.9313
G01 X59.2524 Y11.9352
G01 X59.2781 Y11.9416
G01 X59.3031 Y11.9506
G01 X59.3270 Y11.9619
G01 X59.3498 Y11.9755
G01 X59.3710 Y11.9913
G01 X59.3907 Y12.0091
G01 X59.4085 Y12.0287
G01 X59.4242 Y12.0500
G01 X59.4379 Y12.0727
G01 X59.4492 Y12.0967
G01 X59.4581 Y12.1216
G01 X59.4646 Y12.1473
G01 X59.4684 Y12.1735
G01 X59.4697 Y12.2000
G01 X59.4697 Y14.2000
G01 X59.4684 Y14.2265
G01 X59.4646 Y14.2527
G01 X59.4581 Y14.2784
G01 X59.4492 Y14.3033
G01 X59.4379 Y14.3273
G01 X59.4242 Y14.3500
G01 X59.4085 Y14.3713
G01 X59.3907 Y14.3909
G01 X59.3710 Y14.4087
G01 X59.3498 Y14.4245
G01 X59.3270 Y14.4381
G01 X59.3031 Y14.4494
G01 X59.2781 Y14.4584
G01 X59.2524 Y14.4648
G01 X59.2262 Y14.4687
G01 X59.1997 Y14.4700
G01 X57.1997 Y14.4700
G01 X57.1733 Y14.4687
G01 X57.1471 Y14.4648
G01 X57.1214 Y14.4584
G01 X57.0964 Y14.4494
G01 X57.0725 Y14.4381
G01 X57.0497 Y14.4245
G01 X57.0285 Y14.4087
G01 X57.0088 Y14.3909
G01 X56.9910 Y14.3713
G01 X56.9753 Y14.3500
G01 X56.9616 Y14.3273
G01 X56.9503 Y14.3033
G01 X56.9414 Y14.2784
G01 X56.9349 Y14.2527
G01 X56.9311 Y14.2265
G01 X56.9297 Y14.2000
G01 X56.9297 Y12.2000
G01 X56.9311 Y12.1735
G01 X56.9349 Y12.1473
G01 X56.9414 Y12.1216
G01 X56.9503 Y12.0967
G01 X56.9616 Y12.0727
G01 X56.9753 Y12.0500
G01 X56.9910 Y12.0287
G01 X57.0088 Y12.0091
G01 X57.0285 Y11.9913
G01 X57.0497 Y11.9755
G01 X57.0725 Y11.9619
G01 X57.0964 Y11.9506
G01 X57.1214 Y11.9416
G01 X57.1471 Y11.9352
G01 X57.1733 Y11.9313
G01 X57.1997 Y11.9300
G01 X57.4295 Y11.9300
G01 X57.4295 Y11.6690
G01 X52.6551 Y6.8946
G01 X52.6460 Y6.8851
G01 X52.6130 Y6.8487
G01 X52.5962 Y6.8282
G01 X52.5669 Y6.7888
G01 X52.5522 Y6.7667
G01 X52.5270 Y6.7246
G01 X52.5145 Y6.7013
G01 X52.4935 Y6.6569
G01 X52.4834 Y6.6324
G01 X52.4668 Y6.5862
G01 X52.4591 Y6.5608
G01 X52.4472 Y6.5132
G01 X52.4420 Y6.4872
G01 X52.4348 Y6.4387
G01 X52.4322 Y6.4123
G01 X52.4298 Y6.3632
G01 X52.4295 Y6.3500
G01 X52.4295 Y5.5190
G01 X49.3807 Y2.4703
G01 X25.9448 Y2.4703
G01 X25.9821 Y2.4836
G01 X26.0066 Y2.4938
G01 X26.0510 Y2.5147
G01 X26.0744 Y2.5272
G01 X26.1165 Y2.5525
G01 X26.1385 Y2.5672
G01 X26.1779 Y2.5964
G01 X26.1984 Y2.6132
G01 X26.2348 Y2.6462
G01 X26.2444 Y2.6554
G01 X29.7444 Y6.1554
G01 X29.7535 Y6.1649
G01 X29.7865 Y6.2013
G01 X29.8033 Y6.2218
G01 X29.8326 Y6.2612
G01 X29.8473 Y6.2833
G01 X29.8725 Y6.3254
G01 X29.8850 Y6.3487
G01 X29.9060 Y6.3931
G01 X29.9161 Y6.4176
G01 X29.9327 Y6.4638
G01 X29.9404 Y6.4892
G01 X29.9523 Y6.5368
G01 X29.9575 Y6.5628
G01 X29.9647 Y6.6113
G01 X29.9673 Y6.6377
G01 X29.9697 Y6.6868
G01 X29.9700 Y6.7000
G01 X29.9700 Y7.3405
G01 X32.1551 Y5.1554
G01 X32.1647 Y5.1462
G01 X32.2011 Y5.1132
G01 X32.2216 Y5.0964
G01 X32.2610 Y5.0672
G01 X32.2830 Y5.0525
G01 X32.3251 Y5.0272
G01 X32.3485 Y5.0147
G01 X32.3929 Y4.9938
G01 X32.4174 Y4.9836
G01 X32.4636 Y4.9671
G01 X32.4889 Y4.9594
G01 X32.5366 Y4.9475
G01 X32.5625 Y4.9423
G01 X32.6111 Y4.9351
G01 X32.6375 Y4.9325
G01 X32.6865 Y4.9301
G01 X32.6997 Y4.9297
G01 X35.9997 Y4.9297
G01 X36.0130 Y4.9301
G01 X36.0620 Y4.9325
G01 X36.0884 Y4.9351
G01 X36.1370 Y4.9423
G01 X36.1629 Y4.9475
G01 X36.2106 Y4.9594
G01 X36.2359 Y4.9671
G01 X36.2821 Y4.9836
G01 X36.3066 Y4.9938
G01 X36.3510 Y5.0147
G01 X36.3744 Y5.0272
G01 X36.4165 Y5.0525
G01 X36.4385 Y5.0672
G01 X36.4779 Y5.0964
G01 X36.4984 Y5.1132
G01 X36.5385 Y5.1497
G01 X37.2577 Y5.1497
G01 X37.2687 Y5.1376
G01 X37.2874 Y5.1189
G01 X37.3492 Y5.0629
G01 X37.3697 Y5.0461
G01 X37.4367 Y4.9964
G01 X37.4587 Y4.9817
G01 X37.5303 Y4.9388
G01 X37.5536 Y4.9263
G01 X37.6290 Y4.8906
G01 X37.6535 Y4.8805
G01 X37.7320 Y4.8524
G01 X37.7574 Y4.8447
G01 X37.8383 Y4.8244
G01 X37.8643 Y4.8193
G01 X37.9468 Y4.8070
G01 X37.9732 Y4.8044
G01 X38.0565 Y4.8003
G01 X38.0697 Y4.8000
G01 X38.5697 Y4.8000
G01 X38.5830 Y4.8003
G01 X38.6663 Y4.8044
G01 X38.6927 Y4.8070
G01 X38.7752 Y4.8193
G01 X38.8012 Y4.8244
G01 X38.8821 Y4.8447
G01 X38.9075 Y4.8524
G01 X38.9860 Y4.8805
G01 X39.0105 Y4.8906
G01 X39.0859 Y4.9263
G01 X39.1092 Y4.9388
G01 X39.1808 Y4.9817
G01 X39.2028 Y4.9964
G01 X39.2698 Y5.0461
G01 X39.2903 Y5.0629
G01 X39.3521 Y5.1189
G01 X39.3708 Y5.1376
G01 X39.3818 Y5.1497
G01 X43.9197 Y5.1497
G01 X43.9330 Y5.1501
G01 X43.9820 Y5.1525
G01 X44.0084 Y5.1551
G01 X44.0570 Y5.1623
G01 X44.0829 Y5.1675
G01 X44.1306 Y5.1794
G01 X44.1559 Y5.1871
G01 X44.2021 Y5.2036
G01 X44.2266 Y5.2138
G01 X44.2710 Y5.2347
G01 X44.2944 Y5.2472
G01 X44.3365 Y5.2725
G01 X44.3585 Y5.2872
G01 X44.3979 Y5.3164
G01 X44.4184 Y5.3332
G01 X44.4388 Y5.3517
G01 X44.4435 Y5.3447
G01 X44.5166 Y5.2462
G01 X44.5334 Y5.2257
G01 X44.6158 Y5.1348
G01 X44.6345 Y5.1161
G01 X44.7254 Y5.0337
G01 X44.7459 Y5.0169
G01 X44.8444 Y4.9438
G01 X44.8665 Y4.9291
G01 X44.9717 Y4.8660
G01 X44.9951 Y4.8535
G01 X45.1060 Y4.8011
G01 X45.1304 Y4.7909
G01 X45.2459 Y4.7496
G01 X45.2713 Y4.7419
G01 X45.3903 Y4.7121
G01 X45.4163 Y4.7069
G01 X45.5376 Y4.6889
G01 X45.5640 Y4.6863
G01 X45.6865 Y4.6803
G01 X45.7130 Y4.6803
G01 X45.8355 Y4.6863
G01 X45.8619 Y4.6889
G01 X45.9832 Y4.7069
G01 X46.0092 Y4.7121
G01 X46.1282 Y4.7419
G01 X46.1536 Y4.7496
G01 X46.2691 Y4.7909
G01 X46.2935 Y4.8011
G01 X46.4044 Y4.8535
G01 X46.4278 Y4.8660
G01 X46.5330 Y4.9291
G01 X46.5551 Y4.9438
G01 X46.6536 Y5.0169
G01 X46.6741 Y5.0337
G01 X46.7650 Y5.1161
G01 X46.7837 Y5.1348
G01 X46.8661 Y5.2257
G01 X46.8829 Y5.2462
G01 X46.9560 Y5.3447
G01 X46.9707 Y5.3667
G01 X47.0337 Y5.4719
G01 X47.0462 Y5.4953
G01 X47.0987 Y5.6062
G01 X47.1088 Y5.6307
G01 X47.1501 Y5.7462
G01 X47.1578 Y5.7715
G01 X47.1876 Y5.8905
G01 X47.1928 Y5.9165
G01 X47.2108 Y6.0379
G01 X47.2134 Y6.0642
G01 X47.2194 Y6.1868
G01 X47.2194 Y6.2132
G01 X47.2134 Y6.3358
G01 X47.2108 Y6.3621
G01 X47.1928 Y6.4835
G01 X47.1876 Y6.5095
G01 X47.1578 Y6.6285
G01 X47.1501 Y6.6538
G01 X47.1088 Y6.7693
G01 X47.0987 Y6.7938
G01 X47.0462 Y6.9047
G01 X47.0337 Y6.9281
G01 X46.9707 Y7.0333
G01 X46.9560 Y7.0553
G01 X46.8829 Y7.1538
G01 X46.8661 Y7.1743
G01 X46.7837 Y7.2652
G01 X46.7650 Y7.2839
G01 X46.6741 Y7.3663
G01 X46.6536 Y7.3831
G01 X46.5551 Y7.4562
G01 X46.5330 Y7.4709
G01 X46.4278 Y7.5340
G01 X46.4044 Y7.5465
G01 X46.2935 Y7.5989
G01 X46.2691 Y7.6091
G01 X46.1536 Y7.6504
G01 X46.1282 Y7.6581
G01 X46.0092 Y7.6879
G01 X45.9999 Y7.6897
G01 X48.4597 Y7.6897
G01 X48.4730 Y7.6901
G01 X48.5220 Y7.6925
G01 X48.5484 Y7.6951
G01 X48.5970 Y7.7023
G01 X48.6229 Y7.7075
G01 X48.6706 Y7.7194
G01 X48.6959 Y7.7271
G01 X48.7421 Y7.7436
G01 X48.7666 Y7.7538
G01 X48.8110 Y7.7747
G01 X48.8344 Y7.7872
G01 X48.8765 Y7.8125
G01 X48.8985 Y7.8272
G01 X48.9379 Y7.8564
G01 X48.9584 Y7.8732
G01 X48.9948 Y7.9062
G01 X49.0044 Y7.9154
G01 X54.2444 Y13.1554
G01 X54.2535 Y13.1649
G01 X54.2865 Y13.2013
G01 X54.3033 Y13.2218
G01 X54.3326 Y13.2612
G01 X54.3473 Y13.2833
G01 X54.3725 Y13.3254
G01 X54.3850 Y13.3487
G01 X54.4060 Y13.3931
G01 X54.4161 Y13.4176
G01 X54.4327 Y13.4638
G01 X54.4404 Y13.4892
G01 X54.4523 Y13.5368
G01 X54.4575 Y13.5628
G01 X54.4647 Y13.6113
G01 X54.4673 Y13.6377
G01 X54.4697 Y13.6868
G01 X54.4700 Y13.7000
G01 X54.4700 Y13.8810
G01 X55.5588 Y14.9697
G01 X57.2377 Y14.9697
G01 X57.2487 Y14.9576
G01 X57.2674 Y14.9389
G01 X57.3292 Y14.8829
G01 X57.3497 Y14.8661
G01 X57.4167 Y14.8164
G01 X57.4387 Y14.8017
G01 X57.5103 Y14.7588
G01 X57.5336 Y14.7463
G01 X57.6090 Y14.7106
G01 X57.6335 Y14.7005
G01 X57.7120 Y14.6724
G01 X57.7374 Y14.6647
G01 X57.8183 Y14.6444
G01 X57.8443 Y14.6393
G01 X57.9268 Y14.6270
G01 X57.9532 Y14.6244
G01 X58.0365 Y14.6203
G01 X58.0497 Y14.6200
G01 X58.3497 Y14.6200
G01 X58.3630 Y14.6203
G01 X58.4463 Y14.6244
G01 X58.4727 Y14.6270
G01 X58.5552 Y14.6393
G01 X58.5812 Y14.6444
G01 X58.6621 Y14.6647
G01 X58.6875 Y14.6724
G01 X58.7660 Y14.7005
G01 X58.7905 Y14.7106
G01 X58.8659 Y14.7463
G01 X58.8892 Y14.7588
G01 X58.9608 Y14.8017
G01 X58.9828 Y14.8164
G01 X59.0498 Y14.8661
G01 X59.0703 Y14.8829
G01 X59.1321 Y14.9389
G01 X59.1508 Y14.9576
G01 X59.2069 Y15.0194
G01 X59.2237 Y15.0399
G01 X59.2734 Y15.1069
G01 X59.2881 Y15.1290
G01 X59.3310 Y15.2005
G01 X59.3435 Y15.2239
G01 X59.3791 Y15.2993
G01 X59.3893 Y15.3238
G01 X59.4174 Y15.4023
G01 X59.4251 Y15.4277
G01 X59.4453 Y15.5086
G01 X59.4505 Y15.5346
G01 X59.4627 Y15.6171
G01 X59.4653 Y15.6434
G01 X59.4694 Y15.7268
G01 X59.4694 Y15.7532
G01 X59.4653 Y15.8366
G01 X59.4627 Y15.8629
G01 X59.4505 Y15.9454
G01 X59.4453 Y15.9714
G01 X59.4251 Y16.0523
G01 X59.4174 Y16.0777
G01 X59.3893 Y16.1562
G01 X59.3791 Y16.1807
G01 X59.3435 Y16.2561
G01 X59.3310 Y16.2795
G01 X59.2881 Y16.3510
G01 X59.2734 Y16.3731
G01 X59.2237 Y16.4401
G01 X59.2069 Y16.4606
G01 X59.1508 Y16.5224
G01 X59.1321 Y16.5411
G01 X59.0703 Y16.5971
G01 X59.0498 Y16.6139
G01 X58.9828 Y16.6636
G01 X58.9700 Y16.6722
G01 X58.9700 Y19.7678
G01 X58.9828 Y19.7764
G01 X59.0498 Y19.8261
G01 X59.0703 Y19.8429
G01 X59.1321 Y19.8989
G01 X59.1508 Y19.9176
G01 X59.2069 Y19.9794
G01 X59.2237 Y19.9999
G01 X59.2734 Y20.0669
G01 X59.2881 Y20.0890
G01 X59.3310 Y20.1605
G01 X59.3435 Y20.1839
G01 X59.3791 Y20.2593
G01 X59.3893 Y20.2838
G01 X59.4174 Y20.3623
G01 X59.4251 Y20.3877
G01 X59.4453 Y20.4686
G01 X59.4505 Y20.4946
G01 X59.4627 Y20.5771
G01 X59.4653 Y20.6034
G01 X59.4694 Y20.6868
G01 X59.4694 Y20.7132
G01 X59.4653 Y20.7966
G01 X59.4627 Y20.8229
G01 X59.4505 Y20.9054
G01 X59.4453 Y20.9314
G01 X59.4251 Y21.0123
G01 X59.4174 Y21.0377
G01 X59.3893 Y21.1162
G01 X59.3791 Y21.1407
G01 X59.3435 Y21.2161
G01 X59.3310 Y21.2395
G01 X59.2881 Y21.3110
G01 X59.2734 Y21.3331
G01 X59.2237 Y21.4001
G01 X59.2069 Y21.4206
G01 X59.1508 Y21.4824
G01 X59.1321 Y21.5011
G01 X59.0703 Y21.5571
G01 X59.0498 Y21.5739
G01 X58.9828 Y21.6236
G01 X58.9608 Y21.6383
G01 X58.8892 Y21.6812
G01 X58.8659 Y21.6937
G01 X58.7905 Y21.7294
G01 X58.7660 Y21.7395
G01 X58.6875 Y21.7676
G01 X58.6621 Y21.7753
G01 X58.5812 Y21.7956
G01 X58.5552 Y21.8007
G01 X58.4727 Y21.8130
G01 X58.4463 Y21.8156
G01 X58.3630 Y21.8197
G01 X58.3497 Y21.8200
G01 X58.0497 Y21.8200
G01 X58.0365 Y21.8197
G01 X57.9532 Y21.8156
G01 X57.9268 Y21.8130
G01 X57.8443 Y21.8007
G01 X57.8183 Y21.7956
G01 X57.7374 Y21.7753
G01 X57.7120 Y21.7676
G01 X57.6335 Y21.7395
G01 X57.6090 Y21.7294
G01 X57.5336 Y21.6937
G01 X57.5103 Y21.6812
G01 X57.4387 Y21.6383
G01 X57.4167 Y21.6236
G01 X57.3497 Y21.5739
G01 X57.3292 Y21.5571
G01 X57.2674 Y21.5011
G01 X57.2487 Y21.4824
G01 X57.1926 Y21.4206
G01 X57.1758 Y21.4001
G01 X57.1261 Y21.3331
G01 X57.1114 Y21.3110
G01 X57.0685 Y21.2395
G01 X57.0560 Y21.2161
G01 X57.0204 Y21.1407
G01 X57.0102 Y21.1162
G01 X56.9821 Y21.0377
G01 X56.9744 Y21.0123
G01 X56.9542 Y20.9314
G01 X56.9490 Y20.9054
G01 X56.9368 Y20.8229
G01 X56.9342 Y20.7966
G01 X56.9301 Y20.7132
G01 X56.9301 Y20.6868
G01 X56.9342 Y20.6034
G01 X56.9368 Y20.5771
G01 X56.9490 Y20.4946
G01 X56.9542 Y20.4686
G01 X56.9744 Y20.3877
G01 X56.9821 Y20.3623
G01 X57.0102 Y20.2838
G01 X57.0204 Y20.2593
G01 X57.0560 Y20.1839
G01 X57.0685 Y20.1605
G01 X57.1114 Y20.0890
G01 X57.1261 Y20.0669
G01 X57.1758 Y19.9999
G01 X57.1926 Y19.9794
G01 X57.2487 Y19.9176
G01 X57.2674 Y19.8989
G01 X57.3292 Y19.8429
G01 X57.3497 Y19.8261
G01 X57.4167 Y19.7764
G01 X57.4295 Y19.7678
G01 X57.4295 Y16.6722
G01 X57.4167 Y16.6636
G01 X57.3497 Y16.6139
G01 X57.3292 Y16.5971
G01 X57.2674 Y16.5411
G01 X57.2487 Y16.5224
G01 X57.2377 Y16.5103
G01 X55.2397 Y16.5103
G01 X55.2265 Y16.5099
G01 X55.1775 Y16.5075
G01 X55.1511 Y16.5049
G01 X55.1025 Y16.4977
G01 X55.0766 Y16.4925
G01 X55.0289 Y16.4806
G01 X55.0036 Y16.4729
G01 X54.9574 Y16.4564
G01 X54.9329 Y16.4462
G01 X54.8885 Y16.4253
G01 X54.8651 Y16.4128
G01 X54.8230 Y16.3875
G01 X54.8010 Y16.3728
G01 X54.7616 Y16.3436
G01 X54.7411 Y16.3268
G01 X54.7047 Y16.2938
G01 X54.6951 Y16.2846
G01 X53.4497 Y15.0393
G01 X52.9700 Y15.5190
G01 X52.9700 Y22.6078
G01 X52.9828 Y22.6164
G01 X53.0498 Y22.6661
G01 X53.0703 Y22.6829
G01 X53.1321 Y22.7389
G01 X53.1508 Y22.7576
G01 X53.2069 Y22.8194
G01 X53.2237 Y22.8399
G01 X53.2734 Y22.9069
G01 X53.2881 Y22.9290
G01 X53.3310 Y23.0005
G01 X53.3435 Y23.0239
G01 X53.3791 Y23.0993
G01 X53.3893 Y23.1238
G01 X53.4174 Y23.2023
G01 X53.4251 Y23.2277
G01 X53.4453 Y23.3086
G01 X53.4505 Y23.3346
G01 X53.4627 Y23.4171
G01 X53.4653 Y23.4434
G01 X53.4694 Y23.5268
G01 X53.4694 Y23.5532
G01 X53.4653 Y23.6366
G01 X53.4627 Y23.6629
G01 X53.4505 Y23.7454
G01 X53.4453 Y23.7714
G01 X53.4251 Y23.8523
G01 X53.4174 Y23.8777
G01 X53.3893 Y23.9562
G01 X53.3791 Y23.9807
G01 X53.3435 Y24.0561
G01 X53.3310 Y24.0795
G01 X53.2881 Y24.1510
G01 X53.2734 Y24.1731
G01 X53.2237 Y24.2401
G01 X53.2069 Y24.2606
G01 X53.1508 Y24.3224
G01 X53.1321 Y24.3411
G01 X53.0703 Y24.3971
G01 X53.0498 Y24.4139
G01 X52.9828 Y24.4636
G01 X52.9700 Y24.4722
G01 X52.9700 Y25.1478
G01 X52.9828 Y25.1564
G01 X53.0498 Y25.2061
G01 X53.0703 Y25.2229
G01 X53.1321 Y25.2789
G01 X53.1508 Y25.2976
G01 X53.2069 Y25.3594
G01 X53.2237 Y25.3799
G01 X53.2734 Y25.4469
G01 X53.2881 Y25.4690
G01 X53.3310 Y25.5405
G01 X53.3435 Y25.5639
G01 X53.3791 Y25.6393
G01 X53.3893 Y25.6638
G01 X53.4174 Y25.7423
G01 X53.4251 Y25.7677
G01 X53.4453 Y25.8486
G01 X53.4505 Y25.8746
G01 X53.4627 Y25.9571
G01 X53.4653 Y25.9834
G01 X53.4694 Y26.0668
G01 X53.4694 Y26.0932
G01 X53.4653 Y26.1766
G01 X53.4627 Y26.2029
G01 X53.4505 Y26.2854
G01 X53.4453 Y26.3114
G01 X53.4251 Y26.3923
G01 X53.4174 Y26.4177
G01 X53.3893 Y26.4962
G01 X53.3791 Y26.5207
G01 X53.3435 Y26.5961
G01 X53.3310 Y26.6195
G01 X53.2881 Y26.6910
G01 X53.2734 Y26.7131
G01 X53.2237 Y26.7801
G01 X53.2069 Y26.8006
G01 X53.1508 Y26.8624
G01 X53.1321 Y26.8811
G01 X53.0703 Y26.9371
G01 X53.0498 Y26.9539
G01 X52.9828 Y27.0036
G01 X52.9700 Y27.0122
G01 X52.9700 Y27.6878
G01 X52.9828 Y27.6964
G01 X53.0498 Y27.7461
G01 X53.0703 Y27.7629
G01 X53.1321 Y27.8189
G01 X53.1508 Y27.8376
G01 X53.2069 Y27.8994
G01 X53.2237 Y27.9199
G01 X53.2734 Y27.9869
G01 X53.2881 Y28.0090
G01 X53.3310 Y28.0805
G01 X53.3435 Y28.1039
G01 X53.3791 Y28.1793
G01 X53.3893 Y28.2038
G01 X53.4174 Y28.2823
G01 X53.4251 Y28.3077
G01 X53.4453 Y28.3886
G01 X53.4505 Y28.4146
G01 X53.4627 Y28.4971
G01 X53.4653 Y28.5234
G01 X53.4694 Y28.6068
G01 X53.4694 Y28.6332
G01 X53.4653 Y28.7166
G01 X53.4627 Y28.7429
G01 X53.4505 Y28.8254
G01 X53.4453 Y28.8514
G01 X53.4251 Y28.9323
G01 X53.4174 Y28.9577
G01 X53.3893 Y29.0362
G01 X53.3791 Y29.0607
G01 X53.3435 Y29.1361
G01 X53.3310 Y29.1595
G01 X53.2881 Y29.2310
G01 X53.2734 Y29.2531
G01 X53.2237 Y29.3201
G01 X53.2069 Y29.3406
G01 X53.1508 Y29.4024
G01 X53.1321 Y29.4211
G01 X53.0703 Y29.4771
G01 X53.0498 Y29.4939
G01 X52.9828 Y29.5436
G01 X52.9700 Y29.5522
G01 X52.9700 Y30.2278
G01 X52.9828 Y30.2364
G01 X53.0498 Y30.2861
G01 X53.0703 Y30.3029
G01 X53.1321 Y30.3589
G01 X53.1508 Y30.3776
G01 X53.2069 Y30.4394
G01 X53.2237 Y30.4599
G01 X53.2734 Y30.5269
G01 X53.2881 Y30.5490
G01 X53.3310 Y30.6205
G01 X53.3435 Y30.6439
G01 X53.3791 Y30.7193
G01 X53.3893 Y30.7438
G01 X53.4174 Y30.8223
G01 X53.4251 Y30.8477
G01 X53.4453 Y30.9286
G01 X53.4505 Y30.9546
G01 X53.4627 Y31.0371
G01 X53.4653 Y31.0634
G01 X53.4694 Y31.1468
G01 X53.4694 Y31.1732
G01 X53.4653 Y31.2566
G01 X53.4627 Y31.2829
G01 X53.4505 Y31.3654
G01 X53.4453 Y31.3914
G01 X53.4251 Y31.4723
G01 X53.4174 Y31.4977
G01 X53.3893 Y31.5762
G01 X53.3791 Y31.6007
G01 X53.3435 Y31.6761
G01 X53.3310 Y31.6995
G01 X53.2881 Y31.7710
G01 X53.2734 Y31.7931
G01 X53.2237 Y31.8601
G01 X53.2069 Y31.8806
G01 X53.1508 Y31.9424
G01 X53.1321 Y31.9611
G01 X53.0703 Y32.0171
G01 X53.0498 Y32.0339
G01 X52.9828 Y32.0836
G01 X52.9700 Y32.0922
G01 X52.9700 Y32.4300
G01 X53.1997 Y32.4300
G01 X53.2262 Y32.4313
G01 X53.2524 Y32.4352
G01 X53.2781 Y32.4416
G01 X53.3031 Y32.4506
G01 X53.3270 Y32.4619
G01 X53.3498 Y32.4755
G01 X53.3710 Y32.4913
G01 X53.3907 Y32.5091
G01 X53.4085 Y32.5287
G01 X53.4242 Y32.5500
G01 X53.4379 Y32.5727
G01 X53.4492 Y32.5967
G01 X53.4581 Y32.6216
G01 X53.4646 Y32.6473
G01 X53.4684 Y32.6735
G01 X53.4697 Y32.7000
G01 X53.4697 Y34.7000
G01 X53.4684 Y34.7265
G01 X53.4646 Y34.7527
G01 X53.4581 Y34.7784
G01 X53.4492 Y34.8033
G01 X53.4379 Y34.8273
G01 X53.4242 Y34.8500
G01 X53.4085 Y34.8713
G01 X53.3907 Y34.8909
G01 X53.3710 Y34.9087
G01 X53.3498 Y34.9245
G01 X53.3270 Y34.9381
G01 X53.3031 Y34.9494
G01 X53.2781 Y34.9584
G01 X53.2524 Y34.9648
G01 X53.2262 Y34.9687
G01 X53.1997 Y34.9700
G01 X52.9700 Y34.9700
G01 X52.9700 Y37.8810
G01 X54.6288 Y39.5398
G01 X55.3498 Y39.5398
G01 X55.3630 Y39.5401
G01 X55.4120 Y39.5425
G01 X55.4384 Y39.5451
G01 X55.4870 Y39.5523
G01 X55.5129 Y39.5575
G01 X55.5606 Y39.5694
G01 X55.5859 Y39.5771
G01 X55.6321 Y39.5936
G01 X55.6566 Y39.6038
G01 X55.7010 Y39.6247
G01 X55.7244 Y39.6372
G01 X55.7665 Y39.6625
G01 X55.7885 Y39.6772
G01 X55.8279 Y39.7064
G01 X55.8484 Y39.7232
G01 X55.8848 Y39.7562
G01 X55.8944 Y39.7654
G01 X56.1690 Y40.0400
G01 X56.3497 Y40.0400
G01 X56.3630 Y40.0403
G01 X56.4463 Y40.0444
G01 X56.4727 Y40.0470
G01 X56.5552 Y40.0593
G01 X56.5812 Y40.0644
G01 X56.6621 Y40.0847
G01 X56.6875 Y40.0924
G01 X56.7660 Y40.1205
G01 X56.7905 Y40.1306
G01 X56.8659 Y40.1663
G01 X56.8892 Y40.1788
G01 X56.9608 Y40.2217
G01 X56.9828 Y40.2364
G01 X57.0498 Y40.2861
G01 X57.0703 Y40.3029
G01 X57.1321 Y40.3589
G01 X57.1508 Y40.3776
G01 X57.1618 Y40.3897
G01 X57.6597 Y40.3897
G01 X57.6730 Y40.3901
G01 X57.7220 Y40.3925
G01 X57.7484 Y40.3951
G01 X57.7970 Y40.4023
G01 X57.8229 Y40.4075
G01 X57.8706 Y40.4194
G01 X57.8959 Y40.4271
G01 X57.9421 Y40.4436
G01 X57.9666 Y40.4538
G01 X58.0110 Y40.4747
G01 X58.0344 Y40.4872
G01 X58.0765 Y40.5125
G01 X58.0985 Y40.5272
G01 X58.1379 Y40.5564
G01 X58.1584 Y40.5732
G01 X58.1948 Y40.6062
G01 X58.2044 Y40.6154
G01 X59.7444 Y42.1554
G01 X59.7535 Y42.1649
G01 X59.7865 Y42.2013
G01 X59.8033 Y42.2218
G01 X59.8326 Y42.2612
G01 X59.8473 Y42.2833
G01 X59.8725 Y42.3254
G01 X59.8850 Y42.3487
G01 X59.9060 Y42.3931
G01 X59.9161 Y42.4176
G01 X59.9327 Y42.4638
G01 X59.9404 Y42.4892
G01 X59.9523 Y42.5368
G01 X59.9575 Y42.5628
G01 X59.9647 Y42.6113
G01 X59.9673 Y42.6377
G01 X59.9697 Y42.6868
G01 X59.9700 Y42.7000
G01 X59.9700 Y45.7000
G01 X59.9697 Y45.7132
G01 X59.9673 Y45.7623
G01 X59.9647 Y45.7887
G01 X59.9575 Y45.8372
G01 X59.9523 Y45.8632
G01 X59.9404 Y45.9108
G01 X59.9327 Y45.9362
G01 X59.9161 Y45.9824
G01 X59.9060 Y46.0069
G01 X59.8850 Y46.0513
G01 X59.8725 Y46.0746
G01 X59.8473 Y46.1167
G01 X59.8326 Y46.1388
G01 X59.8033 Y46.1782
G01 X59.7865 Y46.1987
G01 X59.7535 Y46.2351
G01 X59.7444 Y46.2446
G01 X57.4562 Y48.5329
G01 X57.4627 Y48.5771
G01 X57.4653 Y48.6034
G01 X57.4694 Y48.6868
G01 X57.4694 Y48.7132
G01 X57.4653 Y48.7966
G01 X57.4627 Y48.8229
G01 X57.4505 Y48.9054
G01 X57.4453 Y48.9314
G01 X57.4251 Y49.0123
G01 X57.4174 Y49.0377
G01 X57.3893 Y49.1162
G01 X57.3791 Y49.1407
G01 X57.3435 Y49.2161
G01 X57.3310 Y49.2395
G01 X57.2881 Y49.3110
G01 X57.2734 Y49.3331
G01 X57.2237 Y49.4001
G01 X57.2069 Y49.4206
G01 X57.1508 Y49.4824
G01 X57.1321 Y49.5011
G01 X57.0703 Y49.5571
G01 X57.0498 Y49.5739
G01 X56.9828 Y49.6236
G01 X56.9608 Y49.6383
G01 X56.8892 Y49.6812
G01 X56.8659 Y49.6937
G01 X56.7905 Y49.7294
G01 X56.7660 Y49.7395
G01 X56.6875 Y49.7676
G01 X56.6621 Y49.7753
G01 X56.5812 Y49.7956
G01 X56.5552 Y49.8007
G01 X56.4727 Y49.8130
G01 X56.4463 Y49.8156
G01 X56.3630 Y49.8197
G01 X56.3497 Y49.8200
G01 X56.0497 Y49.8200
G01 X56.0365 Y49.8197
G01 X55.9532 Y49.8156
G01 X55.9268 Y49.8130
G01 X55.8443 Y49.8007
G01 X55.8183 Y49.7956
G01 X55.7374 Y49.7753
G01 X55.7120 Y49.7676
G01 X55.6335 Y49.7395
G01 X55.6090 Y49.7294
G01 X55.5336 Y49.6937
G01 X55.5103 Y49.6812
G01 X55.4387 Y49.6383
G01 X55.4167 Y49.6236
G01 X55.3497 Y49.5739
G01 X55.3292 Y49.5571
G01 X55.2674 Y49.5011
G01 X55.2487 Y49.4824
G01 X55.1926 Y49.4206
G01 X55.1758 Y49.4001
G01 X55.1261 Y49.3331
G01 X55.1114 Y49.3110
G01 X55.0685 Y49.2395
G01 X55.0560 Y49.2161
G01 X55.0204 Y49.1407
G01 X55.0102 Y49.1162
G01 X54.9821 Y49.0377
G01 X54.9744 Y49.0123
G01 X54.9542 Y48.9314
G01 X54.9490 Y48.9054
G01 X54.9368 Y48.8229
G01 X54.9342 Y48.7966
G01 X54.9301 Y48.7132
G01 X54.9301 Y48.6868
G01 X54.9342 Y48.6034
G01 X54.9368 Y48.5771
G01 X54.9490 Y48.4946
G01 X54.9542 Y48.4686
G01 X54.9744 Y48.3877
G01 X54.9821 Y48.3623
G01 X55.0102 Y48.2838
G01 X55.0204 Y48.2593
G01 X55.0560 Y48.1839
G01 X55.0685 Y48.1605
G01 X55.1114 Y48.0890
G01 X55.1261 Y48.0669
G01 X55.1758 Y47.9999
G01 X55.1926 Y47.9794
G01 X55.2487 Y47.9176
G01 X55.2674 Y47.8989
G01 X55.3292 Y47.8429
G01 X55.3497 Y47.8261
G01 X55.4167 Y47.7764
G01 X55.4387 Y47.7617
G01 X55.5103 Y47.7188
G01 X55.5336 Y47.7063
G01 X55.6090 Y47.6706
G01 X55.6335 Y47.6605
G01 X55.7120 Y47.6324
G01 X55.7374 Y47.6247
G01 X55.8183 Y47.6044
G01 X55.8443 Y47.5993
G01 X55.9268 Y47.5870
G01 X55.9532 Y47.5844
G01 X56.0365 Y47.5803
G01 X56.0497 Y47.5800
G01 X56.2305 Y47.5800
G01 X58.4295 Y45.3810
G01 X58.4295 Y43.0190
G01 X57.3407 Y41.9303
G01 X57.1618 Y41.9303
G01 X57.1508 Y41.9424
G01 X57.1321 Y41.9611
G01 X57.0703 Y42.0171
G01 X57.0498 Y42.0339
G01 X56.9828 Y42.0836
G01 X56.9608 Y42.0983
G01 X56.8892 Y42.1412
G01 X56.8659 Y42.1537
G01 X56.7905 Y42.1894
G01 X56.7660 Y42.1995
G01 X56.6875 Y42.2276
G01 X56.6621 Y42.2353
G01 X56.5812 Y42.2556
G01 X56.5552 Y42.2607
G01 X56.4727 Y42.2730
G01 X56.4463 Y42.2756
G01 X56.3630 Y42.2797
G01 X56.3497 Y42.2800
G01 X56.0497 Y42.2800
G01 X56.0365 Y42.2797
G01 X55.9532 Y42.2756
G01 X55.9268 Y42.2730
G01 X55.8443 Y42.2607
G01 X55.8183 Y42.2556
G01 X55.7374 Y42.2353
G01 X55.7120 Y42.2276
G01 X55.6335 Y42.1995
G01 X55.6090 Y42.1894
G01 X55.5336 Y42.1537
G01 X55.5103 Y42.1412
G01 X55.4387 Y42.0983
G01 X55.4167 Y42.0836
G01 X55.3497 Y42.0339
G01 X55.3292 Y42.0171
G01 X55.2674 Y41.9611
G01 X55.2487 Y41.9424
G01 X55.1926 Y41.8806
G01 X55.1758 Y41.8601
G01 X55.1261 Y41.7931
G01 X55.1114 Y41.7710
G01 X55.0685 Y41.6995
G01 X55.0560 Y41.6761
G01 X55.0204 Y41.6007
G01 X55.0102 Y41.5762
G01 X54.9821 Y41.4977
G01 X54.9744 Y41.4723
G01 X54.9542 Y41.3914
G01 X54.9490 Y41.3654
G01 X54.9368 Y41.2829
G01 X54.9342 Y41.2566
G01 X54.9301 Y41.1732
G01 X54.9301 Y41.1468
G01 X54.9333 Y41.0803
G01 X54.3098 Y41.0803
G01 X54.2965 Y41.0799
G01 X54.2475 Y41.0775
G01 X54.2211 Y41.0749
G01 X54.1725 Y41.0677
G01 X54.1466 Y41.0625
G01 X54.0989 Y41.0506
G01 X54.0736 Y41.0429
G01 X54.0274 Y41.0264
G01 X54.0029 Y41.0162
G01 X53.9585 Y40.9953
G01 X53.9351 Y40.9828
G01 X53.8930 Y40.9575
G01 X53.8710 Y40.9428
G01 X53.8316 Y40.9136
G01 X53.8111 Y40.8968
G01 X53.7747 Y40.8638
G01 X53.7651 Y40.8547
G01 X51.6997 Y38.7893
G01 X48.9700 Y41.5190
G01 X48.9700 Y50.7000
G01 X48.9697 Y50.7132
G01 X48.9673 Y50.7623
G01 X48.9647 Y50.7887
G01 X48.9575 Y50.8372
G01 X48.9523 Y50.8632
G01 X48.9404 Y50.9108
G01 X48.9327 Y50.9362
G01 X48.9161 Y50.9824
G01 X48.9060 Y51.0069
G01 X48.8850 Y51.0513
G01 X48.8725 Y51.0746
G01 X48.8473 Y51.1167
G01 X48.8326 Y51.1388
G01 X48.8033 Y51.1782
G01 X48.7865 Y51.1987
G01 X48.7535 Y51.2351
G01 X48.7444 Y51.2446
G01 X46.7844 Y53.2046
G01 X46.7748 Y53.2138
G01 X46.7384 Y53.2468
G01 X46.7179 Y53.2636
G01 X46.6785 Y53.2928
G01 X46.6565 Y53.3075
G01 X46.6144 Y53.3328
G01 X46.5910 Y53.3453
G01 X46.5466 Y53.3662
G01 X46.5221 Y53.3764
G01 X46.4759 Y53.3929
G01 X46.4506 Y53.4006
G01 X46.4029 Y53.4125
G01 X46.3770 Y53.4177
G01 X46.3284 Y53.4249
G01 X46.3020 Y53.4275
G01 X46.2530 Y53.4299
G01 X46.2397 Y53.4303
G01 X45.0097 Y53.4303
G01 X45.0097 Y53.6600
G01 X45.0084 Y53.6865
G01 X45.0046 Y53.7127
G01 X44.9981 Y53.7384
G01 X44.9892 Y53.7633
G01 X44.9779 Y53.7873
G01 X44.9642 Y53.8100
G01 X44.9485 Y53.8313
G01 X44.9307 Y53.8509
G01 X44.9110 Y53.8687
G01 X44.8898 Y53.8845
G01 X44.8670 Y53.8981
G01 X44.8431 Y53.9094
G01 X44.8181 Y53.9184
G01 X44.7924 Y53.9248
G01 X44.7662 Y53.9287
G01 X44.7397 Y53.9300
G01 X42.7397 Y53.9300
G01 X42.7133 Y53.9287
G01 X42.6871 Y53.9248
G01 X42.6614 Y53.9184
G01 X42.6364 Y53.9094
G01 X42.6125 Y53.8981
G01 X42.5897 Y53.8845
G01 X42.5685 Y53.8687
G01 X42.5488 Y53.8509
G01 X42.5310 Y53.8313
G01 X42.5153 Y53.8100
G01 X42.5016 Y53.7873
G01 X42.4903 Y53.7633
G01 X42.4814 Y53.7384
G01 X42.4749 Y53.7127
G01 X42.4711 Y53.6865
G01 X42.4697 Y53.6600
G01 X42.4697 Y51.6600
G01 X42.4711 Y51.6335
G01 X42.4749 Y51.6073
G01 X42.4814 Y51.5816
G01 X42.4903 Y51.5567
G01 X42.5016 Y51.5327
G01 X42.5153 Y51.5100
G01 X42.5310 Y51.4887
G01 X42.5488 Y51.4691
G01 X42.5685 Y51.4513
G01 X42.5897 Y51.4355
G01 X42.6125 Y51.4219
G01 X42.6364 Y51.4106
G01 X42.6614 Y51.4016
G01 X42.6871 Y51.3952
G01 X42.7133 Y51.3913
G01 X42.7397 Y51.3900
G01 X44.7397 Y51.3900
G01 X44.7662 Y51.3913
G01 X44.7924 Y51.3952
G01 X44.8181 Y51.4016
G01 X44.8431 Y51.4106
G01 X44.8670 Y51.4219
G01 X44.8898 Y51.4355
G01 X44.9110 Y51.4513
G01 X44.9307 Y51.4691
G01 X44.9485 Y51.4887
G01 X44.9642 Y51.5100
G01 X44.9779 Y51.5327
G01 X44.9892 Y51.5567
G01 X44.9981 Y51.5816
G01 X45.0046 Y51.6073
G01 X45.0084 Y51.6335
G01 X45.0097 Y51.6600
G01 X45.0097 Y51.8897
G01 X45.9207 Y51.8897
G01 X47.4295 Y50.3810
G01 X47.4295 Y41.2000
G01 X47.4298 Y41.1868
G01 X47.4322 Y41.1377
G01 X47.4348 Y41.1113
G01 X47.4420 Y41.0628
G01 X47.4472 Y41.0368
G01 X47.4591 Y40.9892
G01 X47.4668 Y40.9638
G01 X47.4834 Y40.9176
G01 X47.4935 Y40.8931
G01 X47.5145 Y40.8487
G01 X47.5270 Y40.8254
G01 X47.5522 Y40.7833
G01 X47.5669 Y40.7612
G01 X47.5962 Y40.7218
G01 X47.6130 Y40.7013
G01 X47.6460 Y40.6649
G01 X47.6551 Y40.6554
G01 X51.4295 Y36.8810
G01 X51.4295 Y34.9700
G01 X51.1997 Y34.9700
G01 X51.1733 Y34.9687
G01 X51.1471 Y34.9648
G01 X51.1214 Y34.9584
G01 X51.0964 Y34.9494
G01 X51.0725 Y34.9381
G01 X51.0497 Y34.9245
G01 X51.0285 Y34.9087
G01 X51.0088 Y34.8909
G01 X50.9910 Y34.8713
G01 X50.9753 Y34.8500
G01 X50.9616 Y34.8273
G01 X50.9503 Y34.8033
G01 X50.9414 Y34.7784
G01 X50.9349 Y34.7527
G01 X50.9311 Y34.7265
G01 X50.9297 Y34.7000
G01 X50.9297 Y32.7000
G01 X50.9311 Y32.6735
G01 X50.9349 Y32.6473
G01 X50.9414 Y32.6216
G01 X50.9503 Y32.5967
G01 X50.9616 Y32.5727
G01 X50.9753 Y32.5500
G01 X50.9910 Y32.5287
G01 X51.0088 Y32.5091
G01 X51.0285 Y32.4913
G01 X51.0497 Y32.4755
G01 X51.0725 Y32.4619
G01 X51.0964 Y32.4506
G01 X51.1214 Y32.4416
G01 X51.1471 Y32.4352
G01 X51.1733 Y32.4313
G01 X51.1997 Y32.4300
G01 X51.4295 Y32.4300
G01 X51.4295 Y32.0922
G01 X51.4167 Y32.0836
G01 X51.3497 Y32.0339
G01 X51.3292 Y32.0171
G01 X51.2674 Y31.9611
G01 X51.2487 Y31.9424
G01 X51.1926 Y31.8806
G01 X51.1758 Y31.8601
G01 X51.1261 Y31.7931
G01 X51.1114 Y31.7710
G01 X51.0685 Y31.6995
G01 X51.0560 Y31.6761
G01 X51.0204 Y31.6007
G01 X51.0102 Y31.5762
G01 X50.9821 Y31.4977
G01 X50.9744 Y31.4723
G01 X50.9542 Y31.3914
G01 X50.9490 Y31.3654
G01 X50.9368 Y31.2829
G01 X50.9342 Y31.2566
G01 X50.9301 Y31.1732
G01 X50.9301 Y31.1468
G01 X50.9342 Y31.0634
G01 X50.9368 Y31.0371
G01 X50.9490 Y30.9546
G01 X50.9542 Y30.9286
G01 X50.9744 Y30.8477
G01 X50.9821 Y30.8223
G01 X51.0102 Y30.7438
G01 X51.0204 Y30.7193
G01 X51.0560 Y30.6439
G01 X51.0685 Y30.6205
G01 X51.1114 Y30.5490
G01 X51.1261 Y30.5269
G01 X51.1758 Y30.4599
G01 X51.1926 Y30.4394
G01 X51.2487 Y30.3776
G01 X51.2674 Y30.3589
G01 X51.3292 Y30.3029
G01 X51.3497 Y30.2861
G01 X51.4167 Y30.2364
G01 X51.4295 Y30.2278
G01 X51.4295 Y29.5522
G01 X51.4167 Y29.5436
G01 X51.3497 Y29.4939
G01 X51.3292 Y29.4771
G01 X51.2674 Y29.4211
G01 X51.2487 Y29.4024
G01 X51.1926 Y29.3406
G01 X51.1758 Y29.3201
G01 X51.1261 Y29.2531
G01 X51.1114 Y29.2310
G01 X51.0685 Y29.1595
G01 X51.0560 Y29.1361
G01 X51.0204 Y29.0607
G01 X51.0102 Y29.0362
G01 X50.9821 Y28.9577
G01 X50.9744 Y28.9323
G01 X50.9542 Y28.8514
G01 X50.9490 Y28.8254
G01 X50.9368 Y28.7429
G01 X50.9342 Y28.7166
G01 X50.9301 Y28.6332
G01 X50.9301 Y28.6068
G01 X50.9342 Y28.5234
G01 X50.9368 Y28.4971
G01 X50.9490 Y28.4146
G01 X50.9542 Y28.3886
G01 X50.9744 Y28.3077
G01 X50.9821 Y28.2823
G01 X51.0102 Y28.2038
G01 X51.0204 Y28.1793
G01 X51.0560 Y28.1039
G01 X51.0685 Y28.0805
G01 X51.1114 Y28.0090
G01 X51.1261 Y27.9869
G01 X51.1758 Y27.9199
G01 X51.1926 Y27.8994
G01 X51.2487 Y27.8376
G01 X51.2674 Y27.8189
G01 X51.3292 Y27.7629
G01 X51.3497 Y27.7461
G01 X51.4167 Y27.6964
G01 X51.4295 Y27.6878
G01 X51.4295 Y27.0122
G01 X51.4167 Y27.0036
G01 X51.3497 Y26.9539
G01 X51.3292 Y26.9371
G01 X51.2674 Y26.8811
G01 X51.2487 Y26.8624
G01 X51.1926 Y26.8006
G01 X51.1758 Y26.7801
G01 X51.1261 Y26.7131
G01 X51.1114 Y26.6910
G01 X51.0685 Y26.6195
G01 X51.0560 Y26.5961
G01 X51.0204 Y26.5207
G01 X51.0102 Y26.4962
G01 X50.9821 Y26.4177
G01 X50.9744 Y26.3923
G01 X50.9542 Y26.3114
G01 X50.9490 Y26.2854
G01 X50.9368 Y26.2029
G01 X50.9342 Y26.1766
G01 X50.9301 Y26.0932
G01 X50.9301 Y26.0668
G01 X50.9342 Y25.9834
G01 X50.9368 Y25.9571
G01 X50.9490 Y25.8746
G01 X50.9542 Y25.8486
G01 X50.9744 Y25.7677
G01 X50.9821 Y25.7423
G01 X51.0102 Y25.6638
G01 X51.0204 Y25.6393
G01 X51.0560 Y25.5639
G01 X51.0685 Y25.5405
G01 X51.1114 Y25.4690
G01 X51.1261 Y25.4469
G01 X51.1758 Y25.3799
G01 X51.1926 Y25.3594
G01 X51.2487 Y25.2976
G01 X51.2674 Y25.2789
G01 X51.3292 Y25.2229
G01 X51.3497 Y25.2061
G01 X51.4167 Y25.1564
G01 X51.4295 Y25.1478
G01 X51.4295 Y24.4722
G01 X51.4167 Y24.4636
G01 X51.3497 Y24.4139
G01 X51.3292 Y24.3971
G01 X51.2674 Y24.3411
G01 X51.2487 Y24.3224
G01 X51.1926 Y24.2606
G01 X51.1758 Y24.2401
G01 X51.1261 Y24.1731
G01 X51.1114 Y24.1510
G01 X51.0685 Y24.0795
G01 X51.0560 Y24.0561
G01 X51.0204 Y23.9807
G01 X51.0102 Y23.9562
G01 X50.9821 Y23.8777
G01 X50.9744 Y23.8523
G01 X50.9542 Y23.7714
G01 X50.9490 Y23.7454
G01 X50.9368 Y23.6629
G01 X50.9342 Y23.6366
G01 X50.9301 Y23.5532
G01 X50.9301 Y23.5268
G01 X50.9342 Y23.4434
G01 X50.9368 Y23.4171
G01 X50.9490 Y23.3346
G01 X50.9542 Y23.3086
G01 X50.9744 Y23.2277
G01 X50.9821 Y23.2023
G01 X51.0102 Y23.1238
G01 X51.0204 Y23.0993
G01 X51.0560 Y23.0239
G01 X51.0685 Y23.0005
G01 X51.1114 Y22.9290
G01 X51.1261 Y22.9069
G01 X51.1758 Y22.8399
G01 X51.1926 Y22.8194
G01 X51.2487 Y22.7576
G01 X51.2674 Y22.7389
G01 X51.3292 Y22.6829
G01 X51.3497 Y22.6661
G01 X51.4167 Y22.6164
G01 X51.4295 Y22.6078
G01 X51.4295 Y15.2000
G01 X51.4298 Y15.1868
G01 X51.4322 Y15.1377
G01 X51.4348 Y15.1113
G01 X51.4420 Y15.0628
G01 X51.4472 Y15.0368
G01 X51.4591 Y14.9892
G01 X51.4668 Y14.9638
G01 X51.4834 Y14.9176
G01 X51.4935 Y14.8931
G01 X51.5145 Y14.8487
G01 X51.5270 Y14.8254
G01 X51.5522 Y14.7833
G01 X51.5669 Y14.7612
G01 X51.5962 Y14.7218
G01 X51.6130 Y14.7013
G01 X51.6460 Y14.6649
G01 X51.6551 Y14.6554
G01 X52.6105 Y13.7000
G01 X48.1407 Y9.2303
G01 X39.3818 Y9.2303
G01 X39.3708 Y9.2424
G01 X39.3521 Y9.2611
G01 X39.2903 Y9.3171
G01 X39.2698 Y9.3339
G01 X39.2028 Y9.3836
G01 X39.1808 Y9.3983
G01 X39.1092 Y9.4412
G01 X39.0859 Y9.4537
G01 X39.0105 Y9.4894
G01 X38.9860 Y9.4995
G01 X38.9075 Y9.5276
G01 X38.8821 Y9.5353
G01 X38.8012 Y9.5556
G01 X38.7752 Y9.5607
G01 X38.6927 Y9.5730
G01 X38.6663 Y9.5756
G01 X38.5830 Y9.5797
G01 X38.5697 Y9.5800
G01 X38.0697 Y9.5800
G01 X38.0565 Y9.5797
G01 X37.9732 Y9.5756
G01 X37.9468 Y9.5730
G01 X37.8643 Y9.5607
G01 X37.8383 Y9.5556
G01 X37.7574 Y9.5353
G01 X37.7320 Y9.5276
G01 X37.6535 Y9.4995
G01 X37.6290 Y9.4894
G01 X37.5536 Y9.4537
G01 X37.5303 Y9.4412
G01 X37.4587 Y9.3983
G01 X37.4367 Y9.3836
G01 X37.3697 Y9.3339
G01 X37.3492 Y9.3171
G01 X37.2874 Y9.2611
G01 X37.2687 Y9.2424
G01 X37.2577 Y9.2303
G01 X36.5388 Y9.2303
G01 X31.6844 Y14.0846
G01 X31.6748 Y14.0938
G01 X31.6384 Y14.1268
G01 X31.6179 Y14.1436
G01 X31.5785 Y14.1728
G01 X31.5565 Y14.1875
G01 X31.5144 Y14.2128
G01 X31.4910 Y14.2253
G01 X31.4466 Y14.2462
G01 X31.4221 Y14.2564
G01 X31.3759 Y14.2729
G01 X31.3506 Y14.2806
G01 X31.3029 Y14.2925
G01 X31.2770 Y14.2977
G01 X31.2284 Y14.3049
G01 X31.2020 Y14.3075
G01 X31.1530 Y14.3099
G01 X31.1397 Y14.3103
G01 X24.1418 Y14.3103
G01 X24.1308 Y14.3224
G01 X24.1121 Y14.3411
G01 X24.0503 Y14.3971
G01 X24.0298 Y14.4139
G01 X23.9628 Y14.4636
G01 X23.9408 Y14.4783
G01 X23.8692 Y14.5212
G01 X23.8459 Y14.5337
G01 X23.7705 Y14.5694
G01 X23.7460 Y14.5795
G01 X23.6675 Y14.6076
G01 X23.6421 Y14.6153
G01 X23.5612 Y14.6356
G01 X23.5352 Y14.6407
G01 X23.4527 Y14.6530
G01 X23.4263 Y14.6556
G01 X23.3430 Y14.6597
G01 X23.3297 Y14.6600
G01 X22.8297 Y14.6600
G01 X22.8165 Y14.6597
G01 X22.7332 Y14.6556
G01 X22.7068 Y14.6530
G01 X22.6243 Y14.6407
G01 X22.5983 Y14.6356
G01 X22.5174 Y14.6153
G01 X22.4920 Y14.6076
G01 X22.4135 Y14.5795
G01 X22.3890 Y14.5694
G01 X22.3136 Y14.5337
G01 X22.2903 Y14.5212
G01 X22.2187 Y14.4783
G01 X22.1967 Y14.4636
G01 X22.1297 Y14.4139
G01 X22.1092 Y14.3971
G01 X22.0474 Y14.3411
G01 X22.0287 Y14.3224
G01 X22.0177 Y14.3103
G01 X20.9797 Y14.3103
G01 X20.9665 Y14.3099
G01 X20.9175 Y14.3075
G01 X20.8911 Y14.3049
G01 X20.8425 Y14.2977
G01 X20.8166 Y14.2925
G01 X20.7689 Y14.2806
G01 X20.7436 Y14.2729
G01 X20.6974 Y14.2564
G01 X20.6729 Y14.2462
G01 X20.6285 Y14.2253
G01 X20.6051 Y14.2128
G01 X20.5630 Y14.1875
G01 X20.5410 Y14.1728
G01 X20.5016 Y14.1436
G01 X20.4811 Y14.1268
G01 X20.4447 Y14.0938
G01 X20.4351 Y14.0846
G01 X18.2407 Y11.8903
G01 X15.6618 Y11.8903
G01 X15.6508 Y11.9024
G01 X15.6321 Y11.9211
G01 X15.5703 Y11.9771
G01 X15.5498 Y11.9939
G01 X15.4828 Y12.0436
G01 X15.4608 Y12.0583
G01 X15.3892 Y12.1012
G01 X15.3659 Y12.1137
G01 X15.2905 Y12.1494
G01 X15.2660 Y12.1595
G01 X15.1875 Y12.1876
G01 X15.1621 Y12.1953
G01 X15.0812 Y12.2156
G01 X15.0552 Y12.2207
G01 X14.9727 Y12.2330
G01 X14.9463 Y12.2356
G01 X14.8630 Y12.2397
G01 X14.8497 Y12.2400
G01 X14.5497 Y12.2400
G01 X14.5365 Y12.2397
G01 X14.4532 Y12.2356
G01 X14.4268 Y12.2330
G01 X14.3443 Y12.2207
G01 X14.3183 Y12.2156
G01 X14.2374 Y12.1953
G01 X14.2120 Y12.1876
G01 X14.1335 Y12.1595
G01 X14.1090 Y12.1494
G01 X14.0336 Y12.1137
G01 X14.0103 Y12.1012
G01 X13.9387 Y12.0583
G01 X13.9167 Y12.0436
G01 X13.8497 Y11.9939
G01 X13.8292 Y11.9771
G01 X13.7674 Y11.9211
G01 X13.7487 Y11.9024
G01 X13.6926 Y11.8406
G01 X13.6758 Y11.8201
G01 X13.6261 Y11.7531
G01 X13.6114 Y11.7310
G01 X13.5685 Y11.6595
G01 X13.5560 Y11.6361
G01 X13.5204 Y11.5607
G01 X13.5102 Y11.5362
G01 X13.4821 Y11.4577
G01 X13.4744 Y11.4323
G01 X13.4542 Y11.3514
G01 X13.4490 Y11.3254
G01 X13.4368 Y11.2429
G01 X13.4342 Y11.2166
G01 X13.4301 Y11.1332
G01 X13.4301 Y11.1068
G01 X13.4333 Y11.0403
G01 X11.9660 Y11.0403
G01 X11.9560 Y11.0553
G01 X11.8829 Y11.1538
G01 X11.8661 Y11.1743
G01 X11.7837 Y11.2652
G01 X11.7650 Y11.2839
G01 X11.6741 Y11.3663
G01 X11.6536 Y11.3831
G01 X11.5551 Y11.4562
G01 X11.5330 Y11.4709
G01 X11.4278 Y11.5340
G01 X11.4044 Y11.5465
G01 X11.2935 Y11.5989
G01 X11.2691 Y11.6091
G01 X11.1536 Y11.6504
G01 X11.1282 Y11.6581
G01 X11.0092 Y11.6879
G01 X10.9832 Y11.6931
G01 X10.8619 Y11.7111
G01 X10.8355 Y11.7137
G01 X10.7130 Y11.7197
G01 X10.6865 Y11.7197
G01 X10.5640 Y11.7137
G01 X10.5376 Y11.7111
G01 X10.4163 Y11.6931
G01 X10.3903 Y11.6879
G01 X10.2713 Y11.6581
G01 X10.2459 Y11.6504
G01 X10.1304 Y11.6091
G01 X10.1060 Y11.5989
G01 X9.9951 Y11.5465
G01 X9.9717 Y11.5340
G01 X9.8665 Y11.4709
G01 X9.8444 Y11.4562
G01 X9.7459 Y11.3831
G01 X9.7254 Y11.3663
G01 X9.6345 Y11.2839
G01 X9.6158 Y11.2652
G01 X9.5334 Y11.1743
G01 X9.5166 Y11.1538
G01 X9.4435 Y11.0553
G01 X9.4288 Y11.0333
G01 X9.3658 Y10.9281
G01 X9.3533 Y10.9047
G01 X9.3008 Y10.7938
G01 X9.2907 Y10.7693
G01 X9.2494 Y10.6538
G01 X9.2417 Y10.6285
G01 X9.2119 Y10.5095
G01 X9.2067 Y10.4835
G01 X9.1887 Y10.3621
G01 X9.1861 Y10.3358
G01 X9.1801 Y10.2132
G01 X9.1801 Y10.1868
G01 X9.1861 Y10.0642
G01 X9.1887 Y10.0379
G01 X9.2067 Y9.9165
G01 X9.2119 Y9.8905
G01 X9.2417 Y9.7715
G01 X9.2494 Y9.7462
G01 X9.2907 Y9.6307
G01 X9.3008 Y9.6062
G01 X9.3533 Y9.4953
G01 X9.3658 Y9.4719
G01 X9.4288 Y9.3667
G01 X9.4435 Y9.3447
G01 X9.5166 Y9.2462
G01 X9.5334 Y9.2257
G01 X9.6158 Y9.1348
G01 X9.6345 Y9.1161
G01 X9.7254 Y9.0337
G01 X9.7459 Y9.0169
G01 X9.8444 Y8.9438
G01 X9.8665 Y8.9291
G01 X9.9717 Y8.8660
G01 X9.9951 Y8.8535
G01 X10.1060 Y8.8011
G01 X10.1304 Y8.7909
G01 X10.2459 Y8.7496
G01 X10.2713 Y8.7419
G01 X10.3903 Y8.7121
G01 X10.4163 Y8.7069
G01 X10.5376 Y8.6889
G01 X10.5640 Y8.6863
G01 X10.6865 Y8.6803
G01 X10.7130 Y8.6803
G01 X10.8355 Y8.6863
G01 X10.8619 Y8.6889
G01 X10.9832 Y8.7069
G01 X11.0092 Y8.7121
G01 X11.1282 Y8.7419
G01 X11.1536 Y8.7496
G01 X11.2691 Y8.7909
G01 X11.2935 Y8.8011
G01 X11.4044 Y8.8535
G01 X11.4278 Y8.8660
G01 X11.5330 Y8.9291
G01 X11.5551 Y8.9438
G01 X11.6536 Y9.0169
G01 X11.6741 Y9.0337
G01 X11.7650 Y9.1161
G01 X11.7837 Y9.1348
G01 X11.8661 Y9.2257
G01 X11.8829 Y9.2462
G01 X11.9560 Y9.3447
G01 X11.9707 Y9.3667
G01 X12.0337 Y9.4719
G01 X12.0483 Y9.4998
G01 X13.8498 Y9.4998
G01 X13.8630 Y9.5001
G01 X13.9120 Y9.5025
G01 X13.9384 Y9.5051
G01 X13.9870 Y9.5123
G01 X14.0129 Y9.5175
G01 X14.0606 Y9.5294
G01 X14.0859 Y9.5371
G01 X14.1321 Y9.5536
G01 X14.1566 Y9.5638
G01 X14.2010 Y9.5847
G01 X14.2244 Y9.5972
G01 X14.2665 Y9.6225
G01 X14.2885 Y9.6372
G01 X14.3279 Y9.6664
G01 X14.3484 Y9.6832
G01 X14.3848 Y9.7162
G01 X14.3944 Y9.7254
G01 X14.6690 Y10.0000
G01 X14.8497 Y10.0000
G01 X14.8630 Y10.0003
G01 X14.9463 Y10.0044
G01 X14.9727 Y10.0070
G01 X15.0552 Y10.0193
G01 X15.0812 Y10.0244
G01 X15.1621 Y10.0447
G01 X15.1875 Y10.0524
G01 X15.2660 Y10.0805
G01 X15.2905 Y10.0906
G01 X15.3659 Y10.1263
G01 X15.3892 Y10.1388
G01 X15.4608 Y10.1817
G01 X15.4828 Y10.1964
G01 X15.5498 Y10.2461
G01 X15.5703 Y10.2629
G01 X15.6321 Y10.3189
G01 X15.6508 Y10.3376
G01 X15.6618 Y10.3497
G01 X18.5597 Y10.3497
G01 X18.5730 Y10.3501
G01 X18.6220 Y10.3525
G01 X18.6484 Y10.3551
G01 X18.6970 Y10.3623
G01 X18.7229 Y10.3675
G01 X18.7706 Y10.3794
G01 X18.7959 Y10.3871
G01 X18.8421 Y10.4036
G01 X18.8666 Y10.4138
G01 X18.9110 Y10.4347
G01 X18.9344 Y10.4472
G01 X18.9765 Y10.4725
G01 X18.9985 Y10.4872
G01 X19.0379 Y10.5164
G01 X19.0584 Y10.5332
G01 X19.0948 Y10.5662
G01 X19.1044 Y10.5754
G01 X21.2988 Y12.7697
G01 X22.0177 Y12.7697
G01 X22.0287 Y12.7576
G01 X22.0474 Y12.7389
G01 X22.1092 Y12.6829
G01 X22.1297 Y12.6661
G01 X22.1967 Y12.6164
G01 X22.2187 Y12.6017
G01 X22.2903 Y12.5588
G01 X22.3136 Y12.5463
G01 X22.3890 Y12.5106
G01 X22.4135 Y12.5005
G01 X22.4920 Y12.4724
G01 X22.5174 Y12.4647
G01 X22.5983 Y12.4444
G01 X22.6243 Y12.4393
G01 X22.7068 Y12.4270
G01 X22.7332 Y12.4244
G01 X22.8165 Y12.4203
G01 X22.8297 Y12.4200
G01 X23.3297 Y12.4200
G01 X23.3430 Y12.4203
G01 X23.4263 Y12.4244
G01 X23.4527 Y12.4270
G01 X23.5352 Y12.4393
G01 X23.5612 Y12.4444
G01 X23.6421 Y12.4647
G01 X23.6675 Y12.4724
G01 X23.7460 Y12.5005
G01 X23.7705 Y12.5106
G01 X23.8459 Y12.5463
G01 X23.8692 Y12.5588
G01 X23.9408 Y12.6017
G01 X23.9628 Y12.6164
G01 X24.0298 Y12.6661
G01 X24.0503 Y12.6829
G01 X24.1121 Y12.7389
G01 X24.1308 Y12.7576
G01 X24.1418 Y12.7697
G01 X30.8207 Y12.7697
G01 X35.6751 Y7.9154
G01 X35.6847 Y7.9062
G01 X35.7211 Y7.8732
G01 X35.7416 Y7.8564
G01 X35.7810 Y7.8272
G01 X35.8030 Y7.8125
G01 X35.8451 Y7.7872
G01 X35.8685 Y7.7747
G01 X35.9129 Y7.7538
G01 X35.9374 Y7.7436
G01 X35.9836 Y7.7271
G01 X36.0089 Y7.7194
G01 X36.0566 Y7.7075
G01 X36.0825 Y7.7023
G01 X36.1311 Y7.6951
G01 X36.1575 Y7.6925
G01 X36.2065 Y7.6901
G01 X36.2197 Y7.6897
G01 X37.2577 Y7.6897
G01 X37.2687 Y7.6776
G01 X37.2874 Y7.6589
G01 X37.3492 Y7.6029
G01 X37.3697 Y7.5861
G01 X37.4367 Y7.5364
G01 X37.4587 Y7.5217
G01 X37.5303 Y7.4788
G01 X37.5536 Y7.4663
G01 X37.6290 Y7.4306
G01 X37.6535 Y7.4205
G01 X37.7320 Y7.3924
G01 X37.7574 Y7.3847
G01 X37.8383 Y7.3644
G01 X37.8643 Y7.3593
G01 X37.9468 Y7.3470
G01 X37.9732 Y7.3444
G01 X38.0565 Y7.3403
G01 X38.0697 Y7.3400
G01 X38.5697 Y7.3400
G01 X38.5830 Y7.3403
G01 X38.6663 Y7.3444
G01 X38.6927 Y7.3470
G01 X38.7752 Y7.3593
G01 X38.8012 Y7.3644
G01 X38.8821 Y7.3847
G01 X38.9075 Y7.3924
G01 X38.9860 Y7.4205
G01 X39.0105 Y7.4306
G01 X39.0859 Y7.4663
G01 X39.1092 Y7.4788
G01 X39.1808 Y7.5217
G01 X39.2028 Y7.5364
G01 X39.2698 Y7.5861
G01 X39.2903 Y7.6029
G01 X39.3521 Y7.6589
G01 X39.3708 Y7.6776
G01 X39.3818 Y7.6897
G01 X45.3996 Y7.6897
G01 X45.3903 Y7.6879
G01 X45.2713 Y7.6581
G01 X45.2459 Y7.6504
G01 X45.1304 Y7.6091
G01 X45.1060 Y7.5989
G01 X44.9951 Y7.5465
G01 X44.9717 Y7.5340
G01 X44.8665 Y7.4709
G01 X44.8444 Y7.4562
G01 X44.7459 Y7.3831
G01 X44.7254 Y7.3663
G01 X44.6345 Y7.2839
G01 X44.6158 Y7.2652
G01 X44.5334 Y7.1743
G01 X44.5166 Y7.1538
G01 X44.4435 Y7.0553
G01 X44.4288 Y7.0333
G01 X44.3911 Y6.9703
G01 X43.9320 Y6.9703
G01 X43.9187 Y6.9699
G01 X43.8697 Y6.9675
G01 X43.8433 Y6.9649
G01 X43.7948 Y6.9577
G01 X43.7688 Y6.9525
G01 X43.7212 Y6.9406
G01 X43.6958 Y6.9329
G01 X43.6496 Y6.9164
G01 X43.6251 Y6.9062
G01 X43.5807 Y6.8853
G01 X43.5574 Y6.8728
G01 X43.5153 Y6.8475
G01 X43.4932 Y6.8328
G01 X43.4538 Y6.8036
G01 X43.4333 Y6.7868
G01 X43.3969 Y6.7538
G01 X43.3873 Y6.7446
G01 X43.3660 Y6.7228
G01 X43.3364 Y6.6903
G01 X39.3818 Y6.6903
G01 X39.3708 Y6.7024
G01 X39.3521 Y6.7211
G01 X39.2903 Y6.7771
G01 X39.2698 Y6.7939
G01 X39.2028 Y6.8436
G01 X39.1808 Y6.8583
G01 X39.1092 Y6.9012
G01 X39.0859 Y6.9137
G01 X39.0105 Y6.9494
G01 X38.9860 Y6.9595
G01 X38.9075 Y6.9876
G01 X38.8821 Y6.9953
G01 X38.8012 Y7.0156
G01 X38.7752 Y7.0207
G01 X38.6927 Y7.0330
G01 X38.6663 Y7.0356
G01 X38.5830 Y7.0397
G01 X38.5697 Y7.0400
G01 X38.0697 Y7.0400
G01 X38.0565 Y7.0397
G01 X37.9732 Y7.0356
G01 X37.9468 Y7.0330
G01 X37.8643 Y7.0207
G01 X37.8383 Y7.0156
G01 X37.7574 Y6.9953
G01 X37.7320 Y6.9876
G01 X37.6535 Y6.9595
G01 X37.6290 Y6.9494
G01 X37.5536 Y6.9137
G01 X37.5303 Y6.9012
G01 X37.4587 Y6.8583
G01 X37.4367 Y6.8436
G01 X37.3697 Y6.7939
G01 X37.3492 Y6.7771
G01 X37.2874 Y6.7211
G01 X37.2687 Y6.7024
G01 X37.2577 Y6.6903
G01 X36.2197 Y6.6903
G01 X36.2065 Y6.6899
G01 X36.1575 Y6.6875
G01 X36.1311 Y6.6849
G01 X36.0825 Y6.6777
G01 X36.0566 Y6.6725
G01 X36.0089 Y6.6606
G01 X35.9836 Y6.6529
G01 X35.9374 Y6.6364
G01 X35.9129 Y6.6262
G01 X35.8685 Y6.6053
G01 X35.8451 Y6.5928
G01 X35.8030 Y6.5675
G01 X35.7810 Y6.5528
G01 X35.7416 Y6.5236
G01 X35.7211 Y6.5068
G01 X35.6810 Y6.4703
G01 X33.0188 Y6.4703
G01 X30.6698 Y8.8193
G01 X30.6876 Y8.8905
G01 X30.6928 Y8.9165
G01 X30.7108 Y9.0379
G01 X30.7134 Y9.0642
G01 X30.7194 Y9.1868
G01 X30.7194 Y9.2132
G01 X30.7134 Y9.3358
G01 X30.7108 Y9.3621
G01 X30.6928 Y9.4835
G01 X30.6876 Y9.5095
G01 X30.6578 Y9.6285
G01 X30.6501 Y9.6538
G01 X30.6088 Y9.7693
G01 X30.5987 Y9.7938
G01 X30.5462 Y9.9047
G01 X30.5337 Y9.9281
G01 X30.4707 Y10.0333
G01 X30.4560 Y10.0553
G01 X30.3829 Y10.1538
G01 X30.3661 Y10.1743
G01 X30.2837 Y10.2652
G01 X30.2650 Y10.2839
G01 X30.1741 Y10.3663
G01 X30.1536 Y10.3831
G01 X30.0551 Y10.4562
G01 X30.0330 Y10.4709
G01 X29.9278 Y10.5340
G01 X29.9044 Y10.5465
G01 X29.7935 Y10.5989
G01 X29.7691 Y10.6091
G01 X29.6536 Y10.6504
G01 X29.6282 Y10.6581
G01 X29.5092 Y10.6879
G01 X29.4832 Y10.6931
G01 X29.3619 Y10.7111
G01 X29.3355 Y10.7137
G01 X29.2130 Y10.7197
G01 X29.1865 Y10.7197
G01 X29.0640 Y10.7137
G01 X29.0376 Y10.7111
G01 X28.9163 Y10.6931
G01 X28.8903 Y10.6879
G01 X28.7713 Y10.6581
G01 X28.7459 Y10.6504
G01 X28.6304 Y10.6091
G01 X28.6060 Y10.5989
G01 X28.4951 Y10.5465
G01 X28.4717 Y10.5340
G01 X28.3665 Y10.4709
G01 X28.3444 Y10.4562
G01 X28.2459 Y10.3831
G01 X28.2254 Y10.3663
G01 X28.1345 Y10.2839
G01 X28.1158 Y10.2652
G01 X28.0334 Y10.1743
G01 X28.0166 Y10.1538
G01 X27.9435 Y10.0553
G01 X27.9288 Y10.0333
G01 X27.8658 Y9.9281
G01 X27.8533 Y9.9047
G01 X27.8008 Y9.7938
G01 X27.7907 Y9.7693
G01 X27.7494 Y9.6538
G01 X27.7417 Y9.6285
G01 X27.7119 Y9.5095
G01 X27.7067 Y9.4835
G01 X27.6887 Y9.3621
G01 X27.6861 Y9.3358
G01 X27.6801 Y9.2132
G01 X27.6801 Y9.1868
G01 X27.6861 Y9.0642
G01 X27.6887 Y9.0379
G01 X27.7067 Y8.9165
G01 X27.7119 Y8.8905
G01 X27.7417 Y8.7715
G01 X27.7494 Y8.7462
G01 X27.7907 Y8.6307
G01 X27.8008 Y8.6062
G01 X27.8533 Y8.4953
G01 X27.8658 Y8.4719
G01 X27.9288 Y8.3667
G01 X27.9435 Y8.3447
G01 X28.0166 Y8.2462
G01 X28.0334 Y8.2257
G01 X28.1158 Y8.1348
G01 X28.1345 Y8.1161
G01 X28.2254 Y8.0337
G01 X28.2459 Y8.0169
G01 X28.3444 Y7.9438
G01 X28.3665 Y7.9291
G01 X28.4295 Y7.8913
G01 X28.4295 Y7.0190
G01 X25.3807 Y3.9703
G01 X11.0188 Y3.9703
G01 X8.9700 Y6.0190
G01 X8.9700 Y11.8810
G01 X9.5188 Y12.4297
G01 X11.6997 Y12.4297
G01 X11.7130 Y12.4301
G01 X11.7620 Y12.4325
G01 X11.7884 Y12.4351
G01 X11.8370 Y12.4423
G01 X11.8629 Y12.4475
G01 X11.9106 Y12.4594
G01 X11.9359 Y12.4671
G01 X11.9821 Y12.4836
G01 X12.0066 Y12.4938
G01 X12.0510 Y12.5147
G01 X12.0744 Y12.5272
G01 X12.1165 Y12.5525
G01 X12.1385 Y12.5672
G01 X12.1779 Y12.5964
G01 X12.1984 Y12.6132
G01 X12.2348 Y12.6462
G01 X12.2444 Y12.6554
G01 X12.4788 Y12.8897
G01 X13.7377 Y12.8897
G00 Z2.0000
G00 X22.0177 Y15.3097
G01 F60.00
G01 Z-0.1500
G01 F120.00
G01 X22.0287 Y15.2976
G01 X22.0474 Y15.2789
G01 X22.1092 Y15.2229
G01 X22.1297 Y15.2061
G01 X22.1967 Y15.1564
G01 X22.2187 Y15.1417
G01 X22.2903 Y15.0988
G01 X22.3136 Y15.0863
G01 X22.3890 Y15.0506
G01 X22.4135 Y15.0405
G01 X22.4920 Y15.0124
G01 X22.5174 Y15.0047
G01 X22.5983 Y14.9844
G01 X22.6243 Y14.9793
G01 X22.7068 Y14.9670
G01 X22.7332 Y14.9644
G01 X22.8165 Y14.9603
G01 X22.8297 Y14.9600
G01 X23.3297 Y14.9600
G01 X23.3430 Y14.9603
G01 X23.4263 Y14.9644
G01 X23.4527 Y14.9670
G01 X23.5352 Y14.9793
G01 X23.5612 Y14.9844
G01 X23.6421 Y15.0047
G01 X23.6675 Y15.0124
G01 X23.7460 Y15.0405
G01 X23.7705 Y15.0506
G01 X23.8459 Y15.0863
G01 X23.8692 Y15.0988
G01 X23.9408 Y15.1417
G01 X23.9628 Y15.1564
G01 X24.0298 Y15.2061
G01 X24.0503 Y15.2229
G01 X24.1121 Y15.2789
G01 X24.1308 Y15.2976
G01 X24.1869 Y15.3594
G01 X24.2037 Y15.3799
G01 X24.2534 Y15.4469
G01 X24.2681 Y15.4690
G01 X24.3110 Y15.5405
G01 X24.3235 Y15.5639
G01 X24.3591 Y15.6393
G01 X24.3693 Y15.6638
G01 X24.3974 Y15.7423
G01 X24.4051 Y15.7677
G01 X24.4253 Y15.8486
G01 X24.4305 Y15.8746
G01 X24.4427 Y15.9571
G01 X24.4453 Y15.9834
G01 X24.4494 Y16.0668
G01 X24.4494 Y16.0932
G01 X24.4453 Y16.1766
G01 X24.4427 Y16.2029
G01 X24.4305 Y16.2854
G01 X24.4253 Y16.3114
G01 X24.4051 Y16.3923
G01 X24.3974 Y16.4177
G01 X24.3693 Y16.4962
G01 X24.3591 Y16.5207
G01 X24.3235 Y16.5961
G01 X24.3110 Y16.6195
G01 X24.2681 Y16.6910
G01 X24.2534 Y16.7131
G01 X24.2037 Y16.7801
G01 X24.1869 Y16.8006
G01 X24.1308 Y16.8624
G01 X24.1121 Y16.8811
G01 X24.0503 Y16.9371
G01 X24.0298 Y16.9539
G01 X23.9628 Y17.0036
G01 X23.9408 Y17.0183
G01 X23.8692 Y17.0612
G01 X23.8459 Y17.0737
G01 X23.7705 Y17.1094
G01 X23.7460 Y17.1195
G01 X23.6675 Y17.1476
G01 X23.6421 Y17.1553
G01 X23.5612 Y17.1756
G01 X23.5352 Y17.1807
G01 X23.4527 Y17.1930
G01 X23.4263 Y17.1956
G01 X23.3430 Y17.1997
G01 X23.3297 Y17.2000
G01 X22.8297 Y17.2000
G01 X22.8165 Y17.1997
G01 X22.7332 Y17.1956
G01 X22.7068 Y17.1930
G01 X22.6243 Y17.1807
G01 X22.5983 Y17.1756
G01 X22.5174 Y17.1553
G01 X22.4920 Y17.1476
G01 X22.4135 Y17.1195
G01 X22.3890 Y17.1094
G01 X22.3136 Y17.0737
G01 X22.2903 Y17.0612
G01 X22.2187 Y17.0183
G01 X22.1967 Y17.0036
G01 X22.1297 Y16.9539
G01 X22.1092 Y16.9371
G01 X22.0474 Y16.8811
G01 X22.0287 Y16.8624
G01 X22.0177 Y16.8503
G01 X15.9697 Y16.8503
G01 X15.9697 Y17.2000
G01 X15.9684 Y17.2265
G01 X15.9646 Y17.2527
G01 X15.9581 Y17.2784
G01 X15.9492 Y17.3033
G01 X15.9379 Y17.3273
G01 X15.9242 Y17.3500
G01 X15.9085 Y17.3713
G01 X15.8907 Y17.3909
G01 X15.8710 Y17.4087
G01 X15.8498 Y17.4245
G01 X15.8270 Y17.4381
G01 X15.8031 Y17.4494
G01 X15.7781 Y17.4584
G01 X15.7524 Y17.4648
G01 X15.7262 Y17.4687
G01 X15.6997 Y17.4700
G01 X13.6997 Y17.4700
G01 X13.6733 Y17.4687
G01 X13.6471 Y17.4648
G01 X13.6214 Y17.4584
G01 X13.5964 Y17.4494
G01 X13.5725 Y17.4381
G01 X13.5497 Y17.4245
G01 X13.5285 Y17.4087
G01 X13.5088 Y17.3909
G01 X13.4910 Y17.3713
G01 X13.4753 Y17.3500
G01 X13.4616 Y17.3273
G01 X13.4503 Y17.3033
G01 X13.4414 Y17.2784
G01 X13.4349 Y17.2527
G01 X13.4311 Y17.2265
G01 X13.4297 Y17.2000
G01 X13.4297 Y15.2000
G01 X13.4311 Y15.1735
G01 X13.4349 Y15.1473
G01 X13.4414 Y15.1216
G01 X13.4503 Y15.0967
G01 X13.4616 Y15.0727
G01 X13.4753 Y15.0500
G01 X13.4910 Y15.0287
G01 X13.5088 Y15.0091
G01 X13.5285 Y14.9913
G01 X13.5497 Y14.9755
G01 X13.5725 Y14.9619
G01 X13.5964 Y14.9506
G01 X13.6214 Y14.9416
G01 X13.6471 Y14.9352
G01 X13.6733 Y14.9313
G01 X13.6997 Y14.9300
G01 X15.6997 Y14.9300
G01 X15.7262 Y14.9313
G01 X15.7524 Y14.9352
G01 X15.7781 Y14.9416
G01 X15.8031 Y14.9506
G01 X15.8270 Y14.9619
G01 X15.8498 Y14.9755
G01 X15.8710 Y14.9913
G01 X15.8907 Y15.0091
G01 X15.9085 Y15.0287
G01 X15.9242 Y15.0500
G01 X15.9379 Y15.0727
G01 X15.9492 Y15.0967
G01 X15.9581 Y15.1216
G01 X15.9646 Y15.1473
G01 X15.9684 Y15.1735
G01 X15.9697 Y15.2000
G01 X15.9697 Y15.3097
G01 X22.0177 Y15.3097
G00 Z2.0000
G00 X24.4427 Y10.8771
G01 F60.00
G01 Z-0.1500
G01 F120.00
G01 X24.4453 Y10.9034
G01 X24.4494 Y10.9868
G01 X24.4494 Y11.0132
G01 X24.4453 Y11.0966
G01 X24.4427 Y11.1229
G01 X24.4305 Y11.2054
G01 X24.4253 Y11.2314
G01 X24.4051 Y11.3123
G01 X24.3974 Y11.3377
G01 X24.3693 Y11.4162
G01 X24.3591 Y11.4407
G01 X24.3235 Y11.5161
G01 X24.3110 Y11.5395
G01 X24.2681 Y11.6110
G01 X24.2534 Y11.6331
G01 X24.2037 Y11.7001
G01 X24.1869 Y11.7206
G01 X24.1308 Y11.7824
G01 X24.1121 Y11.8011
G01 X24.0503 Y11.8571
G01 X24.0298 Y11.8739
G01 X23.9628 Y11.9236
G01 X23.9408 Y11.9383
G01 X23.8692 Y11.9812
G01 X23.8459 Y11.9937
G01 X23.7705 Y12.0294
G01 X23.7460 Y12.0395
G01 X23.6675 Y12.0676
G01 X23.6421 Y12.0753
G01 X23.5612 Y12.0956
G01 X23.5352 Y12.1007
G01 X23.4527 Y12.1130
G01 X23.4263 Y12.1156
G01 X23.3430 Y12.1197
G01 X23.3297 Y12.1200
G01 X22.8297 Y12.1200
G01 X22.8165 Y12.1197
G01 X22.7332 Y12.1156
G01 X22.7068 Y12.1130
G01 X22.6243 Y12.1007
G01 X22.5983 Y12.0956
G01 X22.5174 Y12.0753
G01 X22.4920 Y12.0676
G01 X22.4135 Y12.0395
G01 X22.3890 Y12.0294
G01 X22.3136 Y11.9937
G01 X22.2903 Y11.9812
G01 X22.2187 Y11.9383
G01 X22.1967 Y11.9236
G01 X22.1297 Y11.8739
G01 X22.1092 Y11.8571
G01 X22.0474 Y11.8011
G01 X22.0287 Y11.7824
G01 X21.9726 Y11.7206
G01 X21.9558 Y11.7001
G01 X21.9061 Y11.6331
G01 X21.8914 Y11.6110
G01 X21.8485 Y11.5395
G01 X21.8360 Y11.5161
G01 X21.8004 Y11.4407
G01 X21.7902 Y11.4162
G01 X21.7621 Y11.3377
G01 X21.7544 Y11.3123
G01 X21.7342 Y11.2314
G01 X21.7290 Y11.2054
G01 X21.7168 Y11.1229
G01 X21.7142 Y11.0966
G01 X21.7101 Y11.0132
G01 X21.7101 Y10.9868
G01 X21.7142 Y10.9034
G01 X21.7168 Y10.8771
G01 X21.7290 Y10.7946
G01 X21.7342 Y10.7686
G01 X21.7544 Y10.6877
G01 X21.7621 Y10.6623
G01 X21.7902 Y10.5838
G01 X21.8004 Y10.5593
G01 X21.8360 Y10.4839
G01 X21.8485 Y10.4605
G01 X21.8914 Y10.3890
G01 X21.9061 Y10.3669
G01 X21.9558 Y10.2999
G01 X21.9726 Y10.2794
G01 X22.0287 Y10.2176
G01 X22.0474 Y10.1989
G01 X22.1092 Y10.1429
G01 X22.1297 Y10.1261
G01 X22.1967 Y10.0764
G01 X22.2187 Y10.0617
G01 X22.2903 Y10.0188
G01 X22.3136 Y10.0063
G01 X22.3890 Y9.9706
G01 X22.4135 Y9.9605
G01 X22.4920 Y9.9324
G01 X22.5174 Y9.9247
G01 X22.5983 Y9.9044
G01 X22.6243 Y9.8993
G01 X22.7068 Y9.8870
G01 X22.7332 Y9.8844
G01 X22.8165 Y9.8803
G01 X22.8297 Y9.8800
G01 X23.3297 Y9.8800
G01 X23.3430 Y9.8803
G01 X23.4263 Y9.8844
G01 X23.4527 Y9.8870
G01 X23.5352 Y9.8993
G01 X23.5612 Y9.9044
G01 X23.6421 Y9.9247
G01 X23.6675 Y9.9324
G01 X23.7460 Y9.9605
G01 X23.7705 Y9.9706
G01 X23.8459 Y10.0063
G01 X23.8692 Y10.0188
G01 X23.9408 Y10.0617
G01 X23.9628 Y10.0764
G01 X24.0298 Y10.1261
G01 X24.0503 Y10.1429
G01 X24.1121 Y10.1989
G01 X24.1308 Y10.2176
G01 X24.1869 Y10.2794
G01 X24.2037 Y10.2999
G01 X24.2534 Y10.3669
G01 X24.2681 Y10.3890
G01 X24.3110 Y10.4605
G01 X24.3235 Y10.4839
G01 X24.3591 Y10.5593
G01 X24.3693 Y10.5838
G01 X24.3974 Y10.6623
G01 X24.4051 Y10.6877
G01 X24.4253 Y10.7686
G01 X24.4305 Y10.7946
G01 X24.4427 Y10.8771
G00 Z2.0000
G00 X24.4427 Y8.3371
G01 F60.00
G01 Z-0.1500
G01 F120.00
G01 X24.4453 Y8.3634
G01 X24.4494 Y8.4468
G01 X24.4494 Y8.4732
G01 X24.4453 Y8.5566
G01 X24.4427 Y8.5829
G01 X24.4305 Y8.6654
G01 X24.4253 Y8.6914
G01 X24.4051 Y8.7723
G01 X24.3974 Y8.7977
G01 X24.3693 Y8.8762
G01 X24.3591 Y8.9007
G01 X24.3235 Y8.9761
G01 X24.3110 Y8.9995
G01 X24.2681 Y9.0710
G01 X24.2534 Y9.0931
G01 X24.2037 Y9.1601
G01 X24.1869 Y9.1806
G01 X24.1308 Y9.2424
G01 X24.1121 Y9.2611
G01 X24.0503 Y9.3171
G01 X24.0298 Y9.3339
G01 X23.9628 Y9.3836
G01 X23.9408 Y9.3983
G01 X23.8692 Y9.4412
G01 X23.8459 Y9.4537
G01 X23.7705 Y9.4894
G01 X23.7460 Y9.4995
G01 X23.6675 Y9.5276
G01 X23.6421 Y9.5353
G01 X23.5612 Y9.5556
G01 X23.5352 Y9.5607
G01 X23.4527 Y9.5730
G01 X23.4263 Y9.5756
G01 X23.3430 Y9.5797
G01 X23.3297 Y9.5800
G01 X22.8297 Y9.5800
G01 X22.8165 Y9.5797
G01 X22.7332 Y9.5756
G01 X22.7068 Y9.5730
G01 X22.6243 Y9.5607
G01 X22.5983 Y9.5556
G01 X22.5174 Y9.5353
G01 X22.4920 Y9.5276
G01 X22.4135 Y9.4995
G01 X22.3890 Y9.4894
G01 X22.3136 Y9.4537
G01 X22.2903 Y9.4412
G01 X22.2187 Y9.3983
G01 X22.1967 Y9.3836
G01 X22.1297 Y9.3339
G01 X22.1092 Y9.3171
G01 X22.0474 Y9.2611
G01 X22.0287 Y9.2424
G01 X21.9726 Y9.1806
G01 X21.9558 Y9.1601
G01 X21.9061 Y9.0931
G01 X21.8914 Y9.0710
G01 X21.8485 Y8.9995
G01 X21.8360 Y8.9761
G01 X21.8004 Y8.9007
G01 X21.7902 Y8.8762
G01 X21.7621 Y8.7977
G01 X21.7544 Y8.7723
G01 X21.7342 Y8.6914
G01 X21.7290 Y8.6654
G01 X21.7168 Y8.5829
G01 X21.7142 Y8.5566
G01 X21.7101 Y8.4732
G01 X21.7101 Y8.4468
G01 X21.7142 Y8.3634
G01 X21.7168 Y8.3371
G01 X21.7290 Y8.2546
G01 X21.7342 Y8.2286
G01 X21.7544 Y8.1477
G01 X21.7621 Y8.1223
G01 X21.7902 Y8.0438
G01 X21.8004 Y8.0193
G01 X21.8360 Y7.9439
G01 X21.8485 Y7.9205
G01 X21.8914 Y7.8490
G01 X21.9061 Y7.8269
G01 X21.9558 Y7.7599
G01 X21.9726 Y7.7394
G01 X22.0287 Y7.6776
G01 X22.0474 Y7.6589
G01 X22.1092 Y7.6029
G01 X22.1297 Y7.5861
G01 X22.1967 Y7.5364
G01 X22.2187 Y7.5217
G01 X22.2903 Y7.4788
G01 X22.3136 Y7.4663
G01 X22.3890 Y7.4306
G01 X22.4135 Y7.4205
G01 X22.4920 Y7.3924
G01 X22.5174 Y7.3847
G01 X22.5983 Y7.3644
G01 X22.6243 Y7.3593
G01 X22.7068 Y7.3470
G01 X22.7332 Y7.3444
G01 X22.8165 Y7.3403
G01 X22.8297 Y7.3400
G01 X23.3297 Y7.3400
G01 X23.3430 Y7.3403
G01 X23.4263 Y7.3444
G01 X23.4527 Y7.3470
G01 X23.5352 Y7.3593
G01 X23.5612 Y7.3644
G01 X23.6421 Y7.3847
G01 X23.6675 Y7.3924
G01 X23.7460 Y7.4205
G01 X23.7705 Y7.4306
G01 X23.8459 Y7.4663
G01 X23.8692 Y7.4788
G01 X23.9408 Y7.5217
G01 X23.9628 Y7.5364
G01 X24.0298 Y7.5861
G01 X24.0503 Y7.6029
G01 X24.1121 Y7.6589
G01 X24.1308 Y7.6776
G01 X24.1869 Y7.7394
G01 X24.2037 Y7.7599
G01 X24.2534 Y7.8269
G01 X24.2681 Y7.8490
G01 X24.3110 Y7.9205
G01 X24.3235 Y7.9439
G01 X24.3591 Y8.0193
G01 X24.3693 Y8.0438
G01 X24.3974 Y8.1223
G01 X24.4051 Y8.1477
G01 X24.4253 Y8.2286
G01 X24.4305 Y8.2546
G01 X24.4427 Y8.3371
G00 Z2.0000
G00 X24.0797 Y4.6500
G01 F60.00
G01 Z-0.1500
G01 F120.00
G01 X24.1062 Y4.6513
G01 X24.1324 Y4.6552
G01 X24.1581 Y4.6616
G01 X24.1831 Y4.6706
G01 X24.2070 Y4.6819
G01 X24.2298 Y4.6955
G01 X24.2510 Y4.7113
G01 X24.2707 Y4.7291
G01 X24.2885 Y4.7487
G01 X24.3042 Y4.7700
G01 X24.3179 Y4.7927
G01 X24.3292 Y4.8167
G01 X24.3381 Y4.8416
G01 X24.3446 Y4.8673
G01 X24.3484 Y4.8935
G01 X24.3497 Y4.9200
G01 X24.3497 Y6.9200
G01 X24.3484 Y6.9465
G01 X24.3446 Y6.9727
G01 X24.3381 Y6.9984
G01 X24.3292 Y7.0233
G01 X24.3179 Y7.0473
G01 X24.3042 Y7.0700
G01 X24.2885 Y7.0913
G01 X24.2707 Y7.1109
G01 X24.2510 Y7.1287
G01 X24.2298 Y7.1445
G01 X24.2070 Y7.1581
G01 X24.1831 Y7.1694
G01 X24.1581 Y7.1784
G01 X24.1324 Y7.1848
G01 X24.1062 Y7.1887
G01 X24.0797 Y7.1900
G01 X22.0797 Y7.1900
G01 X22.0533 Y7.1887
G01 X22.0271 Y7.1848
G01 X22.0014 Y7.1784
G01 X21.9764 Y7.1694
G01 X21.9525 Y7.1581
G01 X21.9297 Y7.1445
G01 X21.9085 Y7.1287
G01 X21.8888 Y7.1109
G01 X21.8710 Y7.0913
G01 X21.8553 Y7.0700
G01 X21.8416 Y7.0473
G01 X21.8303 Y7.0233
G01 X21.8214 Y6.9984
G01 X21.8149 Y6.9727
G01 X21.8111 Y6.9465
G01 X21.8097 Y6.9200
G01 X21.8097 Y4.9200
G01 X21.8111 Y4.8935
G01 X21.8149 Y4.8673
G01 X21.8214 Y4.8416
G01 X21.8303 Y4.8167
G01 X21.8416 Y4.7927
G01 X21.8553 Y4.7700
G01 X21.8710 Y4.7487
G01 X21.8888 Y4.7291
G01 X21.9085 Y4.7113
G01 X21.9297 Y4.6955
G01 X21.9525 Y4.6819
G01 X21.9764 Y4.6706
G01 X22.0014 Y4.6616
G01 X22.0271 Y4.6552
G01 X22.0533 Y4.6513
G01 X22.0797 Y4.6500
G01 X24.0797 Y4.6500
G00 Z2.0000
G00 X22.0177 Y20.3897
G01 F60.00
G01 Z-0.1500
G01 F120.00
G01 X22.0287 Y20.3776
G01 X22.0474 Y20.3589
G01 X22.1092 Y20.3029
G01 X22.1297 Y20.2861
G01 X22.1967 Y20.2364
G01 X22.2187 Y20.2217
G01 X22.2903 Y20.1788
G01 X22.3136 Y20.1663
G01 X22.3890 Y20.1306
G01 X22.4135 Y20.1205
G01 X22.4920 Y20.0924
G01 X22.5174 Y20.0847
G01 X22.5983 Y20.0644
G01 X22.6243 Y20.0593
G01 X22.7068 Y20.0470
G01 X22.7332 Y20.0444
G01 X22.8165 Y20.0403
G01 X22.8297 Y20.0400
G01 X23.3297 Y20.0400
G01 X23.3430 Y20.0403
G01 X23.4263 Y20.0444
G01 X23.4527 Y20.0470
G01 X23.5352 Y20.0593
G01 X23.5612 Y20.0644
G01 X23.6421 Y20.0847
G01 X23.6675 Y20.0924
G01 X23.7460 Y20.1205
G01 X23.7705 Y20.1306
G01 X23.8459 Y20.1663
G01 X23.8692 Y20.1788
G01 X23.9408 Y20.2217
G01 X23.9628 Y20.2364
G01 X24.0298 Y20.2861
G01 X24.0503 Y20.3029
G01 X24.1121 Y20.3589
G01 X24.1308 Y20.3776
G01 X24.1869 Y20.4394
G01 X24.2037 Y20.4599
G01 X24.2534 Y20.5269
G01 X24.2681 Y20.5490
G01 X24.3110 Y20.6205
G01 X24.3235 Y20.6439
G01 X24.3591 Y20.7193
G01 X24.3693 Y20.7438
G01 X24.3974 Y20.8223
G01 X24.4051 Y20.8477
G01 X24.4253 Y20.9286
G01 X24.4305 Y20.9546
G01 X24.4427 Y21.0371
G01 X24.4453 Y21.0634
G01 X24.4494 Y21.1468
G01 X24.4494 Y21.1732
G01 X24.4453 Y21.2566
G01 X24.4427 Y21.2829
G01 X24.4305 Y21.3654
G01 X24.4253 Y21.3914
G01 X24.4051 Y21.4723
G01 X24.3974 Y21.4977
G01 X24.3693 Y21.5762
G01 X24.3591 Y21.6007
G01 X24.3235 Y21.6761
G01 X24.3110 Y21.6995
G01 X24.2681 Y21.7710
G01 X24.2534 Y21.7931
G01 X24.2037 Y21.8601
G01 X24.1869 Y21.8806
G01 X24.1308 Y21.9424
G01 X24.1121 Y21.9611
G01 X24.0503 Y22.0171
G01 X24.0298 Y22.0339
G01 X23.9628 Y22.0836
G01 X23.9408 Y22.0983
G01 X23.8692 Y22.1412
G01 X23.8459 Y22.1537
G01 X23.7705 Y22.1894
G01 X23.7460 Y22.1995
G01 X23.6675 Y22.2276
G01 X23.6421 Y22.2353
G01 X23.5612 Y22.2556
G01 X23.5352 Y22.2607
G01 X23.4527 Y22.2730
G01 X23.4263 Y22.2756
G01 X23.3430 Y22.2797
G01 X23.3297 Y22.2800
G01 X22.8297 Y22.2800
G01 X22.8165 Y22.2797
G01 X22.7332 Y22.2756
G01 X22.7068 Y22.2730
G01 X22.6243 Y22.2607
G01 X22.5983 Y22.2556
G01 X22.5174 Y22.2353
G01 X22.4920 Y22.2276
G01 X22.4135 Y22.1995
G01 X22.3890 Y22.1894
G01 X22.3136 Y22.1537
G01 X22.2903 Y22.1412
G01 X22.2187 Y22.0983
G01 X22.1967 Y22.0836
G01 X22.1297 Y22.0339
G01 X22.1092 Y22.0171
G01 X22.0474 Y21.9611
G01 X22.0287 Y21.9424
G01 X22.0177 Y21.9303
G01 X15.9697 Y21.9303
G01 X15.9697 Y22.2000
G01 X15.9684 Y22.2265
G01 X15.9646 Y22.2527
G01 X15.9581 Y22.2784
G01 X15.9492 Y22.3033
G01 X15.9379 Y22.3273
G01 X15.9242 Y22.3500
G01 X15.9085 Y22.3713
G01 X15.8907 Y22.3909
G01 X15.8710 Y22.4087
G01 X15.8498 Y22.4245
G01 X15.8270 Y22.4381
G01 X15.8031 Y22.4494
G01 X15.7781 Y22.4584
G01 X15.7524 Y22.4648
G01 X15.7262 Y22.4687
G01 X15.6997 Y22.4700
G01 X13.6997 Y22.4700
G01 X13.6733 Y22.4687
G01 X13.6471 Y22.4648
G01 X13.6214 Y22.4584
G01 X13.5964 Y22.4494
G01 X13.5725 Y22.4381
G01 X13.5497 Y22.4245
G01 X13.5285 Y22.4087
G01 X13.5088 Y22.3909
G01 X13.4910 Y22.3713
G01 X13.4753 Y22.3500
G01 X13.4616 Y22.3273
G01 X13.4503 Y22.3033
G01 X13.4414 Y22.2784
G01 X13.4349 Y22.2527
G01 X13.4311 Y22.2265
G01 X13.4297 Y22.2000
G01 X13.4297 Y20.2000
G01 X13.4311 Y20.1735
G01 X13.4349 Y20.1473
G01 X13.4414 Y20.1216
G01 X13.4503 Y20.0967
G01 X13.4616 Y20.0727
G01 X13.4753 Y20.0500
G01 X13.4910 Y20.0287
G01 X13.5088 Y20.0091
G01 X13.5285 Y19.9913
G01 X13.5497 Y19.9755
G01 X13.5725 Y19.9619
G01 X13.5964 Y19.9506
G01 X13.6214 Y19.9416
G01 X13.6471 Y19.9352
G01 X13.6733 Y19.9313
G01 X13.6997 Y19.9300
G01 X15.6997 Y19.9300
G01 X15.7262 Y19.9313
G01 X15.7524 Y19.9352
G01 X15.7781 Y19.9416
G01 X15.8031 Y19.9506
G01 X15.8270 Y19.9619
G01 X15.8498 Y19.9755
G01 X15.8710 Y19.9913
G01 X15.8907 Y20.0091
G01 X15.9085 Y20.0287
G01 X15.9242 Y20.0500
G01 X15.9379 Y20.0727
G01 X15.9492 Y20.0967
G01 X15.9581 Y20.1216
G01 X15.9646 Y20.1473
G01 X15.9684 Y20.1735
G01 X15.9697 Y20.2000
G01 X15.9697 Y20.3897
G01 X22.0177 Y20.3897
G00 Z2.0000
G00 X22.0177 Y25.4697
G01 F60.00
G01 Z-0.1500
G01 F120.00
G01 X22.0287 Y25.4576
G01 X22.0474 Y25.4389
G01 X22.1092 Y25.3829
G01 X22.1297 Y25.3661
G01 X22.1967 Y25.3164
G01 X22.2187 Y25.3017
G01 X22.2903 Y25.2588
G01 X22.3136 Y25.2463
G01 X22.3890 Y25.2106
G01 X22.4135 Y25.2005
G01 X22.4920 Y25.1724
G01 X22.5174 Y25.1647
G01 X22.5983 Y25.1444
G01 X22.6243 Y25.1393
G01 X22.7068 Y25.1270
G01 X22.7332 Y25.1244
G01 X22.8165 Y25.1203
G01 X22.8297 Y25.1200
G01 X23.3297 Y25.1200
G01 X23.3430 Y25.1203
G01 X23.4263 Y25.1244
G01 X23.4527 Y25.1270
G01 X23.5352 Y25.1393
G01 X23.5612 Y25.1444
G01 X23.6421 Y25.1647
G01 X23.6675 Y25.1724
G01 X23.7460 Y25.2005
G01 X23.7705 Y25.2106
G01 X23.8459 Y25.2463
G01 X23.8692 Y25.2588
G01 X23.9408 Y25.3017
G01 X23.9628 Y25.3164
G01 X24.0298 Y25.3661
G01 X24.0503 Y25.3829
G01 X24.1121 Y25.4389
G01 X24.1308 Y25.4576
G01 X24.1869 Y25.5194
G01 X24.2037 Y25.5399
G01 X24.2534 Y25.6069
G01 X24.2681 Y25.6290
G01 X24.3110 Y25.7005
G01 X24.3235 Y25.7239
G01 X24.3591 Y25.7993
G01 X24.3693 Y25.8238
G01 X24.3974 Y25.9023
G01 X24.4051 Y25.9277
G01 X24.4253 Y26.0086
G01 X24.4305 Y26.0346
G01 X24.4427 Y26.1171
G01 X24.4453 Y26.1434
G01 X24.4494 Y26.2268
G01 X24.4494 Y26.2532
G01 X24.4453 Y26.3366
G01 X24.4427 Y26.3629
G01 X24.4305 Y26.4454
G01 X24.4253 Y26.4714
G01 X24.4051 Y26.5523
G01 X24.3974 Y26.5777
G01 X24.3693 Y26.6562
G01 X24.3591 Y26.6807
G01 X24.3235 Y26.7561
G01 X24.3110 Y26.7795
G01 X24.2681 Y26.8510
G01 X24.2534 Y26.8731
G01 X24.2037 Y26.9401
G01 X24.1869 Y26.9606
G01 X24.1308 Y27.0224
G01 X24.1121 Y27.0411
G01 X24.0503 Y27.0971
G01 X24.0298 Y27.1139
G01 X23.9628 Y27.1636
G01 X23.9408 Y27.1783
G01 X23.8692 Y27.2212
G01 X23.8459 Y27.2337
G01 X23.7705 Y27.2694
G01 X23.7460 Y27.2795
G01 X23.6675 Y27.3076
G01 X23.6421 Y27.3153
G01 X23.5612 Y27.3356
G01 X23.5352 Y27.3407
G01 X23.4527 Y27.3530
G01 X23.4263 Y27.3556
G01 X23.3430 Y27.3597
G01 X23.3297 Y27.3600
G01 X22.8297 Y27.3600
G01 X22.8165 Y27.3597
G01 X22.7332 Y27.3556
G01 X22.7068 Y27.3530
G01 X22.6243 Y27.3407
G01 X22.5983 Y27.3356
G01 X22.5174 Y27.3153
G01 X22.4920 Y27.3076
G01 X22.4135 Y27.2795
G01 X22.3890 Y27.2694
G01 X22.3136 Y27.2337
G01 X22.2903 Y27.2212
G01 X22.2187 Y27.1783
G01 X22.1967 Y27.1636
G01 X22.1297 Y27.1139
G01 X22.1092 Y27.0971
G01 X22.0474 Y27.0411
G01 X22.0287 Y27.0224
G01 X22.0177 Y27.0103
G01 X20.5588 Y27.0103
G01 X16.4700 Y31.0990
G01 X16.4700 Y44.7000
G01 X16.4697 Y44.7132
G01 X16.4673 Y44.7623
G01 X16.4647 Y44.7887
G01 X16.4575 Y44.8372
G01 X16.4523 Y44.8632
G01 X16.4404 Y44.9108
G01 X16.4327 Y44.9362
G01 X16.4161 Y44.9824
G01 X16.4060 Y45.0069
G01 X16.3850 Y45.0513
G01 X16.3725 Y45.0746
G01 X16.3473 Y45.1167
G01 X16.3326 Y45.1388
G01 X16.3033 Y45.1782
G01 X16.2865 Y45.1987
G01 X16.2535 Y45.2351
G01 X16.2444 Y45.2446
G01 X15.7444 Y45.7446
G01 X15.7348 Y45.7538
G01 X15.6984 Y45.7868
G01 X15.6779 Y45.8036
G01 X15.6385 Y45.8328
G01 X15.6165 Y45.8475
G01 X15.5744 Y45.8728
G01 X15.5510 Y45.8853
G01 X15.5066 Y45.9062
G01 X15.4821 Y45.9164
G01 X15.4359 Y45.9329
G01 X15.4106 Y45.9406
G01 X15.3629 Y45.9525
G01 X15.3370 Y45.9577
G01 X15.2884 Y45.9649
G01 X15.2620 Y45.9675
G01 X15.2130 Y45.9699
G01 X15.1997 Y45.9703
G01 X12.4697 Y45.9703
G01 X12.4697 Y46.2000
G01 X12.4684 Y46.2265
G01 X12.4646 Y46.2527
G01 X12.4581 Y46.2784
G01 X12.4492 Y46.3033
G01 X12.4379 Y46.3273
G01 X12.4242 Y46.3500
G01 X12.4085 Y46.3713
G01 X12.3907 Y46.3909
G01 X12.3710 Y46.4087
G01 X12.3498 Y46.4245
G01 X12.3270 Y46.4381
G01 X12.3031 Y46.4494
G01 X12.2781 Y46.4584
G01 X12.2524 Y46.4648
G01 X12.2262 Y46.4687
G01 X12.1997 Y46.4700
G01 X10.1997 Y46.4700
G01 X10.1733 Y46.4687
G01 X10.1471 Y46.4648
G01 X10.1214 Y46.4584
G01 X10.0964 Y46.4494
G01 X10.0725 Y46.4381
G01 X10.0497 Y46.4245
G01 X10.0285 Y46.4087
G01 X10.0088 Y46.3909
G01 X9.9910 Y46.3713
G01 X9.9753 Y46.3500
G01 X9.9616 Y46.3273
G01 X9.9503 Y46.3033
G01 X9.9414 Y46.2784
G01 X9.9349 Y46.2527
G01 X9.9311 Y46.2265
G01 X9.9297 Y46.2000
G01 X9.9297 Y44.2000
G01 X9.9311 Y44.1735
G01 X9.9349 Y44.1473
G01 X9.9414 Y44.1216
G01 X9.9503 Y44.0967
G01 X9.9616 Y44.0727
G01 X9.9753 Y44.0500
G01 X9.9910 Y44.0287
G01 X10.0088 Y44.0091
G01 X10.0285 Y43.9913
G01 X10.0497 Y43.9755
G01 X10.0725 Y43.9619
G01 X10.0964 Y43.9506
G01 X10.1214 Y43.9416
G01 X10.1471 Y43.9352
G01 X10.1733 Y43.9313
G01 X10.1997 Y43.9300
G01 X12.1997 Y43.9300
G01 X12.2262 Y43.9313
G01 X12.2524 Y43.9352
G01 X12.2781 Y43.9416
G01 X12.3031 Y43.9506
G01 X12.3270 Y43.9619
G01 X12.3498 Y43.9755
G01 X12.3710 Y43.9913
G01 X12.3907 Y44.0091
G01 X12.4085 Y44.0287
G01 X12.4242 Y44.0500
G01 X12.4379 Y44.0727
G01 X12.4492 Y44.0967
G01 X12.4581 Y44.1216
G01 X12.4646 Y44.1473
G01 X12.4684 Y44.1735
G01 X12.4697 Y44.2000
G01 X12.4697 Y44.4297
G01 X14.8807 Y44.4297
G01 X14.9295 Y44.3810
G01 X14.9295 Y30.7800
G01 X14.9298 Y30.7668
G01 X14.9322 Y30.7177
G01 X14.9348 Y30.6913
G01 X14.9420 Y30.6428
G01 X14.9472 Y30.6168
G01 X14.9591 Y30.5692
G01 X14.9668 Y30.5438
G01 X14.9834 Y30.4976
G01 X14.9935 Y30.4731
G01 X15.0145 Y30.4287
G01 X15.0270 Y30.4054
G01 X15.0522 Y30.3633
G01 X15.0669 Y30.3412
G01 X15.0962 Y30.3018
G01 X15.1130 Y30.2813
G01 X15.1460 Y30.2449
G01 X15.1551 Y30.2354
G01 X19.6951 Y25.6954
G01 X19.7047 Y25.6862
G01 X19.7411 Y25.6532
G01 X19.7616 Y25.6364
G01 X19.8010 Y25.6072
G01 X19.8230 Y25.5925
G01 X19.8651 Y25.5672
G01 X19.8885 Y25.5547
G01 X19.9329 Y25.5338
G01 X19.9574 Y25.5236
G01 X20.0036 Y25.5071
G01 X20.0289 Y25.4994
G01 X20.0766 Y25.4875
G01 X20.1025 Y25.4823
G01 X20.1511 Y25.4751
G01 X20.1775 Y25.4725
G01 X20.2265 Y25.4701
G01 X20.2397 Y25.4697
G01 X22.0177 Y25.4697
G00 Z2.0000
G00 X22.0177 Y30.5497
G01 F60.00
G01 Z-0.1500
G01 F120.00
G01 X22.0287 Y30.5376
G01 X22.0474 Y30.5189
G01 X22.1092 Y30.4629
G01 X22.1297 Y30.4461
G01 X22.1967 Y30.3964
G01 X22.2187 Y30.3817
G01 X22.2903 Y30.3388
G01 X22.3136 Y30.3263
G01 X22.3890 Y30.2906
G01 X22.4135 Y30.2805
G01 X22.4920 Y30.2524
G01 X22.5174 Y30.2447
G01 X22.5983 Y30.2244
G01 X22.6243 Y30.2193
G01 X22.7068 Y30.2070
G01 X22.7332 Y30.2044
G01 X22.8165 Y30.2003
G01 X22.8297 Y30.2000
G01 X23.3297 Y30.2000
G01 X23.3430 Y30.2003
G01 X23.4263 Y30.2044
G01 X23.4527 Y30.2070
G01 X23.5352 Y30.2193
G01 X23.5612 Y30.2244
G01 X23.6421 Y30.2447
G01 X23.6675 Y30.2524
G01 X23.7460 Y30.2805
G01 X23.7705 Y30.2906
G01 X23.8459 Y30.3263
G01 X23.8692 Y30.3388
G01 X23.9408 Y30.3817
G01 X23.9628 Y30.3964
G01 X24.0298 Y30.4461
G01 X24.0503 Y30.4629
G01 X24.1121 Y30.5189
G01 X24.1308 Y30.5376
G01 X24.1869 Y30.5994
G01 X24.2037 Y30.6199
G01 X24.2534 Y30.6869
G01 X24.2681 Y30.7090
G01 X24.3110 Y30.7805
G01 X24.3235 Y30.8039
G01 X24.3591 Y30.8793
G01 X24.3693 Y30.9038
G01 X24.3974 Y30.9823
G01 X24.4051 Y31.0077
G01 X24.4253 Y31.0886
G01 X24.4305 Y31.1146
G01 X24.4427 Y31.1971
G01 X24.4453 Y31.2234
G01 X24.4494 Y31.3068
G01 X24.4494 Y31.3332
G01 X24.4453 Y31.4166
G01 X24.4427 Y31.4429
G01 X24.4305 Y31.5254
G01 X24.4253 Y31.5514
G01 X24.4051 Y31.6323
G01 X24.3974 Y31.6577
G01 X24.3693 Y31.7362
G01 X24.3591 Y31.7607
G01 X24.3235 Y31.8361
G01 X24.3110 Y31.8595
G01 X24.2681 Y31.9310
G01 X24.2534 Y31.9531
G01 X24.2037 Y32.0201
G01 X24.1869 Y32.0406
G01 X24.1308 Y32.1024
G01 X24.1121 Y32.1211
G01 X24.0503 Y32.1771
G01 X24.0298 Y32.1939
G01 X23.9628 Y32.2436
G01 X23.9408 Y32.2583
G01 X23.8692 Y32.3012
G01 X23.8459 Y32.3137
G01 X23.7705 Y32.3494
G01 X23.7460 Y32.3595
G01 X23.6675 Y32.3876
G01 X23.6421 Y32.3953
G01 X23.5612 Y32.4156
G01 X23.5352 Y32.4207
G01 X23.4527 Y32.4330
G01 X23.4263 Y32.4356
G01 X23.3430 Y32.4397
G01 X23.3297 Y32.4400
G01 X22.8297 Y32.4400
G01 X22.8165 Y32.4397
G01 X22.7332 Y32.4356
G01 X22.7068 Y32.4330
G01 X22.6243 Y32.4207
G01 X22.5983 Y32.4156
G01 X22.5174 Y32.3953
G01 X22.4920 Y32.3876
G01 X22.4135 Y32.3595
G01 X22.3890 Y32.3494
G01 X22.3136 Y32.3137
G01 X22.2903 Y32.3012
G01 X22.2187 Y32.2583
G01 X22.1967 Y32.2436
G01 X22.1297 Y32.1939
G01 X22.1092 Y32.1771
G01 X22.0474 Y32.1211
G01 X22.0287 Y32.1024
G01 X22.0177 Y32.0903
G01 X21.2988 Y32.0903
G01 X20.4700 Y32.9190
G01 X20.4700 Y49.8810
G01 X24.5188 Y53.9297
G01 X26.6997 Y53.9297
G01 X26.7130 Y53.9301
G01 X26.7620 Y53.9325
G01 X26.7884 Y53.9351
G01 X26.8370 Y53.9423
G01 X26.8629 Y53.9475
G01 X26.9106 Y53.9594
G01 X26.9359 Y53.9671
G01 X26.9821 Y53.9836
G01 X27.0066 Y53.9938
G01 X27.0510 Y54.0147
G01 X27.0744 Y54.0272
G01 X27.1165 Y54.0525
G01 X27.1385 Y54.0672
G01 X27.1779 Y54.0964
G01 X27.1984 Y54.1132
G01 X27.2348 Y54.1462
G01 X27.2444 Y54.1554
G01 X28.7444 Y55.6554
G01 X28.7535 Y55.6649
G01 X28.7865 Y55.7013
G01 X28.8033 Y55.7218
G01 X28.8326 Y55.7612
G01 X28.8473 Y55.7833
G01 X28.8725 Y55.8254
G01 X28.8850 Y55.8487
G01 X28.9060 Y55.8931
G01 X28.9161 Y55.9176
G01 X28.9327 Y55.9638
G01 X28.9404 Y55.9892
G01 X28.9523 Y56.0368
G01 X28.9575 Y56.0628
G01 X28.9647 Y56.1113
G01 X28.9673 Y56.1377
G01 X28.9697 Y56.1868
G01 X28.9700 Y56.2000
G01 X28.9700 Y56.3810
G01 X31.0188 Y58.4297
G01 X34.4547 Y58.4297
G01 X34.4174 Y58.4164
G01 X34.3929 Y58.4062
G01 X34.3485 Y58.3853
G01 X34.3251 Y58.3728
G01 X34.2830 Y58.3475
G01 X34.2610 Y58.3328
G01 X34.2216 Y58.3036
G01 X34.2011 Y58.2868
G01 X34.1647 Y58.2538
G01 X34.1551 Y58.2446
G01 X32.4382 Y56.5278
G01 X32.4278 Y56.5340
G01 X32.4044 Y56.5465
G01 X32.2935 Y56.5989
G01 X32.2691 Y56.6091
G01 X32.1536 Y56.6504
G01 X32.1282 Y56.6581
G01 X32.0092 Y56.6879
G01 X31.9832 Y56.6931
G01 X31.8619 Y56.7111
G01 X31.8355 Y56.7137
G01 X31.7130 Y56.7197
G01 X31.6865 Y56.7197
G01 X31.5640 Y56.7137
G01 X31.5376 Y56.7111
G01 X31.4163 Y56.6931
G01 X31.3903 Y56.6879
G01 X31.2713 Y56.6581
G01 X31.2459 Y56.6504
G01 X31.1304 Y56.6091
G01 X31.1060 Y56.5989
G01 X30.9951 Y56.5465
G01 X30.9717 Y56.5340
G01 X30.8665 Y56.4709
G01 X30.8444 Y56.4562
G01 X30.7459 Y56.3831
G01 X30.7254 Y56.3663
G01 X30.6345 Y56.2839
G01 X30.6158 Y56.2652
G01 X30.5334 Y56.1743
G01 X30.5166 Y56.1538
G01 X30.4435 Y56.0553
G01 X30.4288 Y56.0333
G01 X30.3658 Y55.9281
G01 X30.3533 Y55.9047
G01 X30.3008 Y55.7938
G01 X30.2907 Y55.7693
G01 X30.2494 Y55.6538
G01 X30.2417 Y55.6285
G01 X30.2119 Y55.5095
G01 X30.2067 Y55.4835
G01 X30.1887 Y55.3621
G01 X30.1861 Y55.3358
G01 X30.1801 Y55.2132
G01 X30.1801 Y55.1868
G01 X30.1861 Y55.0642
G01 X30.1887 Y55.0379
G01 X30.2067 Y54.9165
G01 X30.2119 Y54.8905
G01 X30.2417 Y54.7715
G01 X30.2494 Y54.7462
G01 X30.2907 Y54.6307
G01 X30.3008 Y54.6062
G01 X30.3533 Y54.4953
G01 X30.3658 Y54.4719
G01 X30.4288 Y54.3667
G01 X30.4435 Y54.3447
G01 X30.5166 Y54.2462
G01 X30.5334 Y54.2257
G01 X30.6158 Y54.1348
G01 X30.6345 Y54.1161
G01 X30.7254 Y54.0337
G01 X30.7459 Y54.0169
G01 X30.8444 Y53.9438
G01 X30.8665 Y53.9291
G01 X30.9717 Y53.8660
G01 X30.9951 Y53.8535
G01 X31.1060 Y53.8011
G01 X31.1304 Y53.7909
G01 X31.2459 Y53.7496
G01 X31.2713 Y53.7419
G01 X31.3903 Y53.7121
G01 X31.4163 Y53.7069
G01 X31.5376 Y53.6889
G01 X31.5640 Y53.6863
G01 X31.6865 Y53.6803
G01 X31.7130 Y53.6803
G01 X31.8355 Y53.6863
G01 X31.8619 Y53.6889
G01 X31.9832 Y53.7069
G01 X32.0092 Y53.7121
G01 X32.1282 Y53.7419
G01 X32.1536 Y53.7496
G01 X32.2691 Y53.7909
G01 X32.2935 Y53.8011
G01 X32.4044 Y53.8535
G01 X32.4278 Y53.8660
G01 X32.5330 Y53.9291
G01 X32.5551 Y53.9438
G01 X32.6536 Y54.0169
G01 X32.6741 Y54.0337
G01 X32.7650 Y54.1161
G01 X32.7837 Y54.1348
G01 X32.8661 Y54.2257
G01 X32.8829 Y54.2462
G01 X32.9560 Y54.3447
G01 X32.9707 Y54.3667
G01 X33.0337 Y54.4719
G01 X33.0462 Y54.4953
G01 X33.0987 Y54.6062
G01 X33.1088 Y54.6307
G01 X33.1501 Y54.7462
G01 X33.1578 Y54.7715
G01 X33.1876 Y54.8905
G01 X33.1928 Y54.9165
G01 X33.2108 Y55.0379
G01 X33.2134 Y55.0642
G01 X33.2165 Y55.1275
G01 X35.0188 Y56.9297
G01 X37.3007 Y56.9297
G01 X37.8895 Y56.3410
G01 X37.8895 Y56.1621
G01 X37.8774 Y56.1511
G01 X37.8587 Y56.1324
G01 X37.8026 Y56.0706
G01 X37.7858 Y56.0501
G01 X37.7361 Y55.9831
G01 X37.7214 Y55.9610
G01 X37.6785 Y55.8895
G01 X37.6660 Y55.8661
G01 X37.6304 Y55.7907
G01 X37.6202 Y55.7662
G01 X37.5921 Y55.6877
G01 X37.5844 Y55.6623
G01 X37.5642 Y55.5814
G01 X37.5590 Y55.5554
G01 X37.5468 Y55.4729
G01 X37.5442 Y55.4466
G01 X37.5401 Y55.3632
G01 X37.5397 Y55.3500
G01 X37.5397 Y55.0500
G01 X37.5401 Y55.0368
G01 X37.5442 Y54.9534
G01 X37.5468 Y54.9271
G01 X37.5590 Y54.8446
G01 X37.5642 Y54.8186
G01 X37.5844 Y54.7377
G01 X37.5921 Y54.7123
G01 X37.6202 Y54.6338
G01 X37.6304 Y54.6093
G01 X37.6660 Y54.5339
G01 X37.6785 Y54.5105
G01 X37.7214 Y54.4390
G01 X37.7361 Y54.4169
G01 X37.7858 Y54.3499
G01 X37.8026 Y54.3294
G01 X37.8587 Y54.2676
G01 X37.8774 Y54.2489
G01 X37.9392 Y54.1929
G01 X37.9597 Y54.1761
G01 X38.0267 Y54.1264
G01 X38.0487 Y54.1117
G01 X38.1203 Y54.0688
G01 X38.1436 Y54.0563
G01 X38.2190 Y54.0206
G01 X38.2435 Y54.0105
G01 X38.3220 Y53.9824
G01 X38.3474 Y53.9747
G01 X38.4283 Y53.9544
G01 X38.4543 Y53.9493
G01 X38.5368 Y53.9370
G01 X38.5632 Y53.9344
G01 X38.6465 Y53.9303
G01 X38.6730 Y53.9303
G01 X38.7563 Y53.9344
G01 X38.7827 Y53.9370
G01 X38.8652 Y53.9493
G01 X38.8912 Y53.9544
G01 X38.9721 Y53.9747
G01 X38.9975 Y53.9824
G01 X39.0760 Y54.0105
G01 X39.1005 Y54.0206
G01 X39.1759 Y54.0563
G01 X39.1992 Y54.0688
G01 X39.2708 Y54.1117
G01 X39.2928 Y54.1264
G01 X39.3598 Y54.1761
G01 X39.3803 Y54.1929
G01 X39.4421 Y54.2489
G01 X39.4608 Y54.2676
G01 X39.5169 Y54.3294
G01 X39.5337 Y54.3499
G01 X39.5834 Y54.4169
G01 X39.5981 Y54.4390
G01 X39.6410 Y54.5105
G01 X39.6535 Y54.5339
G01 X39.6891 Y54.6093
G01 X39.6993 Y54.6338
G01 X39.7274 Y54.7123
G01 X39.7351 Y54.7377
G01 X39.7553 Y54.8186
G01 X39.7605 Y54.8446
G01 X39.7727 Y54.9271
G01 X39.7753 Y54.9534
G01 X39.7794 Y55.0368
G01 X39.7797 Y55.0500
G01 X39.7797 Y55.3500
G01 X39.7794 Y55.3632
G01 X39.7753 Y55.4466
G01 X39.7727 Y55.4729
G01 X39.7605 Y55.5554
G01 X39.7553 Y55.5814
G01 X39.7351 Y55.6623
G01 X39.7274 Y55.6877
G01 X39.6993 Y55.7662
G01 X39.6891 Y55.7907
G01 X39.6535 Y55.8661
G01 X39.6410 Y55.8895
G01 X39.5981 Y55.9610
G01 X39.5834 Y55.9831
G01 X39.5337 Y56.0501
G01 X39.5169 Y56.0706
G01 X39.4608 Y56.1324
G01 X39.4421 Y56.1511
G01 X39.4300 Y56.1621
G01 X39.4300 Y56.6600
G01 X39.4297 Y56.6732
G01 X39.4273 Y56.7223
G01 X39.4247 Y56.7487
G01 X39.4175 Y56.7972
G01 X39.4123 Y56.8232
G01 X39.4004 Y56.8708
G01 X39.3927 Y56.8962
G01 X39.3761 Y56.9424
G01 X39.3660 Y56.9669
G01 X39.3450 Y57.0113
G01 X39.3325 Y57.0346
G01 X39.3073 Y57.0767
G01 X39.2926 Y57.0988
G01 X39.2633 Y57.1382
G01 X39.2465 Y57.1587
G01 X39.2135 Y57.1951
G01 X39.2044 Y57.2046
G01 X38.1644 Y58.2446
G01 X38.1548 Y58.2538
G01 X38.1184 Y58.2868
G01 X38.0979 Y58.3036
G01 X38.0585 Y58.3328
G01 X38.0365 Y58.3475
G01 X37.9944 Y58.3728
G01 X37.9710 Y58.3853
G01 X37.9266 Y58.4062
G01 X37.9021 Y58.4164
G01 X37.8648 Y58.4297
G01 X38.8807 Y58.4297
G01 X40.4295 Y56.8810
G01 X40.4295 Y56.1621
G01 X40.4174 Y56.1511
G01 X40.3987 Y56.1324
G01 X40.3426 Y56.0706
G01 X40.3258 Y56.0501
G01 X40.2761 Y55.9831
G01 X40.2614 Y55.9610
G01 X40.2185 Y55.8895
G01 X40.2060 Y55.8661
G01 X40.1704 Y55.7907
G01 X40.1602 Y55.7662
G01 X40.1321 Y55.6877
G01 X40.1244 Y55.6623
G01 X40.1042 Y55.5814
G01 X40.0990 Y55.5554
G01 X40.0868 Y55.4729
G01 X40.0842 Y55.4466
G01 X40.0801 Y55.3632
G01 X40.0797 Y55.3500
G01 X40.0797 Y55.0500
G01 X40.0801 Y55.0368
G01 X40.0842 Y54.9534
G01 X40.0868 Y54.9271
G01 X40.0990 Y54.8446
G01 X40.1042 Y54.8186
G01 X40.1244 Y54.7377
G01 X40.1321 Y54.7123
G01 X40.1602 Y54.6338
G01 X40.1704 Y54.6093
G01 X40.2060 Y54.5339
G01 X40.2185 Y54.5105
G01 X40.2614 Y54.4390
G01 X40.2761 Y54.4169
G01 X40.3258 Y54.3499
G01 X40.3426 Y54.3294
G01 X40.3987 Y54.2676
G01 X40.4174 Y54.2489
G01 X40.4792 Y54.1929
G01 X40.4997 Y54.1761
G01 X40.5667 Y54.1264
G01 X40.5887 Y54.1117
G01 X40.6603 Y54.0688
G01 X40.6836 Y54.0563
G01 X40.7590 Y54.0206
G01 X40.7835 Y54.0105
G01 X40.8620 Y53.9824
G01 X40.8874 Y53.9747
G01 X40.9683 Y53.9544
G01 X40.9943 Y53.9493
G01 X41.0768 Y53.9370
G01 X41.1032 Y53.9344
G01 X41.1865 Y53.9303
G01 X41.2130 Y53.9303
G01 X41.2963 Y53.9344
G01 X41.3227 Y53.9370
G01 X41.4052 Y53.9493
G01 X41.4312 Y53.9544
G01 X41.5121 Y53.9747
G01 X41.5375 Y53.9824
G01 X41.6160 Y54.0105
G01 X41.6405 Y54.0206
G01 X41.7159 Y54.0563
G01 X41.7392 Y54.0688
G01 X41.8108 Y54.1117
G01 X41.8328 Y54.1264
G01 X41.8998 Y54.1761
G01 X41.9203 Y54.1929
G01 X41.9821 Y54.2489
G01 X42.0008 Y54.2676
G01 X42.0569 Y54.3294
G01 X42.0737 Y54.3499
G01 X42.1234 Y54.4169
G01 X42.1381 Y54.4390
G01 X42.1810 Y54.5105
G01 X42.1935 Y54.5339
G01 X42.2291 Y54.6093
G01 X42.2393 Y54.6338
G01 X42.2674 Y54.7123
G01 X42.2751 Y54.7377
G01 X42.2953 Y54.8186
G01 X42.3005 Y54.8446
G01 X42.3127 Y54.9271
G01 X42.3153 Y54.9534
G01 X42.3194 Y55.0368
G01 X42.3197 Y55.0500
G01 X42.3197 Y55.3500
G01 X42.3194 Y55.3632
G01 X42.3153 Y55.4466
G01 X42.3127 Y55.4729
G01 X42.3005 Y55.5554
G01 X42.2953 Y55.5814
G01 X42.2751 Y55.6623
G01 X42.2674 Y55.6877
G01 X42.2393 Y55.7662
G01 X42.2291 Y55.7907
G01 X42.1935 Y55.8661
G01 X42.1810 Y55.8895
G01 X42.1381 Y55.9610
G01 X42.1234 Y55.9831
G01 X42.0737 Y56.0501
G01 X42.0569 Y56.0706
G01 X42.0008 Y56.1324
G01 X41.9821 Y56.1511
G01 X41.9700 Y56.1621
G01 X41.9700 Y57.2000
G01 X41.9697 Y57.2132
G01 X41.9673 Y57.2623
G01 X41.9647 Y57.2887
G01 X41.9575 Y57.3372
G01 X41.9523 Y57.3632
G01 X41.9404 Y57.4108
G01 X41.9327 Y57.4362
G01 X41.9161 Y57.4824
G01 X41.9060 Y57.5069
G01 X41.8850 Y57.5513
G01 X41.8725 Y57.5746
G01 X41.8473 Y57.6167
G01 X41.8326 Y57.6388
G01 X41.8033 Y57.6782
G01 X41.7865 Y57.6987
G01 X41.7535 Y57.7351
G01 X41.7444 Y57.7446
G01 X39.7444 Y59.7446
G01 X39.7348 Y59.7538
G01 X39.6984 Y59.7868
G01 X39.6779 Y59.8036
G01 X39.6385 Y59.8328
G01 X39.6165 Y59.8475
G01 X39.5744 Y59.8728
G01 X39.5510 Y59.8853
G01 X39.5066 Y59.9062
G01 X39.4821 Y59.9164
G01 X39.4359 Y59.9329
G01 X39.4106 Y59.9406
G01 X39.3629 Y59.9525
G01 X39.3370 Y59.9577
G01 X39.2884 Y59.9649
G01 X39.2620 Y59.9675
G01 X39.2130 Y59.9699
G01 X39.1997 Y59.9703
G01 X30.6997 Y59.9703
G01 X30.6865 Y59.9699
G01 X30.6375 Y59.9675
G01 X30.6111 Y59.9649
G01 X30.5625 Y59.9577
G01 X30.5366 Y59.9525
G01 X30.4889 Y59.9406
G01 X30.4636 Y59.9329
G01 X30.4174 Y59.9164
G01 X30.3929 Y59.9062
G01 X30.3485 Y59.8853
G01 X30.3251 Y59.8728
G01 X30.2830 Y59.8475
G01 X30.2610 Y59.8328
G01 X30.2216 Y59.8036
G01 X30.2011 Y59.7868
G01 X30.1647 Y59.7538
G01 X30.1551 Y59.7446
G01 X27.6551 Y57.2446
G01 X27.6460 Y57.2351
G01 X27.6130 Y57.1987
G01 X27.5962 Y57.1782
G01 X27.5669 Y57.1388
G01 X27.5522 Y57.1167
G01 X27.5270 Y57.0746
G01 X27.5145 Y57.0513
G01 X27.4935 Y57.0069
G01 X27.4834 Y56.9824
G01 X27.4668 Y56.9362
G01 X27.4591 Y56.9108
G01 X27.4472 Y56.8632
G01 X27.4420 Y56.8372
G01 X27.4348 Y56.7887
G01 X27.4322 Y56.7623
G01 X27.4298 Y56.7132
G01 X27.4295 Y56.7000
G01 X27.4295 Y56.5190
G01 X26.3807 Y55.4703
G01 X24.1997 Y55.4703
G01 X24.1865 Y55.4699
G01 X24.1375 Y55.4675
G01 X24.1111 Y55.4649
G01 X24.0625 Y55.4577
G01 X24.0366 Y55.4525
G01 X23.9889 Y55.4406
G01 X23.9636 Y55.4329
G01 X23.9174 Y55.4164
G01 X23.8929 Y55.4062
G01 X23.8485 Y55.3853
G01 X23.8251 Y55.3728
G01 X23.7830 Y55.3475
G01 X23.7610 Y55.3328
G01 X23.7216 Y55.3036
G01 X23.7011 Y55.2868
G01 X23.6647 Y55.2538
G01 X23.6551 Y55.2446
G01 X19.1551 Y50.7446
G01 X19.1460 Y50.7351
G01 X19.1130 Y50.6987
G01 X19.0962 Y50.6782
G01 X19.0669 Y50.6388
G01 X19.0522 Y50.6167
G01 X19.0270 Y50.5746
G01 X19.0145 Y50.5513
G01 X18.9935 Y50.5069
G01 X18.9834 Y50.4824
G01 X18.9668 Y50.4362
G01 X18.9591 Y50.4108
G01 X18.9472 Y50.3632
G01 X18.9420 Y50.3372
G01 X18.9348 Y50.2887
G01 X18.9322 Y50.2623
G01 X18.9298 Y50.2132
G01 X18.9295 Y50.2000
G01 X18.9295 Y32.6000
G01 X18.9298 Y32.5868
G01 X18.9322 Y32.5377
G01 X18.9348 Y32.5113
G01 X18.9420 Y32.4628
G01 X18.9472 Y32.4368
G01 X18.9591 Y32.3892
G01 X18.9668 Y32.3638
G01 X18.9834 Y32.3176
G01 X18.9935 Y32.2931
G01 X19.0145 Y32.2487
G01 X19.0270 Y32.2254
G01 X19.0522 Y32.1833
G01 X19.0669 Y32.1612
G01 X19.0962 Y32.1218
G01 X19.1130 Y32.1013
G01 X19.1460 Y32.0649
G01 X19.1551 Y32.0554
G01 X20.4351 Y30.7754
G01 X20.4447 Y30.7662
G01 X20.4811 Y30.7332
G01 X20.5016 Y30.7164
G01 X20.5410 Y30.6872
G01 X20.5630 Y30.6725
G01 X20.6051 Y30.6472
G01 X20.6285 Y30.6347
G01 X20.6729 Y30.6138
G01 X20.6974 Y30.6036
G01 X20.7436 Y30.5871
G01 X20.7689 Y30.5794
G01 X20.8166 Y30.5675
G01 X20.8425 Y30.5623
G01 X20.8911 Y30.5551
G01 X20.9175 Y30.5525
G01 X20.9665 Y30.5501
G01 X20.9797 Y30.5497
G01 X22.0177 Y30.5497
G00 Z2.0000
G00 X24.1418 Y33.0897
G01 F60.00
G01 Z-0.1500
G01 F120.00
G01 X28.8597 Y33.0897
G01 X28.8730 Y33.0901
G01 X28.9220 Y33.0925
G01 X28.9484 Y33.0951
G01 X28.9970 Y33.1023
G01 X29.0229 Y33.1075
G01 X29.0706 Y33.1194
G01 X29.0959 Y33.1271
G01 X29.1421 Y33.1436
G01 X29.1666 Y33.1538
G01 X29.2110 Y33.1747
G01 X29.2344 Y33.1872
G01 X29.2765 Y33.2125
G01 X29.2985 Y33.2272
G01 X29.3379 Y33.2564
G01 X29.3584 Y33.2732
G01 X29.3948 Y33.3062
G01 X29.4044 Y33.3154
G01 X32.7444 Y36.6554
G01 X32.7535 Y36.6649
G01 X32.7865 Y36.7013
G01 X32.8033 Y36.7218
G01 X32.8326 Y36.7612
G01 X32.8473 Y36.7833
G01 X32.8725 Y36.8254
G01 X32.8850 Y36.8487
G01 X32.9060 Y36.8931
G01 X32.9161 Y36.9176
G01 X32.9327 Y36.9638
G01 X32.9404 Y36.9892
G01 X32.9523 Y37.0368
G01 X32.9575 Y37.0628
G01 X32.9647 Y37.1113
G01 X32.9673 Y37.1377
G01 X32.9697 Y37.1868
G01 X32.9700 Y37.2000
G01 X32.9700 Y44.8810
G01 X33.5188 Y45.4297
G01 X37.6997 Y45.4297
G01 X37.7130 Y45.4301
G01 X37.7620 Y45.4325
G01 X37.7884 Y45.4351
G01 X37.8370 Y45.4423
G01 X37.8629 Y45.4475
G01 X37.9106 Y45.4594
G01 X37.9359 Y45.4671
G01 X37.9821 Y45.4836
G01 X38.0066 Y45.4938
G01 X38.0510 Y45.5147
G01 X38.0744 Y45.5272
G01 X38.1165 Y45.5525
G01 X38.1385 Y45.5672
G01 X38.1779 Y45.5964
G01 X38.1984 Y45.6132
G01 X38.2348 Y45.6462
G01 X38.2444 Y45.6554
G01 X41.7444 Y49.1554
G01 X41.7535 Y49.1649
G01 X41.7865 Y49.2013
G01 X41.8033 Y49.2218
G01 X41.8326 Y49.2612
G01 X41.8473 Y49.2833
G01 X41.8725 Y49.3254
G01 X41.8850 Y49.3487
G01 X41.9060 Y49.3931
G01 X41.9161 Y49.4176
G01 X41.9327 Y49.4638
G01 X41.9404 Y49.4892
G01 X41.9523 Y49.5368
G01 X41.9575 Y49.5628
G01 X41.9647 Y49.6113
G01 X41.9673 Y49.6377
G01 X41.9697 Y49.6868
G01 X41.9700 Y49.7000
G01 X41.9700 Y51.6979
G01 X41.9821 Y51.7089
G01 X42.0008 Y51.7276
G01 X42.0569 Y51.7894
G01 X42.0737 Y51.8099
G01 X42.1234 Y51.8769
G01 X42.1381 Y51.8990
G01 X42.1810 Y51.9705
G01 X42.1935 Y51.9939
G01 X42.2291 Y52.0693
G01 X42.2393 Y52.0938
G01 X42.2674 Y52.1723
G01 X42.2751 Y52.1977
G01 X42.2953 Y52.2786
G01 X42.3005 Y52.3046
G01 X42.3127 Y52.3871
G01 X42.3153 Y52.4134
G01 X42.3194 Y52.4968
G01 X42.3197 Y52.5100
G01 X42.3197 Y52.8100
G01 X42.3194 Y52.8232
G01 X42.3153 Y52.9066
G01 X42.3127 Y52.9329
G01 X42.3005 Y53.0154
G01 X42.2953 Y53.0414
G01 X42.2751 Y53.1223
G01 X42.2674 Y53.1477
G01 X42.2393 Y53.2262
G01 X42.2291 Y53.2507
G01 X42.1935 Y53.3261
G01 X42.1810 Y53.3495
G01 X42.1381 Y53.4210
G01 X42.1234 Y53.4431
G01 X42.0737 Y53.5101
G01 X42.0569 Y53.5306
G01 X42.0008 Y53.5924
G01 X41.9821 Y53.6111
G01 X41.9203 Y53.6671
G01 X41.8998 Y53.6839
G01 X41.8328 Y53.7336
G01 X41.8108 Y53.7483
G01 X41.7392 Y53.7912
G01 X41.7159 Y53.8037
G01 X41.6405 Y53.8394
G01 X41.6160 Y53.8495
G01 X41.5375 Y53.8776
G01 X41.5121 Y53.8853
G01 X41.4312 Y53.9056
G01 X41.4052 Y53.9107
G01 X41.3227 Y53.9230
G01 X41.2963 Y53.9256
G01 X41.2130 Y53.9297
G01 X41.1865 Y53.9297
G01 X41.1032 Y53.9256
G01 X41.0768 Y53.9230
G01 X40.9943 Y53.9107
G01 X40.9683 Y53.9056
G01 X40.8874 Y53.8853
G01 X40.8620 Y53.8776
G01 X40.7835 Y53.8495
G01 X40.7590 Y53.8394
G01 X40.6836 Y53.8037
G01 X40.6603 Y53.7912
G01 X40.5887 Y53.7483
G01 X40.5667 Y53.7336
G01 X40.4997 Y53.6839
G01 X40.4792 Y53.6671
G01 X40.4174 Y53.6111
G01 X40.3987 Y53.5924
G01 X40.3426 Y53.5306
G01 X40.3258 Y53.5101
G01 X40.2761 Y53.4431
G01 X40.2614 Y53.4210
G01 X40.2185 Y53.3495
G01 X40.2060 Y53.3261
G01 X40.1704 Y53.2507
G01 X40.1602 Y53.2262
G01 X40.1321 Y53.1477
G01 X40.1244 Y53.1223
G01 X40.1042 Y53.0414
G01 X40.0990 Y53.0154
G01 X40.0868 Y52.9329
G01 X40.0842 Y52.9066
G01 X40.0801 Y52.8232
G01 X40.0797 Y52.8100
G01 X40.0797 Y52.5100
G01 X40.0801 Y52.4968
G01 X40.0842 Y52.4134
G01 X40.0868 Y52.3871
G01 X40.0990 Y52.3046
G01 X40.1042 Y52.2786
G01 X40.1244 Y52.1977
G01 X40.1321 Y52.1723
G01 X40.1602 Y52.0938
G01 X40.1704 Y52.0693
G01 X40.2060 Y51.9939
G01 X40.2185 Y51.9705
G01 X40.2614 Y51.8990
G01 X40.2761 Y51.8769
G01 X40.3258 Y51.8099
G01 X40.3426 Y51.7894
G01 X40.3987 Y51.7276
G01 X40.4174 Y51.7089
G01 X40.4295 Y51.6979
G01 X40.4295 Y50.0190
G01 X37.3807 Y46.9703
G01 X33.1997 Y46.9703
G01 X33.1865 Y46.9699
G01 X33.1375 Y46.9675
G01 X33.1111 Y46.9649
G01 X33.0625 Y46.9577
G01 X33.0366 Y46.9525
G01 X32.9889 Y46.9406
G01 X32.9636 Y46.9329
G01 X32.9174 Y46.9164
G01 X32.8929 Y46.9062
G01 X32.8485 Y46.8853
G01 X32.8251 Y46.8728
G01 X32.7830 Y46.8475
G01 X32.7610 Y46.8328
G01 X32.7216 Y46.8036
G01 X32.7011 Y46.7868
G01 X32.6647 Y46.7538
G01 X32.6551 Y46.7446
G01 X31.6551 Y45.7446
G01 X31.6460 Y45.7351
G01 X31.6130 Y45.6987
G01 X31.5962 Y45.6782
G01 X31.5669 Y45.6388
G01 X31.5522 Y45.6167
G01 X31.5270 Y45.5746
G01 X31.5145 Y45.5513
G01 X31.4935 Y45.5069
G01 X31.4834 Y45.4824
G01 X31.4668 Y45.4362
G01 X31.4591 Y45.4108
G01 X31.4472 Y45.3632
G01 X31.4420 Y45.3372
G01 X31.4348 Y45.2887
G01 X31.4322 Y45.2623
G01 X31.4298 Y45.2132
G01 X31.4295 Y45.2000
G01 X31.4295 Y37.5190
G01 X28.5407 Y34.6303
G01 X24.1418 Y34.6303
G01 X24.1308 Y34.6424
G01 X24.1121 Y34.6611
G01 X24.0503 Y34.7171
G01 X24.0298 Y34.7339
G01 X23.9628 Y34.7836
G01 X23.9408 Y34.7983
G01 X23.8692 Y34.8412
G01 X23.8459 Y34.8537
G01 X23.7705 Y34.8894
G01 X23.7460 Y34.8995
G01 X23.6675 Y34.9276
G01 X23.6421 Y34.9353
G01 X23.5612 Y34.9556
G01 X23.5352 Y34.9607
G01 X23.4527 Y34.9730
G01 X23.4263 Y34.9756
G01 X23.3430 Y34.9797
G01 X23.3297 Y34.9800
G01 X22.8297 Y34.9800
G01 X22.8165 Y34.9797
G01 X22.7332 Y34.9756
G01 X22.7068 Y34.9730
G01 X22.6243 Y34.9607
G01 X22.5983 Y34.9556
G01 X22.5174 Y34.9353
G01 X22.4920 Y34.9276
G01 X22.4135 Y34.8995
G01 X22.3890 Y34.8894
G01 X22.3136 Y34.8537
G01 X22.2903 Y34.8412
G01 X22.2187 Y34.7983
G01 X22.1967 Y34.7836
G01 X22.1297 Y34.7339
G01 X22.1092 Y34.7171
G01 X22.0474 Y34.6611
G01 X22.0287 Y34.6424
G01 X21.9726 Y34.5806
G01 X21.9558 Y34.5601
G01 X21.9061 Y34.4931
G01 X21.8914 Y34.4710
G01 X21.8485 Y34.3995
G01 X21.8360 Y34.3761
G01 X21.8004 Y34.3007
G01 X21.7902 Y34.2762
G01 X21.7621 Y34.1977
G01 X21.7544 Y34.1723
G01 X21.7342 Y34.0914
G01 X21.7290 Y34.0654
G01 X21.7168 Y33.9829
G01 X21.7142 Y33.9566
G01 X21.7101 Y33.8732
G01 X21.7101 Y33.8468
G01 X21.7142 Y33.7634
G01 X21.7168 Y33.7371
G01 X21.7290 Y33.6546
G01 X21.7342 Y33.6286
G01 X21.7544 Y33.5477
G01 X21.7621 Y33.5223
G01 X21.7902 Y33.4438
G01 X21.8004 Y33.4193
G01 X21.8360 Y33.3439
G01 X21.8485 Y33.3205
G01 X21.8914 Y33.2490
G01 X21.9061 Y33.2269
G01 X21.9558 Y33.1599
G01 X21.9726 Y33.1394
G01 X22.0287 Y33.0776
G01 X22.0474 Y33.0589
G01 X22.1092 Y33.0029
G01 X22.1297 Y32.9861
G01 X22.1967 Y32.9364
G01 X22.2187 Y32.9217
G01 X22.2903 Y32.8788
G01 X22.3136 Y32.8663
G01 X22.3890 Y32.8306
G01 X22.4135 Y32.8205
G01 X22.4920 Y32.7924
G01 X22.5174 Y32.7847
G01 X22.5983 Y32.7644
G01 X22.6243 Y32.7593
G01 X22.7068 Y32.7470
G01 X22.7332 Y32.7444
G01 X22.8165 Y32.7403
G01 X22.8297 Y32.7400
G01 X23.3297 Y32.7400
G01 X23.3430 Y32.7403
G01 X23.4263 Y32.7444
G01 X23.4527 Y32.7470
G01 X23.5352 Y32.7593
G01 X23.5612 Y32.7644
G01 X23.6421 Y32.7847
G01 X23.6675 Y32.7924
G01 X23.7460 Y32.8205
G01 X23.7705 Y32.8306
G01 X23.8459 Y32.8663
G01 X23.8692 Y32.8788
G01 X23.9408 Y32.9217
G01 X23.9628 Y32.9364
G01 X24.0298 Y32.9861
G01 X24.0503 Y33.0029
G01 X24.1121 Y33.0589
G01 X24.1308 Y33.0776
G01 X24.1418 Y33.0897
G00 Z2.0000
G00 X24.4427 Y36.2771
G01 F60.00
G01 Z-0.1500
G01 F120.00
G01 X24.4453 Y36.3034
G01 X24.4494 Y36.3868
G01 X24.4494 Y36.4132
G01 X24.4453 Y36.4966
G01 X24.4427 Y36.5229
G01 X24.4305 Y36.6054
G01 X24.4253 Y36.6314
G01 X24.4051 Y36.7123
G01 X24.3974 Y36.7377
G01 X24.3693 Y36.8162
G01 X24.3591 Y36.8407
G01 X24.3235 Y36.9161
G01 X24.3110 Y36.9395
G01 X24.2681 Y37.0110
G01 X24.2534 Y37.0331
G01 X24.2037 Y37.1001
G01 X24.1869 Y37.1206
G01 X24.1308 Y37.1824
G01 X24.1121 Y37.2011
G01 X24.0503 Y37.2571
G01 X24.0298 Y37.2739
G01 X23.9628 Y37.3236
G01 X23.9408 Y37.3383
G01 X23.8692 Y37.3812
G01 X23.8459 Y37.3937
G01 X23.7705 Y37.4294
G01 X23.7460 Y37.4395
G01 X23.6675 Y37.4676
G01 X23.6421 Y37.4753
G01 X23.5612 Y37.4956
G01 X23.5352 Y37.5007
G01 X23.4527 Y37.5130
G01 X23.4263 Y37.5156
G01 X23.3430 Y37.5197
G01 X23.3297 Y37.5200
G01 X22.8297 Y37.5200
G01 X22.8165 Y37.5197
G01 X22.7332 Y37.5156
G01 X22.7068 Y37.5130
G01 X22.6243 Y37.5007
G01 X22.5983 Y37.4956
G01 X22.5174 Y37.4753
G01 X22.4920 Y37.4676
G01 X22.4135 Y37.4395
G01 X22.3890 Y37.4294
G01 X22.3136 Y37.3937
G01 X22.2903 Y37.3812
G01 X22.2187 Y37.3383
G01 X22.1967 Y37.3236
G01 X22.1297 Y37.2739
G01 X22.1092 Y37.2571
G01 X22.0474 Y37.2011
G01 X22.0287 Y37.1824
G01 X21.9726 Y37.1206
G01 X21.9558 Y37.1001
G01 X21.9061 Y37.0331
G01 X21.8914 Y37.0110
G01 X21.8485 Y36.9395
G01 X21.8360 Y36.9161
G01 X21.8004 Y36.8407
G01 X21.7902 Y36.8162
G01 X21.7621 Y36.7377
G01 X21.7544 Y36.7123
G01 X21.7342 Y36.6314
G01 X21.7290 Y36.6054
G01 X21.7168 Y36.5229
G01 X21.7142 Y36.4966
G01 X21.7101 Y36.4132
G01 X21.7101 Y36.3868
G01 X21.7142 Y36.3034
G01 X21.7168 Y36.2771
G01 X21.7290 Y36.1946
G01 X21.7342 Y36.1686
G01 X21.7544 Y36.0877
G01 X21.7621 Y36.0623
G01 X21.7902 Y35.9838
G01 X21.8004 Y35.9593
G01 X21.8360 Y35.8839
G01 X21.8485 Y35.8605
G01 X21.8914 Y35.7890
G01 X21.9061 Y35.7669
G01 X21.9558 Y35.6999
G01 X21.9726 Y35.6794
G01 X22.0287 Y35.6176
G01 X22.0474 Y35.5989
G01 X22.1092 Y35.5429
G01 X22.1297 Y35.5261
G01 X22.1967 Y35.4764
G01 X22.2187 Y35.4617
G01 X22.2903 Y35.4188
G01 X22.3136 Y35.4063
G01 X22.3890 Y35.3706
G01 X22.4135 Y35.3605
G01 X22.4920 Y35.3324
G01 X22.5174 Y35.3247
G01 X22.5983 Y35.3044
G01 X22.6243 Y35.2993
G01 X22.7068 Y35.2870
G01 X22.7332 Y35.2844
G01 X22.8165 Y35.2803
G01 X22.8297 Y35.2800
G01 X23.3297 Y35.2800
G01 X23.3430 Y35.2803
G01 X23.4263 Y35.2844
G01 X23.4527 Y35.2870
G01 X23.5352 Y35.2993
G01 X23.5612 Y35.3044
G01 X23.6421 Y35.3247
G01 X23.6675 Y35.3324
G01 X23.7460 Y35.3605
G01 X23.7705 Y35.3706
G01 X23.8459 Y35.4063
G01 X23.8692 Y35.4188
G01 X23.9408 Y35.4617
G01 X23.9628 Y35.4764
G01 X24.0298 Y35.5261
G01 X24.0503 Y35.5429
G01 X24.1121 Y35.5989
G01 X24.1308 Y35.6176
G01 X24.1869 Y35.6794
G01 X24.2037 Y35.6999
G01 X24.2534 Y35.7669
G01 X24.2681 Y35.7890
G01 X24.3110 Y35.8605
G01 X24.3235 Y35.8839
G01 X24.3591 Y35.9593
G01 X24.3693 Y35.9838
G01 X24.3974 Y36.0623
G01 X24.4051 Y36.0877
G01 X24.4253 Y36.1686
G01 X24.4305 Y36.1946
G01 X24.4427 Y36.2771
G00 Z2.0000
G00 X24.1418 Y38.1697
G01 F60.00
G01 Z-0.1500
G01 F120.00
G01 X28.4397 Y38.1697
G01 X28.4530 Y38.1701
G01 X28.5020 Y38.1725
G01 X28.5284 Y38.1751
G01 X28.5770 Y38.1823
G01 X28.6029 Y38.1875
G01 X28.6506 Y38.1994
G01 X28.6759 Y38.2071
G01 X28.7221 Y38.2236
G01 X28.7466 Y38.2338
G01 X28.7910 Y38.2547
G01 X28.8144 Y38.2672
G01 X28.8565 Y38.2925
G01 X28.8785 Y38.3072
G01 X28.9179 Y38.3364
G01 X28.9384 Y38.3532
G01 X28.9748 Y38.3862
G01 X28.9844 Y38.3954
G01 X30.4944 Y39.9054
G01 X30.5035 Y39.9149
G01 X30.5365 Y39.9513
G01 X30.5533 Y39.9718
G01 X30.5826 Y40.0112
G01 X30.5973 Y40.0333
G01 X30.6225 Y40.0754
G01 X30.6350 Y40.0987
G01 X30.6560 Y40.1431
G01 X30.6661 Y40.1676
G01 X30.6827 Y40.2138
G01 X30.6904 Y40.2392
G01 X30.7023 Y40.2868
G01 X30.7075 Y40.3128
G01 X30.7147 Y40.3614
G01 X30.7173 Y40.3877
G01 X30.7197 Y40.4368
G01 X30.7200 Y40.4500
G01 X30.7200 Y47.6310
G01 X30.8190 Y47.7300
G01 X30.8903 Y47.7121
G01 X30.9163 Y47.7069
G01 X31.0376 Y47.6889
G01 X31.0640 Y47.6863
G01 X31.1865 Y47.6803
G01 X31.2130 Y47.6803
G01 X31.3355 Y47.6863
G01 X31.3619 Y47.6889
G01 X31.4832 Y47.7069
G01 X31.5092 Y47.7121
G01 X31.6282 Y47.7419
G01 X31.6536 Y47.7496
G01 X31.7691 Y47.7909
G01 X31.7935 Y47.8011
G01 X31.9044 Y47.8535
G01 X31.9278 Y47.8660
G01 X32.0330 Y47.9291
G01 X32.0551 Y47.9438
G01 X32.1536 Y48.0169
G01 X32.1741 Y48.0337
G01 X32.2650 Y48.1161
G01 X32.2837 Y48.1348
G01 X32.3661 Y48.2257
G01 X32.3829 Y48.2462
G01 X32.4560 Y48.3447
G01 X32.4707 Y48.3667
G01 X32.5337 Y48.4719
G01 X32.5462 Y48.4953
G01 X32.5987 Y48.6062
G01 X32.6088 Y48.6307
G01 X32.6501 Y48.7462
G01 X32.6578 Y48.7715
G01 X32.6876 Y48.8905
G01 X32.6928 Y48.9165
G01 X32.7108 Y49.0379
G01 X32.7134 Y49.0642
G01 X32.7194 Y49.1868
G01 X32.7194 Y49.2132
G01 X32.7134 Y49.3358
G01 X32.7108 Y49.3621
G01 X32.6928 Y49.4835
G01 X32.6876 Y49.5095
G01 X32.6578 Y49.6285
G01 X32.6501 Y49.6538
G01 X32.6088 Y49.7693
G01 X32.5987 Y49.7938
G01 X32.5462 Y49.9047
G01 X32.5337 Y49.9281
G01 X32.4707 Y50.0333
G01 X32.4560 Y50.0553
G01 X32.3829 Y50.1538
G01 X32.3661 Y50.1743
G01 X32.2837 Y50.2652
G01 X32.2650 Y50.2839
G01 X32.1741 Y50.3663
G01 X32.1536 Y50.3831
G01 X32.0551 Y50.4562
G01 X32.0330 Y50.4709
G01 X31.9278 Y50.5340
G01 X31.9044 Y50.5465
G01 X31.7935 Y50.5989
G01 X31.7691 Y50.6091
G01 X31.6536 Y50.6504
G01 X31.6282 Y50.6581
G01 X31.5092 Y50.6879
G01 X31.4832 Y50.6931
G01 X31.3619 Y50.7111
G01 X31.3355 Y50.7137
G01 X31.2130 Y50.7197
G01 X31.1865 Y50.7197
G01 X31.0640 Y50.7137
G01 X31.0376 Y50.7111
G01 X30.9163 Y50.6931
G01 X30.8903 Y50.6879
G01 X30.7713 Y50.6581
G01 X30.7459 Y50.6504
G01 X30.6304 Y50.6091
G01 X30.6060 Y50.5989
G01 X30.4951 Y50.5465
G01 X30.4717 Y50.5340
G01 X30.3665 Y50.4709
G01 X30.3444 Y50.4562
G01 X30.2459 Y50.3831
G01 X30.2254 Y50.3663
G01 X30.1345 Y50.2839
G01 X30.1158 Y50.2652
G01 X30.0334 Y50.1743
G01 X30.0166 Y50.1538
G01 X29.9435 Y50.0553
G01 X29.9288 Y50.0333
G01 X29.8658 Y49.9281
G01 X29.8533 Y49.9047
G01 X29.8008 Y49.7938
G01 X29.7907 Y49.7693
G01 X29.7494 Y49.6538
G01 X29.7417 Y49.6285
G01 X29.7119 Y49.5095
G01 X29.7067 Y49.4835
G01 X29.6887 Y49.3621
G01 X29.6861 Y49.3358
G01 X29.6801 Y49.2132
G01 X29.6801 Y49.1868
G01 X29.6861 Y49.0642
G01 X29.6887 Y49.0379
G01 X29.7067 Y48.9165
G01 X29.7119 Y48.8905
G01 X29.7297 Y48.8193
G01 X29.4051 Y48.4946
