(G-CODE GENERATED BY FLATCAM v8.991 - www.flatcam.org - Version Date: 2019/12/27)

(Name: 3)
(Type: G-code from Geometry)
(Units: MM)

(Created on Wednesday, 08 April 2020 at 14:37)

(TOOL DIAMETER: 0.3 mm)
(Feedrate: 120.0 mm/min)
(Feedrate_Z: 60.0 mm/min)
(Feedrate rapids 1500.0 mm/min)

(Z_Cut: -0.15 mm)
(Z_Move: 2.0 mm)
(Z Toolchange: 15.0 mm)
(X,Y Toolchange: 0.0000, 0.0000 mm)
(Z Start: None mm)
(Z End: 4.0 mm)
(Steps per circle: 64)
(Preprocessor Geometry: default)

(X range:    0.3097 ...   60.0900  mm)
(Y range:    0.8097 ...   60.0903  mm)

(Spindle Speed: None RPM)
G21
G90
G94




G01 F120.00
G00 Z2.0000

M03
G00 X10.0505 Y2.5903
G01 F60.00
G01 Z-0.1500
G01 F120.00
G01 X7.5900 Y5.0507
G01 X7.5900 Y4.5688
G01 X9.5685 Y2.5903
G01 X10.0505 Y2.5903
G00 Z2.0000
G00 X9.0900 Y9.8888
G01 F60.00
G01 Z-0.1500
G01 F120.00
G01 X9.0900 Y6.0688
G01 X11.0685 Y4.0903
G01 X25.3310 Y4.0903
G01 X28.3095 Y7.0688
G01 X28.3095 Y7.8233
G01 X28.2730 Y7.8474
G01 X28.1744 Y7.9205
G01 X28.1449 Y7.9448
G01 X28.0540 Y8.0271
G01 X28.0269 Y8.0542
G01 X27.9445 Y8.1451
G01 X27.9202 Y8.1747
G01 X27.8472 Y8.2732
G01 X27.8259 Y8.3050
G01 X27.7628 Y8.4103
G01 X27.7448 Y8.4440
G01 X27.6923 Y8.5549
G01 X27.6777 Y8.5903
G01 X27.6364 Y8.7058
G01 X27.6253 Y8.7424
G01 X27.5955 Y8.8614
G01 X27.5880 Y8.8989
G01 X27.5700 Y9.0203
G01 X27.5662 Y9.0583
G01 X27.5602 Y9.1809
G01 X27.5602 Y9.2191
G01 X27.5662 Y9.3417
G01 X27.5700 Y9.3797
G01 X27.5880 Y9.5011
G01 X27.5955 Y9.5386
G01 X27.6253 Y9.6576
G01 X27.6364 Y9.6942
G01 X27.6777 Y9.8097
G01 X27.6923 Y9.8451
G01 X27.7448 Y9.9560
G01 X27.7628 Y9.9897
G01 X27.8259 Y10.0950
G01 X27.8472 Y10.1268
G01 X27.9202 Y10.2253
G01 X27.9445 Y10.2549
G01 X28.0269 Y10.3458
G01 X28.0540 Y10.3729
G01 X28.1449 Y10.4552
G01 X28.1744 Y10.4795
G01 X28.2730 Y10.5526
G01 X28.3048 Y10.5739
G01 X28.4100 Y10.6369
G01 X28.4438 Y10.6550
G01 X28.5546 Y10.7074
G01 X28.5900 Y10.7221
G01 X28.7055 Y10.7634
G01 X28.7421 Y10.7745
G01 X28.8611 Y10.8043
G01 X28.8987 Y10.8118
G01 X29.0200 Y10.8298
G01 X29.0581 Y10.8335
G01 X29.1806 Y10.8395
G01 X29.2189 Y10.8395
G01 X29.3414 Y10.8335
G01 X29.3795 Y10.8298
G01 X29.5008 Y10.8118
G01 X29.5384 Y10.8043
G01 X29.6574 Y10.7745
G01 X29.6940 Y10.7634
G01 X29.8095 Y10.7221
G01 X29.8449 Y10.7074
G01 X29.9557 Y10.6550
G01 X29.9895 Y10.6369
G01 X30.0947 Y10.5739
G01 X30.1265 Y10.5526
G01 X30.2251 Y10.4795
G01 X30.2546 Y10.4552
G01 X30.3455 Y10.3729
G01 X30.3726 Y10.3458
G01 X30.4550 Y10.2549
G01 X30.4793 Y10.2253
G01 X30.5523 Y10.1268
G01 X30.5736 Y10.0950
G01 X30.6367 Y9.9897
G01 X30.6547 Y9.9560
G01 X30.7072 Y9.8451
G01 X30.7218 Y9.8097
G01 X30.7631 Y9.6942
G01 X30.7742 Y9.6576
G01 X30.8040 Y9.5386
G01 X30.8115 Y9.5011
G01 X30.8295 Y9.3797
G01 X30.8333 Y9.3417
G01 X30.8393 Y9.2191
G01 X30.8393 Y9.1809
G01 X30.8333 Y9.0583
G01 X30.8295 Y9.0203
G01 X30.8115 Y8.8989
G01 X30.8027 Y8.8560
G01 X33.0685 Y6.5903
G01 X35.6345 Y6.5903
G01 X35.6405 Y6.5957
G01 X35.6701 Y6.6199
G01 X35.7095 Y6.6492
G01 X35.7413 Y6.6705
G01 X35.7834 Y6.6957
G01 X35.8172 Y6.7137
G01 X35.8616 Y6.7347
G01 X35.8969 Y6.7494
G01 X35.9431 Y6.7659
G01 X35.9798 Y6.7770
G01 X36.0274 Y6.7890
G01 X36.0649 Y6.7964
G01 X36.1135 Y6.8036
G01 X36.1516 Y6.8074
G01 X36.2006 Y6.8098
G01 X36.2197 Y6.8103
G01 X37.2071 Y6.8103
G01 X37.2686 Y6.8660
G01 X37.2982 Y6.8903
G01 X37.3652 Y6.9400
G01 X37.3970 Y6.9613
G01 X37.4686 Y7.0041
G01 X37.5023 Y7.0222
G01 X37.5777 Y7.0579
G01 X37.6131 Y7.0725
G01 X37.6916 Y7.1006
G01 X37.7282 Y7.1117
G01 X37.8092 Y7.1320
G01 X37.8467 Y7.1394
G01 X37.9292 Y7.1517
G01 X37.9673 Y7.1554
G01 X38.0506 Y7.1595
G01 X38.0697 Y7.1600
G01 X38.5697 Y7.1600
G01 X38.5889 Y7.1595
G01 X38.6722 Y7.1554
G01 X38.7103 Y7.1517
G01 X38.7928 Y7.1394
G01 X38.8303 Y7.1320
G01 X38.9113 Y7.1117
G01 X38.9479 Y7.1006
G01 X39.0264 Y7.0725
G01 X39.0618 Y7.0579
G01 X39.1372 Y7.0222
G01 X39.1709 Y7.0041
G01 X39.2425 Y6.9613
G01 X39.2743 Y6.9400
G01 X39.3413 Y6.8903
G01 X39.3709 Y6.8660
G01 X39.4323 Y6.8104
G01 X43.2866 Y6.8134
G01 X43.3025 Y6.8295
G01 X43.3163 Y6.8427
G01 X43.3527 Y6.8757
G01 X43.3823 Y6.8999
G01 X43.4217 Y6.9292
G01 X43.4536 Y6.9505
G01 X43.4957 Y6.9757
G01 X43.5294 Y6.9937
G01 X43.5738 Y7.0147
G01 X43.6092 Y7.0294
G01 X43.6554 Y7.0459
G01 X43.6920 Y7.0570
G01 X43.7396 Y7.0690
G01 X43.7772 Y7.0764
G01 X43.8257 Y7.0836
G01 X43.8638 Y7.0874
G01 X43.9128 Y7.0898
G01 X43.9320 Y7.0903
G01 X44.3231 Y7.0903
G01 X44.3472 Y7.1268
G01 X44.4202 Y7.2253
G01 X44.4445 Y7.2549
G01 X44.5269 Y7.3458
G01 X44.5540 Y7.3729
G01 X44.6449 Y7.4552
G01 X44.6744 Y7.4795
G01 X44.7730 Y7.5526
G01 X44.7986 Y7.5697
G01 X39.4324 Y7.5697
G01 X39.3709 Y7.5140
G01 X39.3413 Y7.4897
G01 X39.2743 Y7.4400
G01 X39.2425 Y7.4187
G01 X39.1709 Y7.3759
G01 X39.1372 Y7.3578
G01 X39.0618 Y7.3221
G01 X39.0264 Y7.3075
G01 X38.9479 Y7.2794
G01 X38.9113 Y7.2683
G01 X38.8303 Y7.2480
G01 X38.7928 Y7.2406
G01 X38.7103 Y7.2283
G01 X38.6722 Y7.2246
G01 X38.5889 Y7.2205
G01 X38.5697 Y7.2200
G01 X38.0697 Y7.2200
G01 X38.0506 Y7.2205
G01 X37.9673 Y7.2246
G01 X37.9292 Y7.2283
G01 X37.8467 Y7.2406
G01 X37.8092 Y7.2480
G01 X37.7282 Y7.2683
G01 X37.6916 Y7.2794
G01 X37.6131 Y7.3075
G01 X37.5777 Y7.3221
G01 X37.5023 Y7.3578
G01 X37.4686 Y7.3759
G01 X37.3970 Y7.4187
G01 X37.3652 Y7.4400
G01 X37.2982 Y7.4897
G01 X37.2686 Y7.5140
G01 X37.2071 Y7.5697
G01 X36.2197 Y7.5697
G01 X36.2006 Y7.5702
G01 X36.1516 Y7.5726
G01 X36.1135 Y7.5764
G01 X36.0649 Y7.5836
G01 X36.0274 Y7.5910
G01 X35.9798 Y7.6030
G01 X35.9431 Y7.6141
G01 X35.8969 Y7.6306
G01 X35.8616 Y7.6453
G01 X35.8172 Y7.6663
G01 X35.7834 Y7.6843
G01 X35.7413 Y7.7095
G01 X35.7095 Y7.7308
G01 X35.6701 Y7.7601
G01 X35.6405 Y7.7843
G01 X35.6041 Y7.8173
G01 X35.5902 Y7.8305
G01 X30.7710 Y12.6497
G01 X24.1924 Y12.6497
G01 X24.1309 Y12.5940
G01 X24.1013 Y12.5697
G01 X24.0343 Y12.5200
G01 X24.0025 Y12.4987
G01 X23.9309 Y12.4559
G01 X23.8972 Y12.4378
G01 X23.8218 Y12.4021
G01 X23.7864 Y12.3875
G01 X23.7079 Y12.3594
G01 X23.6713 Y12.3483
G01 X23.5903 Y12.3280
G01 X23.5528 Y12.3206
G01 X23.4703 Y12.3083
G01 X23.4322 Y12.3046
G01 X23.3489 Y12.3005
G01 X23.3297 Y12.3000
G01 X22.8297 Y12.3000
G01 X22.8106 Y12.3005
G01 X22.7273 Y12.3046
G01 X22.6892 Y12.3083
G01 X22.6067 Y12.3206
G01 X22.5692 Y12.3280
G01 X22.4882 Y12.3483
G01 X22.4516 Y12.3594
G01 X22.3731 Y12.3875
G01 X22.3377 Y12.4021
G01 X22.2623 Y12.4378
G01 X22.2286 Y12.4559
G01 X22.1570 Y12.4987
G01 X22.1252 Y12.5200
G01 X22.0582 Y12.5697
G01 X22.0286 Y12.5940
G01 X21.9671 Y12.6497
G01 X21.3485 Y12.6497
G01 X19.1893 Y10.4905
G01 X19.1754 Y10.4773
G01 X19.1390 Y10.4443
G01 X19.1094 Y10.4201
G01 X19.0700 Y10.3908
G01 X19.0382 Y10.3695
G01 X18.9961 Y10.3443
G01 X18.9623 Y10.3263
G01 X18.9179 Y10.3053
G01 X18.8826 Y10.2906
G01 X18.8364 Y10.2741
G01 X18.7997 Y10.2630
G01 X18.7521 Y10.2510
G01 X18.7146 Y10.2436
G01 X18.6660 Y10.2364
G01 X18.6279 Y10.2326
G01 X18.5789 Y10.2302
G01 X18.5597 Y10.2297
G01 X15.7124 Y10.2297
G01 X15.6509 Y10.1740
G01 X15.6213 Y10.1497
G01 X15.5543 Y10.1000
G01 X15.5225 Y10.0787
G01 X15.4509 Y10.0359
G01 X15.4172 Y10.0178
G01 X15.3418 Y9.9821
G01 X15.3064 Y9.9675
G01 X15.2279 Y9.9394
G01 X15.1913 Y9.9283
G01 X15.1103 Y9.9080
G01 X15.0728 Y9.9006
G01 X14.9903 Y9.8883
G01 X14.9522 Y9.8846
G01 X14.8689 Y9.8805
G01 X14.8497 Y9.8800
G01 X14.7188 Y9.8800
G01 X14.4793 Y9.6405
G01 X14.4654 Y9.6273
G01 X14.4290 Y9.5943
G01 X14.3994 Y9.5701
G01 X14.3600 Y9.5408
G01 X14.3282 Y9.5195
G01 X14.2861 Y9.4943
G01 X14.2523 Y9.4763
G01 X14.2079 Y9.4553
G01 X14.1726 Y9.4406
G01 X14.1264 Y9.4241
G01 X14.0897 Y9.4130
G01 X14.0421 Y9.4011
G01 X14.0046 Y9.3936
G01 X13.9560 Y9.3864
G01 X13.9179 Y9.3826
G01 X13.8689 Y9.3802
G01 X13.8498 Y9.3798
G01 X12.1184 Y9.3798
G01 X12.0736 Y9.3050
G01 X12.0523 Y9.2732
G01 X11.9793 Y9.1747
G01 X11.9550 Y9.1451
G01 X11.8726 Y9.0542
G01 X11.8455 Y9.0271
G01 X11.7546 Y8.9448
G01 X11.7251 Y8.9205
G01 X11.6265 Y8.8474
G01 X11.5947 Y8.8261
G01 X11.4895 Y8.7631
G01 X11.4557 Y8.7450
G01 X11.3449 Y8.6926
G01 X11.3095 Y8.6779
G01 X11.1940 Y8.6366
G01 X11.1574 Y8.6255
G01 X11.0384 Y8.5957
G01 X11.0008 Y8.5882
G01 X10.8795 Y8.5702
G01 X10.8414 Y8.5665
G01 X10.7189 Y8.5605
G01 X10.6806 Y8.5605
G01 X10.5581 Y8.5665
G01 X10.5200 Y8.5702
G01 X10.3987 Y8.5882
G01 X10.3611 Y8.5957
G01 X10.2421 Y8.6255
G01 X10.2055 Y8.6366
G01 X10.0900 Y8.6779
G01 X10.0546 Y8.6926
G01 X9.9438 Y8.7450
G01 X9.9100 Y8.7631
G01 X9.8048 Y8.8261
G01 X9.7730 Y8.8474
G01 X9.6744 Y8.9205
G01 X9.6449 Y8.9448
G01 X9.5540 Y9.0271
G01 X9.5269 Y9.0542
G01 X9.4445 Y9.1451
G01 X9.4202 Y9.1747
G01 X9.3472 Y9.2732
G01 X9.3259 Y9.3050
G01 X9.2628 Y9.4103
G01 X9.2448 Y9.4440
G01 X9.1923 Y9.5549
G01 X9.1777 Y9.5903
G01 X9.1364 Y9.7058
G01 X9.1253 Y9.7424
G01 X9.0955 Y9.8614
G01 X9.0900 Y9.8888
G00 Z2.0000
G00 X13.6871 Y12.7697
G01 F60.00
G01 Z-0.1500
G01 F120.00
G01 X13.7486 Y12.7140
G01 X13.7782 Y12.6897
G01 X13.8452 Y12.6400
G01 X13.8770 Y12.6187
G01 X13.9486 Y12.5759
G01 X13.9823 Y12.5578
G01 X14.0577 Y12.5221
G01 X14.0931 Y12.5075
G01 X14.1716 Y12.4794
G01 X14.2082 Y12.4683
G01 X14.2892 Y12.4480
G01 X14.3267 Y12.4406
G01 X14.4092 Y12.4283
G01 X14.4473 Y12.4246
G01 X14.5306 Y12.4205
G01 X14.5497 Y12.4200
G01 X14.8497 Y12.4200
G01 X14.8689 Y12.4205
G01 X14.9522 Y12.4246
G01 X14.9903 Y12.4283
G01 X15.0728 Y12.4406
G01 X15.1103 Y12.4480
G01 X15.1913 Y12.4683
G01 X15.2279 Y12.4794
G01 X15.3064 Y12.5075
G01 X15.3418 Y12.5221
G01 X15.4172 Y12.5578
G01 X15.4509 Y12.5759
G01 X15.5225 Y12.6187
G01 X15.5543 Y12.6400
G01 X15.6213 Y12.6897
G01 X15.6509 Y12.7140
G01 X15.7127 Y12.7700
G01 X15.7398 Y12.7971
G01 X15.7958 Y12.8589
G01 X15.8201 Y12.8884
G01 X15.8697 Y12.9554
G01 X15.8910 Y12.9873
G01 X15.9339 Y13.0588
G01 X15.9519 Y13.0926
G01 X15.9876 Y13.1680
G01 X16.0022 Y13.2033
G01 X16.0304 Y13.2819
G01 X16.0415 Y13.3185
G01 X16.0617 Y13.3994
G01 X16.0692 Y13.4369
G01 X16.0814 Y13.5195
G01 X16.0852 Y13.5575
G01 X16.0893 Y13.6409
G01 X16.0893 Y13.6791
G01 X16.0852 Y13.7625
G01 X16.0814 Y13.8005
G01 X16.0692 Y13.8831
G01 X16.0617 Y13.9206
G01 X16.0415 Y14.0015
G01 X16.0304 Y14.0381
G01 X16.0022 Y14.1167
G01 X15.9876 Y14.1520
G01 X15.9519 Y14.2274
G01 X15.9339 Y14.2612
G01 X15.8910 Y14.3327
G01 X15.8697 Y14.3646
G01 X15.8201 Y14.4316
G01 X15.7958 Y14.4611
G01 X15.7398 Y14.5229
G01 X15.7127 Y14.5500
G01 X15.6509 Y14.6060
G01 X15.6213 Y14.6303
G01 X15.5543 Y14.6800
G01 X15.5225 Y14.7013
G01 X15.4509 Y14.7441
G01 X15.4172 Y14.7622
G01 X15.3418 Y14.7979
G01 X15.3125 Y14.8100
G01 X15.6997 Y14.8100
G01 X15.7380 Y14.8119
G01 X15.7758 Y14.8175
G01 X15.8130 Y14.8268
G01 X15.8490 Y14.8397
G01 X15.8836 Y14.8561
G01 X15.9164 Y14.8757
G01 X15.9472 Y14.8985
G01 X15.9755 Y14.9242
G01 X16.0012 Y14.9526
G01 X16.0240 Y14.9833
G01 X16.0437 Y15.0162
G01 X16.0601 Y15.0508
G01 X16.0730 Y15.0868
G01 X16.0823 Y15.1239
G01 X16.0879 Y15.1618
G01 X16.0892 Y15.1897
G01 X21.9671 Y15.1897
G01 X22.0286 Y15.1340
G01 X22.0582 Y15.1097
G01 X22.1252 Y15.0600
G01 X22.1570 Y15.0387
G01 X22.2286 Y14.9959
G01 X22.2623 Y14.9778
G01 X22.3377 Y14.9421
G01 X22.3731 Y14.9275
G01 X22.4516 Y14.8994
G01 X22.4882 Y14.8883
G01 X22.5692 Y14.8680
G01 X22.6067 Y14.8606
G01 X22.6892 Y14.8483
G01 X22.7273 Y14.8446
G01 X22.8106 Y14.8405
G01 X22.8297 Y14.8400
G01 X23.3297 Y14.8400
G01 X23.3489 Y14.8405
G01 X23.4322 Y14.8446
G01 X23.4703 Y14.8483
G01 X23.5528 Y14.8606
G01 X23.5903 Y14.8680
G01 X23.6713 Y14.8883
G01 X23.7079 Y14.8994
G01 X23.7864 Y14.9275
G01 X23.8218 Y14.9421
G01 X23.8972 Y14.9778
G01 X23.9309 Y14.9959
G01 X24.0025 Y15.0387
G01 X24.0343 Y15.0600
G01 X24.1013 Y15.1097
G01 X24.1309 Y15.1340
G01 X24.1927 Y15.1900
G01 X24.2198 Y15.2171
G01 X24.2758 Y15.2789
G01 X24.3001 Y15.3084
G01 X24.3497 Y15.3754
G01 X24.3710 Y15.4073
G01 X24.4139 Y15.4788
G01 X24.4319 Y15.5126
G01 X24.4676 Y15.5880
G01 X24.4822 Y15.6233
G01 X24.5104 Y15.7019
G01 X24.5215 Y15.7385
G01 X24.5417 Y15.8194
G01 X24.5492 Y15.8569
G01 X24.5614 Y15.9395
G01 X24.5652 Y15.9775
G01 X24.5693 Y16.0609
G01 X24.5693 Y16.0991
G01 X24.5652 Y16.1825
G01 X24.5614 Y16.2205
G01 X24.5492 Y16.3031
G01 X24.5417 Y16.3406
G01 X24.5215 Y16.4215
G01 X24.5104 Y16.4581
G01 X24.4822 Y16.5367
G01 X24.4676 Y16.5720
G01 X24.4319 Y16.6474
G01 X24.4139 Y16.6812
G01 X24.3710 Y16.7527
G01 X24.3497 Y16.7846
G01 X24.3001 Y16.8516
G01 X24.2758 Y16.8811
G01 X24.2198 Y16.9429
G01 X24.1927 Y16.9700
G01 X24.1309 Y17.0260
G01 X24.1013 Y17.0503
G01 X24.0343 Y17.1000
G01 X24.0025 Y17.1213
G01 X23.9309 Y17.1641
G01 X23.8972 Y17.1822
G01 X23.8218 Y17.2179
G01 X23.7864 Y17.2325
G01 X23.7079 Y17.2606
G01 X23.6713 Y17.2717
G01 X23.5903 Y17.2920
G01 X23.5528 Y17.2994
G01 X23.4703 Y17.3117
G01 X23.4322 Y17.3154
G01 X23.3489 Y17.3195
G01 X23.3297 Y17.3200
G01 X22.8297 Y17.3200
G01 X22.8106 Y17.3195
G01 X22.7273 Y17.3154
G01 X22.6892 Y17.3117
G01 X22.6067 Y17.2994
G01 X22.5692 Y17.2920
G01 X22.4882 Y17.2717
G01 X22.4516 Y17.2606
G01 X22.3731 Y17.2325
G01 X22.3377 Y17.2179
G01 X22.2623 Y17.1822
G01 X22.2286 Y17.1641
G01 X22.1570 Y17.1213
G01 X22.1252 Y17.1000
G01 X22.0582 Y17.0503
G01 X22.0286 Y17.0260
G01 X21.9671 Y16.9703
G01 X16.0897 Y16.9703
G01 X16.0897 Y17.2000
G01 X16.0879 Y17.2382
G01 X16.0823 Y17.2761
G01 X16.0730 Y17.3132
G01 X16.0601 Y17.3492
G01 X16.0437 Y17.3838
G01 X16.0240 Y17.4167
G01 X16.0012 Y17.4474
G01 X15.9755 Y17.4758
G01 X15.9472 Y17.5015
G01 X15.9164 Y17.5243
G01 X15.8836 Y17.5439
G01 X15.8490 Y17.5603
G01 X15.8130 Y17.5732
G01 X15.7758 Y17.5825
G01 X15.7380 Y17.5881
G01 X15.6997 Y17.5900
G01 X13.6997 Y17.5900
G01 X13.6615 Y17.5881
G01 X13.6237 Y17.5825
G01 X13.5865 Y17.5732
G01 X13.5505 Y17.5603
G01 X13.5159 Y17.5439
G01 X13.4831 Y17.5243
G01 X13.4523 Y17.5015
G01 X13.4240 Y17.4758
G01 X13.3983 Y17.4474
G01 X13.3755 Y17.4167
G01 X13.3558 Y17.3838
G01 X13.3394 Y17.3492
G01 X13.3265 Y17.3132
G01 X13.3172 Y17.2761
G01 X13.3116 Y17.2382
G01 X13.3097 Y17.2000
G01 X13.3097 Y15.2000
G01 X13.3116 Y15.1618
G01 X13.3172 Y15.1239
G01 X13.3265 Y15.0868
G01 X13.3394 Y15.0508
G01 X13.3558 Y15.0162
G01 X13.3755 Y14.9833
G01 X13.3983 Y14.9526
G01 X13.4240 Y14.9242
G01 X13.4523 Y14.8985
G01 X13.4831 Y14.8757
G01 X13.5159 Y14.8561
G01 X13.5505 Y14.8397
G01 X13.5865 Y14.8268
G01 X13.6237 Y14.8175
G01 X13.6615 Y14.8119
G01 X13.6997 Y14.8100
G01 X14.0870 Y14.8100
G01 X14.0577 Y14.7979
G01 X13.9823 Y14.7622
G01 X13.9486 Y14.7441
G01 X13.8770 Y14.7013
G01 X13.8452 Y14.6800
G01 X13.7782 Y14.6303
G01 X13.7486 Y14.6060
G01 X13.6871 Y14.5503
G01 X12.1597 Y14.5503
G01 X12.1406 Y14.5498
G01 X12.0916 Y14.5474
G01 X12.0535 Y14.5436
G01 X12.0049 Y14.5364
G01 X11.9674 Y14.5290
G01 X11.9198 Y14.5170
G01 X11.8831 Y14.5059
G01 X11.8369 Y14.4894
G01 X11.8016 Y14.4747
G01 X11.7572 Y14.4537
G01 X11.7234 Y14.4357
G01 X11.6813 Y14.4105
G01 X11.6495 Y14.3892
G01 X11.6101 Y14.3599
G01 X11.5805 Y14.3357
G01 X11.5441 Y14.3027
G01 X11.5302 Y14.2895
G01 X11.3310 Y14.0903
G01 X9.1997 Y14.0903
G01 X9.1806 Y14.0898
G01 X9.1316 Y14.0874
G01 X9.0935 Y14.0836
G01 X9.0449 Y14.0764
G01 X9.0074 Y14.0690
G01 X8.9598 Y14.0570
G01 X8.9231 Y14.0459
G01 X8.8769 Y14.0294
G01 X8.8416 Y14.0147
G01 X8.7972 Y13.9937
G01 X8.7634 Y13.9757
G01 X8.7213 Y13.9505
G01 X8.6895 Y13.9292
G01 X8.6501 Y13.8999
G01 X8.6205 Y13.8757
G01 X8.5841 Y13.8427
G01 X8.5702 Y13.8295
G01 X7.5900 Y12.8493
G01 X7.5900 Y18.3100
G01 X7.6997 Y18.3100
G01 X7.7380 Y18.3119
G01 X7.7758 Y18.3175
G01 X7.8130 Y18.3268
G01 X7.8490 Y18.3397
G01 X7.8836 Y18.3561
G01 X7.9164 Y18.3757
G01 X7.9472 Y18.3985
G01 X7.9755 Y18.4242
G01 X8.0012 Y18.4526
G01 X8.0240 Y18.4833
G01 X8.0437 Y18.5162
G01 X8.0601 Y18.5508
G01 X8.0730 Y18.5868
G01 X8.0823 Y18.6239
G01 X8.0879 Y18.6618
G01 X8.0897 Y18.7000
G01 X8.0897 Y20.7000
G01 X8.0879 Y20.7382
G01 X8.0823 Y20.7761
G01 X8.0730 Y20.8132
G01 X8.0601 Y20.8492
G01 X8.0437 Y20.8838
G01 X8.0240 Y20.9167
G01 X8.0012 Y20.9474
G01 X7.9755 Y20.9758
G01 X7.9472 Y21.0015
G01 X7.9164 Y21.0243
G01 X7.8836 Y21.0439
G01 X7.8490 Y21.0603
G01 X7.8130 Y21.0732
G01 X7.7758 Y21.0825
G01 X7.7380 Y21.0881
G01 X7.6997 Y21.0900
G01 X5.6997 Y21.0900
G01 X5.6615 Y21.0881
G01 X5.6237 Y21.0825
G01 X5.5865 Y21.0732
G01 X5.5505 Y21.0603
G01 X5.5159 Y21.0439
G01 X5.4831 Y21.0243
G01 X5.4523 Y21.0015
G01 X5.4240 Y20.9758
G01 X5.3983 Y20.9474
G01 X5.3755 Y20.9167
G01 X5.3558 Y20.8838
G01 X5.3394 Y20.8492
G01 X5.3265 Y20.8132
G01 X5.3172 Y20.7761
G01 X5.3116 Y20.7382
G01 X5.3097 Y20.7000
G01 X5.3097 Y20.3127
G01 X5.2976 Y20.3420
G01 X5.2619 Y20.4174
G01 X5.2439 Y20.4512
G01 X5.2010 Y20.5227
G01 X5.1797 Y20.5546
G01 X5.1301 Y20.6216
G01 X5.1058 Y20.6511
G01 X5.0500 Y20.7127
G01 X5.0500 Y21.7000
G01 X5.0495 Y21.7191
G01 X5.0471 Y21.7682
G01 X5.0434 Y21.8063
G01 X5.0362 Y21.8548
G01 X5.0287 Y21.8924
G01 X5.0168 Y21.9400
G01 X5.0057 Y21.9766
G01 X4.9891 Y22.0228
G01 X4.9745 Y22.0582
G01 X4.9535 Y22.1026
G01 X4.9354 Y22.1363
G01 X4.9102 Y22.1784
G01 X4.8889 Y22.2102
G01 X4.8597 Y22.2497
G01 X4.8354 Y22.2793
G01 X4.8025 Y22.3156
G01 X4.7893 Y22.3295
G01 X4.0900 Y23.0288
G01 X4.0900 Y24.2000
G01 X4.0895 Y24.2191
G01 X4.0871 Y24.2682
G01 X4.0834 Y24.3063
G01 X4.0762 Y24.3548
G01 X4.0687 Y24.3924
G01 X4.0568 Y24.4400
G01 X4.0457 Y24.4766
G01 X4.0291 Y24.5228
G01 X4.0145 Y24.5582
G01 X3.9935 Y24.6026
G01 X3.9754 Y24.6363
G01 X3.9502 Y24.6784
G01 X3.9289 Y24.7102
G01 X3.8997 Y24.7497
G01 X3.8754 Y24.7793
G01 X3.8425 Y24.8156
G01 X3.8293 Y24.8295
G01 X2.5900 Y26.0688
G01 X2.5900 Y27.3100
G01 X2.6997 Y27.3100
G01 X2.7380 Y27.3119
G01 X2.7758 Y27.3175
G01 X2.8130 Y27.3268
G01 X2.8490 Y27.3397
G01 X2.8836 Y27.3561
G01 X2.9164 Y27.3757
G01 X2.9472 Y27.3985
G01 X2.9755 Y27.4242
G01 X3.0012 Y27.4526
G01 X3.0240 Y27.4833
G01 X3.0437 Y27.5162
G01 X3.0601 Y27.5508
G01 X3.0730 Y27.5868
G01 X3.0823 Y27.6239
G01 X3.0879 Y27.6618
G01 X3.0897 Y27.7000
G01 X3.0897 Y28.0873
G01 X3.1019 Y28.0580
G01 X3.1376 Y27.9826
G01 X3.1556 Y27.9488
G01 X3.1985 Y27.8773
G01 X3.2197 Y27.8454
G01 X3.2694 Y27.7784
G01 X3.2937 Y27.7489
G01 X3.3497 Y27.6871
G01 X3.3768 Y27.6600
G01 X3.4386 Y27.6040
G01 X3.4682 Y27.5797
G01 X3.5352 Y27.5300
G01 X3.5670 Y27.5087
G01 X3.6386 Y27.4659
G01 X3.6723 Y27.4478
G01 X3.7477 Y27.4121
G01 X3.7831 Y27.3975
G01 X3.8616 Y27.3694
G01 X3.8982 Y27.3583
G01 X3.9792 Y27.3380
G01 X4.0167 Y27.3306
G01 X4.0992 Y27.3183
G01 X4.1373 Y27.3146
G01 X4.2206 Y27.3105
G01 X4.2589 Y27.3105
G01 X4.3422 Y27.3146
G01 X4.3803 Y27.3183
G01 X4.4628 Y27.3306
G01 X4.5003 Y27.3380
G01 X4.5813 Y27.3583
G01 X4.6179 Y27.3694
G01 X4.6964 Y27.3975
G01 X4.7318 Y27.4121
G01 X4.8072 Y27.4478
G01 X4.8409 Y27.4659
G01 X4.9125 Y27.5087
G01 X4.9443 Y27.5300
G01 X5.0113 Y27.5797
G01 X5.0409 Y27.6040
G01 X5.1027 Y27.6600
G01 X5.1298 Y27.6871
G01 X5.1858 Y27.7489
G01 X5.2101 Y27.7784
G01 X5.2597 Y27.8454
G01 X5.2810 Y27.8773
G01 X5.3239 Y27.9488
G01 X5.3419 Y27.9826
G01 X5.3776 Y28.0580
G01 X5.3922 Y28.0933
G01 X5.4204 Y28.1719
G01 X5.4315 Y28.2085
G01 X5.4517 Y28.2894
G01 X5.4592 Y28.3269
G01 X5.4714 Y28.4095
G01 X5.4752 Y28.4475
G01 X5.4793 Y28.5309
G01 X5.4797 Y28.5500
G01 X5.4797 Y28.8500
G01 X5.4793 Y28.8691
G01 X5.4752 Y28.9525
G01 X5.4714 Y28.9905
G01 X5.4592 Y29.0731
G01 X5.4517 Y29.1106
G01 X5.4315 Y29.1915
G01 X5.4204 Y29.2281
G01 X5.3922 Y29.3067
G01 X5.3776 Y29.3420
G01 X5.3419 Y29.4174
G01 X5.3239 Y29.4512
G01 X5.2810 Y29.5227
G01 X5.2597 Y29.5546
G01 X5.2101 Y29.6216
G01 X5.1858 Y29.6511
G01 X5.1300 Y29.7127
G01 X5.1300 Y31.6600
G01 X5.1295 Y31.6791
G01 X5.1271 Y31.7282
G01 X5.1234 Y31.7663
G01 X5.1162 Y31.8148
G01 X5.1087 Y31.8524
G01 X5.0968 Y31.9000
G01 X5.0857 Y31.9366
G01 X5.0691 Y31.9828
G01 X5.0545 Y32.0182
G01 X5.0335 Y32.0626
G01 X5.0154 Y32.0963
G01 X4.9902 Y32.1384
G01 X4.9700 Y32.1687
G01 X4.9700 Y33.1331
G01 X4.9761 Y33.1380
G01 X5.0488 Y33.2039
G01 X5.0758 Y33.2310
G01 X5.1417 Y33.3037
G01 X5.1660 Y33.3333
G01 X5.2245 Y33.4121
G01 X5.2457 Y33.4439
G01 X5.2962 Y33.5281
G01 X5.3142 Y33.5619
G01 X5.3562 Y33.6506
G01 X5.3708 Y33.6859
G01 X5.4039 Y33.7783
G01 X5.4150 Y33.8150
G01 X5.4388 Y33.9101
G01 X5.4463 Y33.9477
G01 X5.4607 Y34.0448
G01 X5.4645 Y34.0828
G01 X5.4693 Y34.1809
G01 X5.4693 Y34.2191
G01 X5.4645 Y34.3172
G01 X5.4607 Y34.3552
G01 X5.4463 Y34.4523
G01 X5.4388 Y34.4899
G01 X5.4150 Y34.5850
G01 X5.4039 Y34.6217
G01 X5.3708 Y34.7141
G01 X5.3562 Y34.7494
G01 X5.3142 Y34.8381
G01 X5.2962 Y34.8719
G01 X5.2457 Y34.9561
G01 X5.2245 Y34.9879
G01 X5.1660 Y35.0667
G01 X5.1417 Y35.0963
G01 X5.0758 Y35.1690
G01 X5.0488 Y35.1961
G01 X4.9761 Y35.2620
G01 X4.9465 Y35.2863
G01 X4.8676 Y35.3447
G01 X4.8358 Y35.3660
G01 X4.7516 Y35.4164
G01 X4.7179 Y35.4345
G01 X4.6292 Y35.4764
G01 X4.5938 Y35.4911
G01 X4.5014 Y35.5241
G01 X4.4648 Y35.5353
G01 X4.3696 Y35.5591
G01 X4.3321 Y35.5666
G01 X4.2350 Y35.5810
G01 X4.1969 Y35.5847
G01 X4.0989 Y35.5895
G01 X4.0606 Y35.5895
G01 X4.0363 Y35.5883
G01 X4.0302 Y35.5984
G01 X4.0089 Y35.6302
G01 X3.9797 Y35.6697
G01 X3.9554 Y35.6993
G01 X3.9225 Y35.7356
G01 X3.9093 Y35.7495
G01 X2.5900 Y37.0688
G01 X2.5900 Y39.8097
G01 X3.2447 Y39.8097
G01 X3.2130 Y39.7863
G01 X3.1834 Y39.7620
G01 X3.1107 Y39.6961
G01 X3.0837 Y39.6690
G01 X3.0178 Y39.5963
G01 X2.9935 Y39.5667
G01 X2.9350 Y39.4879
G01 X2.9138 Y39.4561
G01 X2.8633 Y39.3719
G01 X2.8453 Y39.3381
G01 X2.8033 Y39.2494
G01 X2.7887 Y39.2141
G01 X2.7556 Y39.1217
G01 X2.7445 Y39.0850
G01 X2.7207 Y38.9899
G01 X2.7132 Y38.9523
G01 X2.6988 Y38.8552
G01 X2.6950 Y38.8172
G01 X2.6902 Y38.7191
G01 X2.6902 Y38.6809
G01 X2.6950 Y38.5828
G01 X2.6988 Y38.5448
G01 X2.7132 Y38.4477
G01 X2.7207 Y38.4101
G01 X2.7445 Y38.3150
G01 X2.7556 Y38.2783
G01 X2.7887 Y38.1859
G01 X2.8033 Y38.1506
G01 X2.8453 Y38.0619
G01 X2.8633 Y38.0281
G01 X2.9138 Y37.9439
G01 X2.9350 Y37.9121
G01 X2.9935 Y37.8333
G01 X3.0178 Y37.8037
G01 X3.0837 Y37.7310
G01 X3.1107 Y37.7039
G01 X3.1834 Y37.6380
G01 X3.2130 Y37.6137
G01 X3.2919 Y37.5553
G01 X3.3237 Y37.5340
G01 X3.4079 Y37.4836
G01 X3.4416 Y37.4655
G01 X3.5303 Y37.4236
G01 X3.5657 Y37.4089
G01 X3.6581 Y37.3759
G01 X3.6947 Y37.3647
G01 X3.7899 Y37.3409
G01 X3.8274 Y37.3334
G01 X3.9245 Y37.3190
G01 X3.9626 Y37.3153
G01 X4.0606 Y37.3105
G01 X4.0989 Y37.3105
G01 X4.1969 Y37.3153
G01 X4.2350 Y37.3190
G01 X4.3321 Y37.3334
G01 X4.3696 Y37.3409
G01 X4.4648 Y37.3647
G01 X4.5014 Y37.3759
G01 X4.5938 Y37.4089
G01 X4.6292 Y37.4236
G01 X4.7179 Y37.4655
G01 X4.7516 Y37.4836
G01 X4.8358 Y37.5340
G01 X4.8676 Y37.5553
G01 X4.9465 Y37.6137
G01 X4.9761 Y37.6380
G01 X5.0488 Y37.7039
G01 X5.0758 Y37.7310
G01 X5.1417 Y37.8037
G01 X5.1467 Y37.8097
G01 X5.3310 Y37.8097
G01 X5.8095 Y37.3312
G01 X5.8095 Y33.7000
G01 X5.8100 Y33.6809
G01 X5.8124 Y33.6318
G01 X5.8161 Y33.5937
G01 X5.8233 Y33.5452
G01 X5.8308 Y33.5076
G01 X5.8427 Y33.4600
G01 X5.8538 Y33.4234
G01 X5.8704 Y33.3772
G01 X5.8850 Y33.3418
G01 X5.9060 Y33.2974
G01 X5.9241 Y33.2637
G01 X5.9493 Y33.2216
G01 X5.9706 Y33.1898
G01 X5.9998 Y33.1503
G01 X6.0241 Y33.1207
G01 X6.0570 Y33.0844
G01 X6.0702 Y33.0705
G01 X10.8095 Y28.3312
G01 X10.8095 Y27.0112
G01 X10.8040 Y27.0386
G01 X10.7742 Y27.1576
G01 X10.7631 Y27.1942
G01 X10.7218 Y27.3097
G01 X10.7072 Y27.3451
G01 X10.6547 Y27.4560
G01 X10.6367 Y27.4897
G01 X10.5736 Y27.5950
G01 X10.5523 Y27.6268
G01 X10.4793 Y27.7253
G01 X10.4550 Y27.7549
G01 X10.3726 Y27.8458
G01 X10.3455 Y27.8729
G01 X10.2546 Y27.9552
G01 X10.2251 Y27.9795
G01 X10.1265 Y28.0526
G01 X10.0947 Y28.0739
G01 X9.9895 Y28.1369
G01 X9.9557 Y28.1550
G01 X9.8449 Y28.2074
G01 X9.8095 Y28.2221
G01 X9.6940 Y28.2634
G01 X9.6574 Y28.2745
G01 X9.5384 Y28.3043
G01 X9.5008 Y28.3118
G01 X9.3795 Y28.3298
G01 X9.3414 Y28.3335
G01 X9.2189 Y28.3395
G01 X9.1806 Y28.3395
G01 X9.0581 Y28.3335
G01 X9.0200 Y28.3298
G01 X8.8987 Y28.3118
G01 X8.8611 Y28.3043
G01 X8.7421 Y28.2745
G01 X8.7055 Y28.2634
G01 X8.5900 Y28.2221
G01 X8.5546 Y28.2074
G01 X8.4438 Y28.1550
G01 X8.4100 Y28.1369
G01 X8.3048 Y28.0739
G01 X8.2730 Y28.0526
G01 X8.1744 Y27.9795
G01 X8.1449 Y27.9552
G01 X8.0540 Y27.8729
G01 X8.0269 Y27.8458
G01 X7.9445 Y27.7549
G01 X7.9202 Y27.7253
G01 X7.8472 Y27.6268
G01 X7.8231 Y27.5903
G01 X7.6700 Y27.5903
G01 X7.6700 Y27.6873
G01 X7.7258 Y27.7489
G01 X7.7501 Y27.7784
G01 X7.7997 Y27.8454
G01 X7.8210 Y27.8773
G01 X7.8639 Y27.9488
G01 X7.8819 Y27.9826
G01 X7.9176 Y28.0580
G01 X7.9322 Y28.0933
G01 X7.9604 Y28.1719
G01 X7.9715 Y28.2085
G01 X7.9917 Y28.2894
G01 X7.9992 Y28.3269
G01 X8.0114 Y28.4095
G01 X8.0152 Y28.4475
G01 X8.0193 Y28.5309
G01 X8.0197 Y28.5500
G01 X8.0197 Y28.8500
G01 X8.0193 Y28.8691
G01 X8.0152 Y28.9525
G01 X8.0114 Y28.9905
G01 X7.9992 Y29.0731
G01 X7.9917 Y29.1106
G01 X7.9715 Y29.1915
G01 X7.9604 Y29.2281
G01 X7.9322 Y29.3067
G01 X7.9176 Y29.3420
G01 X7.8819 Y29.4174
G01 X7.8639 Y29.4512
G01 X7.8210 Y29.5227
G01 X7.7997 Y29.5546
G01 X7.7501 Y29.6216
G01 X7.7258 Y29.6511
G01 X7.6698 Y29.7129
G01 X7.6427 Y29.7400
G01 X7.5809 Y29.7960
G01 X7.5513 Y29.8203
G01 X7.4843 Y29.8700
G01 X7.4525 Y29.8913
G01 X7.3809 Y29.9341
G01 X7.3472 Y29.9522
G01 X7.2718 Y29.9879
G01 X7.2364 Y30.0025
G01 X7.1579 Y30.0306
G01 X7.1213 Y30.0417
G01 X7.0403 Y30.0620
G01 X7.0028 Y30.0694
G01 X6.9203 Y30.0817
G01 X6.8822 Y30.0854
G01 X6.7989 Y30.0895
G01 X6.7606 Y30.0895
G01 X6.6773 Y30.0854
G01 X6.6392 Y30.0817
G01 X6.5567 Y30.0694
G01 X6.5192 Y30.0620
G01 X6.4382 Y30.0417
G01 X6.4016 Y30.0306
G01 X6.3231 Y30.0025
G01 X6.2877 Y29.9879
G01 X6.2123 Y29.9522
G01 X6.1786 Y29.9341
G01 X6.1070 Y29.8913
G01 X6.0752 Y29.8700
G01 X6.0082 Y29.8203
G01 X5.9786 Y29.7960
G01 X5.9168 Y29.7400
G01 X5.8897 Y29.7129
G01 X5.8337 Y29.6511
G01 X5.8094 Y29.6216
G01 X5.7597 Y29.5546
G01 X5.7385 Y29.5227
G01 X5.6956 Y29.4512
G01 X5.6776 Y29.4174
G01 X5.6419 Y29.3420
G01 X5.6273 Y29.3067
G01 X5.5991 Y29.2281
G01 X5.5880 Y29.1915
G01 X5.5678 Y29.1106
G01 X5.5603 Y29.0731
G01 X5.5481 Y28.9905
G01 X5.5443 Y28.9525
G01 X5.5402 Y28.8691
G01 X5.5397 Y28.8500
G01 X5.5397 Y28.5500
G01 X5.5402 Y28.5309
G01 X5.5443 Y28.4475
G01 X5.5481 Y28.4095
G01 X5.5603 Y28.3269
G01 X5.5678 Y28.2894
G01 X5.5880 Y28.2085
G01 X5.5991 Y28.1719
G01 X5.6273 Y28.0933
G01 X5.6419 Y28.0580
G01 X5.6776 Y27.9826
G01 X5.6956 Y27.9488
G01 X5.7385 Y27.8773
G01 X5.7597 Y27.8454
G01 X5.8094 Y27.7784
G01 X5.8337 Y27.7489
G01 X5.8895 Y27.6873
G01 X5.8895 Y26.7800
G01 X5.8900 Y26.7609
G01 X5.8924 Y26.7118
G01 X5.8961 Y26.6737
G01 X5.9033 Y26.6252
G01 X5.9108 Y26.5876
G01 X5.9227 Y26.5400
G01 X5.9338 Y26.5034
G01 X5.9504 Y26.4572
G01 X5.9650 Y26.4218
G01 X5.9860 Y26.3774
G01 X6.0041 Y26.3437
G01 X6.0293 Y26.3016
G01 X6.0506 Y26.2698
G01 X6.0798 Y26.2303
G01 X6.1041 Y26.2007
G01 X6.1370 Y26.1644
G01 X6.1502 Y26.1505
G01 X6.2302 Y26.0705
G01 X6.2441 Y26.0573
G01 X6.2805 Y26.0243
G01 X6.3101 Y26.0001
G01 X6.3495 Y25.9708
G01 X6.3813 Y25.9495
G01 X6.4234 Y25.9243
G01 X6.4572 Y25.9063
G01 X6.5016 Y25.8853
G01 X6.5369 Y25.8706
G01 X6.5831 Y25.8541
G01 X6.6198 Y25.8430
G01 X6.6674 Y25.8310
G01 X6.7049 Y25.8236
G01 X6.7535 Y25.8164
G01 X6.7916 Y25.8126
G01 X6.8406 Y25.8102
G01 X6.8597 Y25.8097
G01 X7.8231 Y25.8097
G01 X7.8472 Y25.7732
G01 X7.9202 Y25.6747
G01 X7.9445 Y25.6451
G01 X8.0269 Y25.5542
G01 X8.0540 Y25.5271
G01 X8.1449 Y25.4448
G01 X8.1744 Y25.4205
G01 X8.2730 Y25.3474
G01 X8.3095 Y25.3233
G01 X8.3095 Y18.9678
G01 X8.3100 Y18.9486
G01 X8.3124 Y18.8996
G01 X8.3161 Y18.8615
G01 X8.3233 Y18.8129
G01 X8.3308 Y18.7754
G01 X8.3427 Y18.7278
G01 X8.3538 Y18.6912
G01 X8.3704 Y18.6449
G01 X8.3850 Y18.6096
G01 X8.4060 Y18.5652
G01 X8.4241 Y18.5314
G01 X8.4493 Y18.4893
G01 X8.4706 Y18.4575
G01 X8.4998 Y18.4181
G01 X8.5241 Y18.3885
G01 X8.5570 Y18.3521
G01 X8.5702 Y18.3383
G01 X9.3095 Y17.5990
G01 X9.3095 Y17.5767
G01 X9.2730 Y17.5526
G01 X9.1744 Y17.4795
G01 X9.1449 Y17.4552
G01 X9.0540 Y17.3729
G01 X9.0269 Y17.3458
G01 X8.9445 Y17.2549
G01 X8.9202 Y17.2253
G01 X8.8472 Y17.1268
G01 X8.8259 Y17.0950
G01 X8.7628 Y16.9897
G01 X8.7448 Y16.9560
G01 X8.6923 Y16.8451
G01 X8.6777 Y16.8097
G01 X8.6364 Y16.6942
G01 X8.6253 Y16.6576
G01 X8.5955 Y16.5386
G01 X8.5880 Y16.5011
G01 X8.5700 Y16.3797
G01 X8.5662 Y16.3417
G01 X8.5602 Y16.2191
G01 X8.5602 Y16.1809
G01 X8.5662 Y16.0583
G01 X8.5700 Y16.0203
G01 X8.5880 Y15.8989
G01 X8.5955 Y15.8614
G01 X8.6253 Y15.7424
G01 X8.6364 Y15.7058
G01 X8.6777 Y15.5903
G01 X8.6923 Y15.5549
G01 X8.7448 Y15.4440
G01 X8.7628 Y15.4103
G01 X8.8259 Y15.3050
G01 X8.8472 Y15.2732
G01 X8.9202 Y15.1747
G01 X8.9445 Y15.1451
G01 X9.0269 Y15.0542
G01 X9.0540 Y15.0271
G01 X9.1449 Y14.9448
G01 X9.1744 Y14.9205
G01 X9.2730 Y14.8474
G01 X9.3048 Y14.8261
G01 X9.4100 Y14.7631
G01 X9.4438 Y14.7450
G01 X9.5546 Y14.6926
G01 X9.5900 Y14.6779
G01 X9.7055 Y14.6366
G01 X9.7421 Y14.6255
G01 X9.8611 Y14.5957
G01 X9.8987 Y14.5882
G01 X10.0200 Y14.5702
G01 X10.0581 Y14.5665
G01 X10.1806 Y14.5605
G01 X10.2189 Y14.5605
G01 X10.3414 Y14.5665
G01 X10.3795 Y14.5702
G01 X10.5008 Y14.5882
G01 X10.5384 Y14.5957
G01 X10.6574 Y14.6255
G01 X10.6940 Y14.6366
G01 X10.8095 Y14.6779
G01 X10.8449 Y14.6926
G01 X10.9557 Y14.7450
G01 X10.9895 Y14.7631
G01 X11.0947 Y14.8261
G01 X11.1265 Y14.8474
G01 X11.2251 Y14.9205
G01 X11.2546 Y14.9448
G01 X11.3455 Y15.0271
G01 X11.3726 Y15.0542
G01 X11.4550 Y15.1451
G01 X11.4793 Y15.1747
G01 X11.5523 Y15.2732
G01 X11.5736 Y15.3050
G01 X11.6367 Y15.4103
G01 X11.6547 Y15.4440
G01 X11.7072 Y15.5549
G01 X11.7218 Y15.5903
G01 X11.7631 Y15.7058
G01 X11.7742 Y15.7424
G01 X11.8040 Y15.8614
G01 X11.8115 Y15.8989
G01 X11.8295 Y16.0203
G01 X11.8333 Y16.0583
G01 X11.8393 Y16.1809
G01 X11.8393 Y16.2191
G01 X11.8333 Y16.3417
G01 X11.8295 Y16.3797
G01 X11.8115 Y16.5011
G01 X11.8040 Y16.5386
G01 X11.7742 Y16.6576
G01 X11.7631 Y16.6942
G01 X11.7218 Y16.8097
G01 X11.7072 Y16.8451
G01 X11.6547 Y16.9560
G01 X11.6367 Y16.9897
G01 X11.5736 Y17.0950
G01 X11.5523 Y17.1268
G01 X11.4793 Y17.2253
G01 X11.4550 Y17.2549
G01 X11.3726 Y17.3458
G01 X11.3455 Y17.3729
G01 X11.2546 Y17.4552
G01 X11.2251 Y17.4795
G01 X11.1265 Y17.5526
G01 X11.0900 Y17.5767
G01 X11.0900 Y17.9678
G01 X11.0895 Y17.9869
G01 X11.0871 Y18.0359
G01 X11.0834 Y18.0740
G01 X11.0762 Y18.1226
G01 X11.0687 Y18.1601
G01 X11.0568 Y18.2077
G01 X11.0457 Y18.2444
G01 X11.0291 Y18.2906
G01 X11.0145 Y18.3259
G01 X10.9935 Y18.3703
G01 X10.9754 Y18.4041
G01 X10.9502 Y18.4462
G01 X10.9289 Y18.4780
G01 X10.8997 Y18.5174
G01 X10.8754 Y18.5470
G01 X10.8425 Y18.5834
G01 X10.8293 Y18.5973
G01 X10.0900 Y19.3365
G01 X10.0900 Y25.3233
G01 X10.1265 Y25.3474
G01 X10.2251 Y25.4205
G01 X10.2546 Y25.4448
G01 X10.3455 Y25.5271
G01 X10.3726 Y25.5542
G01 X10.4550 Y25.6451
G01 X10.4793 Y25.6747
G01 X10.5523 Y25.7732
G01 X10.5736 Y25.8050
G01 X10.6367 Y25.9103
G01 X10.6547 Y25.9440
G01 X10.7072 Y26.0549
G01 X10.7218 Y26.0903
G01 X10.7631 Y26.2058
G01 X10.7742 Y26.2424
G01 X10.8040 Y26.3614
G01 X10.8095 Y26.3888
G01 X10.8095 Y19.2000
G01 X10.8100 Y19.1809
G01 X10.8124 Y19.1318
G01 X10.8161 Y19.0937
G01 X10.8233 Y19.0452
G01 X10.8308 Y19.0076
G01 X10.8427 Y18.9600
G01 X10.8538 Y18.9234
G01 X10.8704 Y18.8772
G01 X10.8850 Y18.8418
G01 X10.9060 Y18.7974
G01 X10.9241 Y18.7637
G01 X10.9493 Y18.7216
G01 X10.9706 Y18.6898
G01 X10.9998 Y18.6503
G01 X11.0241 Y18.6207
G01 X11.0570 Y18.5844
G01 X11.0702 Y18.5705
G01 X11.5702 Y18.0705
G01 X11.5841 Y18.0573
G01 X11.6205 Y18.0243
G01 X11.6501 Y18.0001
G01 X11.6895 Y17.9708
G01 X11.7213 Y17.9495
G01 X11.7634 Y17.9243
G01 X11.7972 Y17.9063
G01 X11.8416 Y17.8853
G01 X11.8769 Y17.8706
G01 X11.9231 Y17.8541
G01 X11.9598 Y17.8430
G01 X12.0074 Y17.8310
G01 X12.0449 Y17.8236
G01 X12.0935 Y17.8164
G01 X12.1316 Y17.8126
G01 X12.1806 Y17.8102
G01 X12.1997 Y17.8097
G01 X20.6121 Y17.8097
G01 X20.6216 Y17.8053
G01 X20.6569 Y17.7906
G01 X20.7031 Y17.7741
G01 X20.7398 Y17.7630
G01 X20.7874 Y17.7510
G01 X20.8249 Y17.7436
G01 X20.8735 Y17.7364
G01 X20.9116 Y17.7326
G01 X20.9606 Y17.7302
G01 X20.9797 Y17.7297
G01 X21.9671 Y17.7297
G01 X22.0286 Y17.6740
G01 X22.0582 Y17.6497
G01 X22.1252 Y17.6000
G01 X22.1570 Y17.5787
G01 X22.2286 Y17.5359
G01 X22.2623 Y17.5178
G01 X22.3377 Y17.4821
G01 X22.3731 Y17.4675
G01 X22.4516 Y17.4394
G01 X22.4882 Y17.4283
G01 X22.5692 Y17.4080
G01 X22.6067 Y17.4006
G01 X22.6892 Y17.3883
G01 X22.7273 Y17.3846
G01 X22.8106 Y17.3805
G01 X22.8297 Y17.3800
G01 X23.3297 Y17.3800
G01 X23.3489 Y17.3805
G01 X23.4322 Y17.3846
G01 X23.4703 Y17.3883
G01 X23.5528 Y17.4006
G01 X23.5903 Y17.4080
G01 X23.6713 Y17.4283
G01 X23.7079 Y17.4394
G01 X23.7864 Y17.4675
G01 X23.8218 Y17.4821
G01 X23.8972 Y17.5178
G01 X23.9309 Y17.5359
G01 X24.0025 Y17.5787
G01 X24.0343 Y17.6000
G01 X24.1013 Y17.6497
G01 X24.1309 Y17.6740
G01 X24.1927 Y17.7300
G01 X24.2198 Y17.7571
G01 X24.2758 Y17.8189
G01 X24.3001 Y17.8484
G01 X24.3497 Y17.9154
G01 X24.3710 Y17.9473
G01 X24.4139 Y18.0188
G01 X24.4319 Y18.0526
G01 X24.4676 Y18.1280
G01 X24.4822 Y18.1633
G01 X24.5104 Y18.2419
G01 X24.5215 Y18.2785
G01 X24.5417 Y18.3594
G01 X24.5492 Y18.3969
G01 X24.5614 Y18.4795
G01 X24.5652 Y18.5175
G01 X24.5693 Y18.6009
G01 X24.5693 Y18.6391
G01 X24.5652 Y18.7225
G01 X24.5614 Y18.7605
G01 X24.5492 Y18.8431
G01 X24.5417 Y18.8806
G01 X24.5215 Y18.9615
G01 X24.5104 Y18.9981
G01 X24.4822 Y19.0767
G01 X24.4676 Y19.1120
G01 X24.4319 Y19.1874
G01 X24.4139 Y19.2212
G01 X24.3710 Y19.2927
G01 X24.3497 Y19.3246
G01 X24.3001 Y19.3916
G01 X24.2758 Y19.4211
G01 X24.2198 Y19.4829
G01 X24.1927 Y19.5100
G01 X24.1309 Y19.5660
G01 X24.1013 Y19.5903
G01 X24.0343 Y19.6400
G01 X24.0025 Y19.6613
G01 X23.9309 Y19.7041
G01 X23.8972 Y19.7222
G01 X23.8218 Y19.7579
G01 X23.7864 Y19.7725
G01 X23.7079 Y19.8006
G01 X23.6713 Y19.8117
G01 X23.5903 Y19.8320
G01 X23.5528 Y19.8394
G01 X23.4703 Y19.8517
G01 X23.4322 Y19.8554
G01 X23.3489 Y19.8595
G01 X23.3297 Y19.8600
G01 X22.8297 Y19.8600
G01 X22.8106 Y19.8595
G01 X22.7273 Y19.8554
G01 X22.6892 Y19.8517
G01 X22.6067 Y19.8394
G01 X22.5692 Y19.8320
G01 X22.4882 Y19.8117
G01 X22.4516 Y19.8006
G01 X22.3731 Y19.7725
G01 X22.3377 Y19.7579
G01 X22.2623 Y19.7222
G01 X22.2286 Y19.7041
G01 X22.1570 Y19.6613
G01 X22.1252 Y19.6400
G01 X22.0582 Y19.5903
G01 X22.0286 Y19.5660
G01 X21.9671 Y19.5103
G01 X21.2674 Y19.5103
G01 X21.2579 Y19.5147
G01 X21.2226 Y19.5294
G01 X21.1764 Y19.5459
G01 X21.1397 Y19.5570
G01 X21.0921 Y19.5690
G01 X21.0546 Y19.5764
G01 X21.0060 Y19.5836
G01 X20.9679 Y19.5874
G01 X20.9189 Y19.5898
G01 X20.8997 Y19.5903
G01 X12.5900 Y19.5903
G01 X12.5900 Y28.7000
G01 X12.5895 Y28.7191
G01 X12.5871 Y28.7682
G01 X12.5834 Y28.8063
G01 X12.5762 Y28.8548
G01 X12.5687 Y28.8924
G01 X12.5568 Y28.9400
G01 X12.5457 Y28.9766
G01 X12.5291 Y29.0228
G01 X12.5145 Y29.0582
G01 X12.4935 Y29.1026
G01 X12.4754 Y29.1363
G01 X12.4502 Y29.1784
G01 X12.4289 Y29.2102
G01 X12.3997 Y29.2497
G01 X12.3754 Y29.2793
G01 X12.3425 Y29.3156
G01 X12.3293 Y29.3295
G01 X11.8742 Y29.7845
G01 X11.9100 Y29.7631
G01 X11.9438 Y29.7450
G01 X12.0546 Y29.6926
G01 X12.0900 Y29.6779
G01 X12.2055 Y29.6366
G01 X12.2421 Y29.6255
G01 X12.3611 Y29.5957
G01 X12.3987 Y29.5882
G01 X12.5200 Y29.5702
G01 X12.5581 Y29.5665
G01 X12.6806 Y29.5605
G01 X12.7189 Y29.5605
G01 X12.8414 Y29.5665
G01 X12.8795 Y29.5702
G01 X13.0008 Y29.5882
G01 X13.0384 Y29.5957
G01 X13.1574 Y29.6255
G01 X13.1940 Y29.6366
G01 X13.3095 Y29.6779
G01 X13.3449 Y29.6926
G01 X13.4557 Y29.7450
G01 X13.4895 Y29.7631
G01 X13.5947 Y29.8261
G01 X13.6265 Y29.8474
G01 X13.7251 Y29.9205
G01 X13.7546 Y29.9448
G01 X13.8455 Y30.0271
G01 X13.8726 Y30.0542
G01 X13.9550 Y30.1451
G01 X13.9793 Y30.1747
G01 X14.0523 Y30.2732
G01 X14.0736 Y30.3050
G01 X14.1367 Y30.4103
G01 X14.1547 Y30.4440
G01 X14.2072 Y30.5549
G01 X14.2218 Y30.5903
G01 X14.2631 Y30.7058
G01 X14.2742 Y30.7424
G01 X14.3040 Y30.8614
G01 X14.3115 Y30.8989
G01 X14.3295 Y31.0203
G01 X14.3333 Y31.0583
G01 X14.3393 Y31.1809
G01 X14.3393 Y31.2191
G01 X14.3333 Y31.3417
G01 X14.3295 Y31.3797
G01 X14.3115 Y31.5011
G01 X14.3040 Y31.5386
G01 X14.2742 Y31.6576
G01 X14.2631 Y31.6942
G01 X14.2218 Y31.8097
G01 X14.2072 Y31.8451
G01 X14.1547 Y31.9560
G01 X14.1367 Y31.9897
G01 X14.0736 Y32.0950
G01 X14.0523 Y32.1268
G01 X13.9793 Y32.2253
G01 X13.9550 Y32.2549
G01 X13.8726 Y32.3458
G01 X13.8455 Y32.3729
G01 X13.7546 Y32.4552
G01 X13.7251 Y32.4795
G01 X13.6265 Y32.5526
G01 X13.5947 Y32.5739
G01 X13.4895 Y32.6369
G01 X13.4557 Y32.6550
G01 X13.3449 Y32.7074
G01 X13.3095 Y32.7221
G01 X13.1940 Y32.7634
G01 X13.1574 Y32.7745
G01 X13.0384 Y32.8043
G01 X13.0008 Y32.8118
G01 X12.8795 Y32.8298
G01 X12.8414 Y32.8335
G01 X12.7189 Y32.8395
G01 X12.6806 Y32.8395
G01 X12.5900 Y32.8351
G01 X12.5900 Y33.1331
G01 X12.5961 Y33.1380
G01 X12.6688 Y33.2039
G01 X12.6958 Y33.2310
G01 X12.7617 Y33.3037
G01 X12.7860 Y33.3333
G01 X12.8445 Y33.4121
G01 X12.8657 Y33.4439
G01 X12.9162 Y33.5281
G01 X12.9342 Y33.5619
G01 X12.9762 Y33.6506
G01 X12.9908 Y33.6859
G01 X13.0239 Y33.7783
G01 X13.0350 Y33.8150
G01 X13.0588 Y33.9101
G01 X13.0663 Y33.9477
G01 X13.0807 Y34.0448
G01 X13.0845 Y34.0828
G01 X13.0893 Y34.1809
G01 X13.0893 Y34.2191
G01 X13.0845 Y34.3172
G01 X13.0837 Y34.3249
G01 X14.3293 Y35.5705
G01 X14.3425 Y35.5844
G01 X14.3754 Y35.6207
G01 X14.3997 Y35.6503
G01 X14.4289 Y35.6898
G01 X14.4502 Y35.7216
G01 X14.4754 Y35.7637
G01 X14.4935 Y35.7974
G01 X14.5145 Y35.8418
G01 X14.5291 Y35.8772
G01 X14.5457 Y35.9234
G01 X14.5568 Y35.9600
G01 X14.5687 Y36.0076
G01 X14.5762 Y36.0452
G01 X14.5834 Y36.0937
G01 X14.5871 Y36.1318
G01 X14.5895 Y36.1809
G01 X14.5900 Y36.2000
G01 X14.5900 Y41.2000
G01 X14.5895 Y41.2191
G01 X14.5871 Y41.2682
G01 X14.5834 Y41.3063
G01 X14.5762 Y41.3548
G01 X14.5687 Y41.3924
G01 X14.5568 Y41.4400
G01 X14.5457 Y41.4766
G01 X14.5291 Y41.5228
G01 X14.5145 Y41.5582
G01 X14.4935 Y41.6026
G01 X14.4754 Y41.6363
G01 X14.4502 Y41.6784
G01 X14.4289 Y41.7102
G01 X14.3997 Y41.7497
G01 X14.3754 Y41.7793
G01 X14.3425 Y41.8156
G01 X14.3154 Y41.8427
G01 X14.2790 Y41.8757
G01 X14.2494 Y41.8999
G01 X14.2100 Y41.9292
G01 X14.1782 Y41.9505
G01 X14.1361 Y41.9757
G01 X14.1023 Y41.9937
G01 X14.0579 Y42.0147
G01 X14.0226 Y42.0294
G01 X13.9764 Y42.0459
G01 X13.9397 Y42.0570
G01 X13.8921 Y42.0690
G01 X13.8546 Y42.0764
G01 X13.8060 Y42.0836
G01 X13.7679 Y42.0874
G01 X13.7189 Y42.0898
G01 X13.6997 Y42.0903
G01 X8.5685 Y42.0903
G01 X7.3293 Y43.3295
G01 X7.3154 Y43.3427
G01 X7.2790 Y43.3757
G01 X7.2494 Y43.3999
G01 X7.2100 Y43.4292
G01 X7.1782 Y43.4505
G01 X7.1361 Y43.4757
G01 X7.1023 Y43.4937
G01 X7.0579 Y43.5147
G01 X7.0226 Y43.5294
G01 X6.9764 Y43.5459
G01 X6.9397 Y43.5570
G01 X6.8921 Y43.5690
G01 X6.8546 Y43.5764
G01 X6.8060 Y43.5836
G01 X6.7679 Y43.5874
G01 X6.7189 Y43.5898
G01 X6.6997 Y43.5903
G01 X5.2185 Y43.5903
G01 X5.0900 Y43.7188
G01 X5.0900 Y43.8100
G01 X5.1997 Y43.8100
G01 X5.2380 Y43.8119
G01 X5.2758 Y43.8175
G01 X5.3130 Y43.8268
G01 X5.3490 Y43.8397
G01 X5.3836 Y43.8561
G01 X5.4164 Y43.8757
G01 X5.4472 Y43.8985
G01 X5.4755 Y43.9242
G01 X5.5012 Y43.9526
G01 X5.5240 Y43.9833
G01 X5.5437 Y44.0162
G01 X5.5601 Y44.0508
G01 X5.5730 Y44.0868
G01 X5.5823 Y44.1239
G01 X5.5879 Y44.1618
G01 X5.5897 Y44.2000
G01 X5.5897 Y46.2000
G01 X5.5879 Y46.2382
G01 X5.5823 Y46.2761
G01 X5.5730 Y46.3132
G01 X5.5601 Y46.3492
G01 X5.5437 Y46.3838
G01 X5.5240 Y46.4167
G01 X5.5012 Y46.4474
G01 X5.4755 Y46.4758
G01 X5.4472 Y46.5015
G01 X5.4164 Y46.5243
G01 X5.3836 Y46.5439
G01 X5.3490 Y46.5603
G01 X5.3130 Y46.5732
G01 X5.2758 Y46.5825
G01 X5.2380 Y46.5881
G01 X5.1997 Y46.5900
G01 X5.0900 Y46.5900
G01 X5.0900 Y46.7465
G01 X5.1213 Y46.7697
G01 X5.1509 Y46.7940
G01 X5.2127 Y46.8500
G01 X5.2398 Y46.8771
G01 X5.2958 Y46.9389
G01 X5.3201 Y46.9684
G01 X5.3697 Y47.0354
G01 X5.3910 Y47.0673
G01 X5.4339 Y47.1388
G01 X5.4519 Y47.1726
G01 X5.4876 Y47.2480
G01 X5.5022 Y47.2833
G01 X5.5304 Y47.3619
G01 X5.5415 Y47.3985
G01 X5.5617 Y47.4794
G01 X5.5692 Y47.5169
G01 X5.5814 Y47.5995
G01 X5.5852 Y47.6375
G01 X5.5893 Y47.7209
G01 X5.5893 Y47.7591
G01 X5.5852 Y47.8425
G01 X5.5814 Y47.8805
G01 X5.5692 Y47.9631
G01 X5.5617 Y48.0006
G01 X5.5415 Y48.0815
G01 X5.5304 Y48.1181
G01 X5.5022 Y48.1967
G01 X5.4876 Y48.2320
G01 X5.4519 Y48.3074
G01 X5.4339 Y48.3412
G01 X5.3910 Y48.4127
G01 X5.3697 Y48.4446
G01 X5.3201 Y48.5116
G01 X5.2958 Y48.5411
G01 X5.2398 Y48.6029
G01 X5.2127 Y48.6300
G01 X5.1509 Y48.6860
G01 X5.1213 Y48.7103
G01 X5.0543 Y48.7600
G01 X5.0225 Y48.7813
G01 X4.9509 Y48.8241
G01 X4.9172 Y48.8422
G01 X4.8418 Y48.8779
G01 X4.8064 Y48.8925
G01 X4.7279 Y48.9206
G01 X4.6913 Y48.9317
G01 X4.6103 Y48.9520
G01 X4.5728 Y48.9594
G01 X4.4903 Y48.9717
G01 X4.4522 Y48.9754
G01 X4.3689 Y48.9795
G01 X4.3497 Y48.9800
G01 X4.0497 Y48.9800
G01 X4.0306 Y48.9795
G01 X3.9473 Y48.9754
G01 X3.9092 Y48.9717
G01 X3.8267 Y48.9594
G01 X3.7892 Y48.9520
G01 X3.7082 Y48.9317
G01 X3.6716 Y48.9206
G01 X3.5931 Y48.8925
G01 X3.5577 Y48.8779
G01 X3.4823 Y48.8422
G01 X3.4486 Y48.8241
G01 X3.3770 Y48.7813
G01 X3.3452 Y48.7600
G01 X3.2782 Y48.7103
G01 X3.2486 Y48.6860
G01 X3.1868 Y48.6300
G01 X3.1597 Y48.6029
G01 X3.1037 Y48.5411
G01 X3.0794 Y48.5116
G01 X3.0297 Y48.4446
G01 X3.0085 Y48.4127
G01 X2.9656 Y48.3412
G01 X2.9476 Y48.3074
G01 X2.9119 Y48.2320
G01 X2.8973 Y48.1967
G01 X2.8691 Y48.1181
G01 X2.8580 Y48.0815
G01 X2.8378 Y48.0006
G01 X2.8303 Y47.9631
G01 X2.8181 Y47.8805
G01 X2.8143 Y47.8425
G01 X2.8102 Y47.7591
G01 X2.8102 Y47.7209
G01 X2.8143 Y47.6375
G01 X2.8181 Y47.5995
G01 X2.8303 Y47.5169
G01 X2.8378 Y47.4794
G01 X2.8580 Y47.3985
G01 X2.8691 Y47.3619
G01 X2.8973 Y47.2833
G01 X2.9119 Y47.2480
G01 X2.9476 Y47.1726
G01 X2.9656 Y47.1388
G01 X3.0085 Y47.0673
G01 X3.0297 Y47.0354
G01 X3.0794 Y46.9684
G01 X3.1037 Y46.9389
G01 X3.1597 Y46.8771
G01 X3.1868 Y46.8500
G01 X3.2486 Y46.7940
G01 X3.2782 Y46.7697
G01 X3.3095 Y46.7465
G01 X3.3095 Y46.5900
G01 X3.1997 Y46.5900
G01 X3.1615 Y46.5881
G01 X3.1237 Y46.5825
G01 X3.0865 Y46.5732
G01 X3.0505 Y46.5603
G01 X3.0159 Y46.5439
G01 X2.9831 Y46.5243
G01 X2.9523 Y46.5015
G01 X2.9240 Y46.4758
G01 X2.8983 Y46.4474
G01 X2.8755 Y46.4167
G01 X2.8558 Y46.3838
G01 X2.8394 Y46.3492
G01 X2.8265 Y46.3132
G01 X2.8172 Y46.2761
G01 X2.8116 Y46.2382
G01 X2.8097 Y46.2000
G01 X2.8097 Y44.2000
G01 X2.8116 Y44.1618
G01 X2.8172 Y44.1239
G01 X2.8265 Y44.0868
G01 X2.8394 Y44.0508
G01 X2.8558 Y44.0162
G01 X2.8755 Y43.9833
G01 X2.8983 Y43.9526
G01 X2.9240 Y43.9242
G01 X2.9523 Y43.8985
G01 X2.9831 Y43.8757
G01 X3.0159 Y43.8561
G01 X3.0505 Y43.8397
G01 X3.0865 Y43.8268
G01 X3.1237 Y43.8175
G01 X3.1615 Y43.8119
G01 X3.1997 Y43.8100
G01 X3.3095 Y43.8100
G01 X3.3095 Y43.3500
G01 X3.3100 Y43.3309
G01 X3.3124 Y43.2818
G01 X3.3161 Y43.2437
G01 X3.3233 Y43.1952
G01 X3.3308 Y43.1576
G01 X3.3427 Y43.1100
G01 X3.3538 Y43.0734
G01 X3.3704 Y43.0272
G01 X3.3850 Y42.9918
G01 X3.4060 Y42.9474
G01 X3.4241 Y42.9137
G01 X3.4493 Y42.8716
G01 X3.4706 Y42.8398
G01 X3.4998 Y42.8003
G01 X3.5241 Y42.7707
G01 X3.5570 Y42.7344
G01 X3.5702 Y42.7205
G01 X4.2202 Y42.0705
G01 X4.2341 Y42.0573
G01 X4.2705 Y42.0243
G01 X4.3001 Y42.0001
G01 X4.3395 Y41.9708
G01 X4.3713 Y41.9495
G01 X4.4134 Y41.9243
G01 X4.4472 Y41.9063
G01 X4.4916 Y41.8853
G01 X4.5269 Y41.8706
G01 X4.5731 Y41.8541
G01 X4.6098 Y41.8430
G01 X4.6574 Y41.8310
G01 X4.6949 Y41.8236
G01 X4.7435 Y41.8164
G01 X4.7816 Y41.8126
G01 X4.8306 Y41.8102
G01 X4.8497 Y41.8097
G01 X6.3310 Y41.8097
G01 X6.7160 Y41.4247
G01 X6.7100 Y41.4292
G01 X6.6782 Y41.4505
G01 X6.6361 Y41.4757
G01 X6.6023 Y41.4937
G01 X6.5579 Y41.5147
G01 X6.5226 Y41.5294
G01 X6.4764 Y41.5459
G01 X6.4397 Y41.5570
G01 X6.3921 Y41.5690
G01 X6.3546 Y41.5764
G01 X6.3060 Y41.5836
G01 X6.2679 Y41.5874
G01 X6.2189 Y41.5898
G01 X6.1997 Y41.5903
G01 X1.6997 Y41.5903
G01 X1.6806 Y41.5898
G01 X1.6316 Y41.5874
G01 X1.5935 Y41.5836
G01 X1.5449 Y41.5764
G01 X1.5074 Y41.5690
G01 X1.4598 Y41.5570
G01 X1.4231 Y41.5459
G01 X1.3769 Y41.5294
G01 X1.3416 Y41.5147
G01 X1.2972 Y41.4937
G01 X1.2634 Y41.4757
G01 X1.2213 Y41.4505
G01 X1.1895 Y41.4292
G01 X1.1501 Y41.3999
G01 X1.1205 Y41.3757
G01 X1.0841 Y41.3427
G01 X1.0570 Y41.3156
G01 X1.0241 Y41.2793
G01 X0.9998 Y41.2497
G01 X0.9706 Y41.2102
G01 X0.9493 Y41.1784
G01 X0.9241 Y41.1363
G01 X0.9060 Y41.1026
G01 X0.8850 Y41.0582
G01 X0.8704 Y41.0228
G01 X0.8538 Y40.9766
G01 X0.8427 Y40.9400
G01 X0.8308 Y40.8924
G01 X0.8233 Y40.8548
G01 X0.8161 Y40.8063
G01 X0.8124 Y40.7682
G01 X0.8100 Y40.7191
G01 X0.8095 Y40.7000
G01 X0.8095 Y36.7000
G01 X0.8100 Y36.6809
G01 X0.8124 Y36.6318
G01 X0.8161 Y36.5937
G01 X0.8233 Y36.5452
G01 X0.8308 Y36.5076
G01 X0.8427 Y36.4600
G01 X0.8538 Y36.4234
G01 X0.8704 Y36.3772
G01 X0.8850 Y36.3418
G01 X0.9060 Y36.2974
G01 X0.9241 Y36.2637
G01 X0.9493 Y36.2216
G01 X0.9706 Y36.1898
G01 X0.9998 Y36.1503
G01 X1.0241 Y36.1207
G01 X1.0570 Y36.0844
G01 X1.0702 Y36.0705
G01 X2.4430 Y34.6977
G01 X2.4504 Y34.6772
G01 X2.4650 Y34.6418
G01 X2.4860 Y34.5974
G01 X2.5041 Y34.5637
G01 X2.5293 Y34.5216
G01 X2.5506 Y34.4898
G01 X2.5798 Y34.4503
G01 X2.6041 Y34.4207
G01 X2.6370 Y34.3844
G01 X2.6502 Y34.3705
G01 X2.6958 Y34.3249
G01 X2.6950 Y34.3172
G01 X2.6902 Y34.2191
G01 X2.6902 Y34.1809
G01 X2.6950 Y34.0828
G01 X2.6988 Y34.0448
G01 X2.7132 Y33.9477
G01 X2.7207 Y33.9101
G01 X2.7445 Y33.8150
G01 X2.7556 Y33.7783
G01 X2.7887 Y33.6859
G01 X2.8033 Y33.6506
G01 X2.8453 Y33.5619
G01 X2.8633 Y33.5281
G01 X2.9138 Y33.4439
G01 X2.9350 Y33.4121
G01 X2.9935 Y33.3333
G01 X3.0178 Y33.3037
G01 X3.0837 Y33.2310
G01 X3.1107 Y33.2039
G01 X3.1834 Y33.1380
G01 X3.1895 Y33.1331
G01 X3.1895 Y31.8200
G01 X3.1900 Y31.8009
G01 X3.1924 Y31.7518
G01 X3.1961 Y31.7137
G01 X3.2033 Y31.6652
G01 X3.2108 Y31.6276
G01 X3.2227 Y31.5800
G01 X3.2338 Y31.5434
G01 X3.2504 Y31.4972
G01 X3.2650 Y31.4618
G01 X3.2860 Y31.4174
G01 X3.3041 Y31.3837
G01 X3.3293 Y31.3416
G01 X3.3495 Y31.3113
G01 X3.3495 Y29.7127
G01 X3.2937 Y29.6511
G01 X3.2694 Y29.6216
G01 X3.2197 Y29.5546
G01 X3.1985 Y29.5227
G01 X3.1556 Y29.4512
G01 X3.1376 Y29.4174
G01 X3.1019 Y29.3420
G01 X3.0897 Y29.3127
G01 X3.0897 Y29.7000
G01 X3.0879 Y29.7382
G01 X3.0823 Y29.7761
G01 X3.0730 Y29.8132
G01 X3.0601 Y29.8492
G01 X3.0437 Y29.8838
G01 X3.0240 Y29.9167
G01 X3.0012 Y29.9474
G01 X2.9755 Y29.9758
G01 X2.9472 Y30.0015
G01 X2.9164 Y30.0243
G01 X2.8836 Y30.0439
G01 X2.8490 Y30.0603
G01 X2.8130 Y30.0732
G01 X2.7758 Y30.0825
G01 X2.7380 Y30.0881
G01 X2.6997 Y30.0900
G01 X0.6997 Y30.0900
G01 X0.6615 Y30.0881
G01 X0.6237 Y30.0825
G01 X0.5865 Y30.0732
G01 X0.5505 Y30.0603
G01 X0.5159 Y30.0439
G01 X0.4831 Y30.0243
G01 X0.4523 Y30.0015
G01 X0.4240 Y29.9758
G01 X0.3983 Y29.9474
G01 X0.3755 Y29.9167
G01 X0.3558 Y29.8838
G01 X0.3394 Y29.8492
G01 X0.3265 Y29.8132
G01 X0.3172 Y29.7761
G01 X0.3116 Y29.7382
G01 X0.3097 Y29.7000
G01 X0.3097 Y27.7000
G01 X0.3116 Y27.6618
G01 X0.3172 Y27.6239
G01 X0.3265 Y27.5868
G01 X0.3394 Y27.5508
G01 X0.3558 Y27.5162
G01 X0.3755 Y27.4833
G01 X0.3983 Y27.4526
G01 X0.4240 Y27.4242
G01 X0.4523 Y27.3985
G01 X0.4831 Y27.3757
G01 X0.5159 Y27.3561
G01 X0.5505 Y27.3397
G01 X0.5865 Y27.3268
G01 X0.6237 Y27.3175
G01 X0.6615 Y27.3119
G01 X0.6997 Y27.3100
G01 X0.8095 Y27.3100
G01 X0.8095 Y25.7000
G01 X0.8100 Y25.6809
G01 X0.8124 Y25.6318
G01 X0.8161 Y25.5937
G01 X0.8233 Y25.5452
G01 X0.8308 Y25.5076
G01 X0.8427 Y25.4600
G01 X0.8538 Y25.4234
G01 X0.8704 Y25.3772
G01 X0.8850 Y25.3418
G01 X0.9060 Y25.2974
G01 X0.9241 Y25.2637
G01 X0.9493 Y25.2216
G01 X0.9706 Y25.1898
G01 X0.9998 Y25.1503
G01 X1.0241 Y25.1207
G01 X1.0570 Y25.0844
G01 X1.0702 Y25.0705
G01 X2.3095 Y23.8312
G01 X2.3095 Y22.6600
G01 X2.3100 Y22.6409
G01 X2.3124 Y22.5918
G01 X2.3161 Y22.5537
G01 X2.3233 Y22.5052
G01 X2.3308 Y22.4676
G01 X2.3427 Y22.4200
G01 X2.3538 Y22.3834
G01 X2.3704 Y22.3372
G01 X2.3850 Y22.3018
G01 X2.4060 Y22.2574
G01 X2.4241 Y22.2237
G01 X2.4493 Y22.1816
G01 X2.4706 Y22.1498
G01 X2.4998 Y22.1103
G01 X2.5241 Y22.0807
G01 X2.5570 Y22.0444
G01 X2.5702 Y22.0305
G01 X3.2695 Y21.3312
G01 X3.2695 Y20.7127
G01 X3.2137 Y20.6511
G01 X3.1894 Y20.6216
G01 X3.1397 Y20.5546
G01 X3.1185 Y20.5227
G01 X3.0756 Y20.4512
G01 X3.0576 Y20.4174
G01 X3.0219 Y20.3420
G01 X3.0073 Y20.3067
G01 X2.9791 Y20.2281
G01 X2.9680 Y20.1915
G01 X2.9478 Y20.1106
G01 X2.9403 Y20.0731
G01 X2.9281 Y19.9905
G01 X2.9243 Y19.9525
G01 X2.9202 Y19.8691
G01 X2.9197 Y19.8500
G01 X2.9197 Y19.5500
G01 X2.9202 Y19.5309
G01 X2.9243 Y19.4475
G01 X2.9281 Y19.4095
G01 X2.9403 Y19.3269
G01 X2.9478 Y19.2894
G01 X2.9680 Y19.2085
G01 X2.9791 Y19.1719
G01 X3.0073 Y19.0933
G01 X3.0219 Y19.0580
G01 X3.0576 Y18.9826
G01 X3.0756 Y18.9488
G01 X3.1185 Y18.8773
G01 X3.1397 Y18.8454
G01 X3.1894 Y18.7784
G01 X3.2137 Y18.7489
G01 X3.2697 Y18.6871
G01 X3.2968 Y18.6600
G01 X3.3586 Y18.6040
G01 X3.3882 Y18.5797
G01 X3.4552 Y18.5300
G01 X3.4870 Y18.5087
G01 X3.5586 Y18.4659
G01 X3.5923 Y18.4478
G01 X3.6677 Y18.4121
G01 X3.7031 Y18.3975
G01 X3.7816 Y18.3694
G01 X3.8182 Y18.3583
G01 X3.8992 Y18.3380
G01 X3.9367 Y18.3306
G01 X4.0192 Y18.3183
G01 X4.0573 Y18.3146
G01 X4.1406 Y18.3105
G01 X4.1789 Y18.3105
G01 X4.2622 Y18.3146
G01 X4.3003 Y18.3183
G01 X4.3828 Y18.3306
G01 X4.4203 Y18.3380
G01 X4.5013 Y18.3583
G01 X4.5379 Y18.3694
G01 X4.6164 Y18.3975
G01 X4.6518 Y18.4121
G01 X4.7272 Y18.4478
G01 X4.7609 Y18.4659
G01 X4.8325 Y18.5087
G01 X4.8643 Y18.5300
G01 X4.9313 Y18.5797
G01 X4.9609 Y18.6040
G01 X5.0227 Y18.6600
G01 X5.0498 Y18.6871
G01 X5.1058 Y18.7489
G01 X5.1301 Y18.7784
G01 X5.1797 Y18.8454
G01 X5.2010 Y18.8773
G01 X5.2439 Y18.9488
G01 X5.2619 Y18.9826
G01 X5.2976 Y19.0580
G01 X5.3097 Y19.0873
G01 X5.3097 Y18.7000
G01 X5.3116 Y18.6618
G01 X5.3172 Y18.6239
G01 X5.3265 Y18.5868
G01 X5.3394 Y18.5508
G01 X5.3558 Y18.5162
G01 X5.3755 Y18.4833
G01 X5.3983 Y18.4526
G01 X5.4240 Y18.4242
G01 X5.4523 Y18.3985
G01 X5.4831 Y18.3757
G01 X5.5159 Y18.3561
G01 X5.5505 Y18.3397
G01 X5.5865 Y18.3268
G01 X5.6237 Y18.3175
G01 X5.6615 Y18.3119
G01 X5.6997 Y18.3100
G01 X5.8095 Y18.3100
G01 X5.8095 Y4.2000
G01 X5.8100 Y4.1809
G01 X5.8124 Y4.1318
G01 X5.8161 Y4.0937
G01 X5.8233 Y4.0452
G01 X5.8308 Y4.0076
G01 X5.8427 Y3.9600
G01 X5.8538 Y3.9234
G01 X5.8704 Y3.8772
G01 X5.8850 Y3.8418
G01 X5.9060 Y3.7974
G01 X5.9241 Y3.7637
G01 X5.9493 Y3.7216
G01 X5.9706 Y3.6898
G01 X5.9998 Y3.6503
G01 X6.0241 Y3.6207
G01 X6.0570 Y3.5844
G01 X6.0702 Y3.5705
G01 X8.5702 Y1.0705
G01 X8.5841 Y1.0573
G01 X8.6205 Y1.0243
G01 X8.6501 Y1.0001
G01 X8.6895 Y0.9708
G01 X8.7213 Y0.9495
G01 X8.7634 Y0.9243
G01 X8.7972 Y0.9063
G01 X8.8416 Y0.8853
G01 X8.8769 Y0.8706
G01 X8.9231 Y0.8541
G01 X8.9598 Y0.8430
G01 X9.0074 Y0.8310
G01 X9.0449 Y0.8236
G01 X9.0935 Y0.8164
G01 X9.1316 Y0.8126
G01 X9.1806 Y0.8102
G01 X9.1997 Y0.8097
G01 X49.6997 Y0.8097
G01 X49.7189 Y0.8102
G01 X49.7679 Y0.8126
G01 X49.8060 Y0.8164
G01 X49.8546 Y0.8236
G01 X49.8921 Y0.8310
G01 X49.9397 Y0.8430
G01 X49.9764 Y0.8541
G01 X50.0226 Y0.8706
G01 X50.0579 Y0.8853
G01 X50.1023 Y0.9063
G01 X50.1361 Y0.9243
G01 X50.1782 Y0.9495
G01 X50.2100 Y0.9708
G01 X50.2494 Y1.0001
G01 X50.2790 Y1.0243
G01 X50.3154 Y1.0573
G01 X50.3293 Y1.0705
G01 X53.8293 Y4.5705
G01 X53.8425 Y4.5844
G01 X53.8754 Y4.6207
G01 X53.8997 Y4.6503
G01 X53.9289 Y4.6898
G01 X53.9502 Y4.7216
G01 X53.9754 Y4.7637
G01 X53.9935 Y4.7974
G01 X54.0145 Y4.8418
G01 X54.0291 Y4.8772
G01 X54.0457 Y4.9234
G01 X54.0568 Y4.9600
G01 X54.0687 Y5.0076
G01 X54.0762 Y5.0452
G01 X54.0834 Y5.0937
G01 X54.0871 Y5.1318
G01 X54.0895 Y5.1809
G01 X54.0900 Y5.2000
G01 X54.0900 Y5.9812
G01 X58.8293 Y10.7205
G01 X58.8425 Y10.7344
G01 X58.8754 Y10.7707
G01 X58.8997 Y10.8003
G01 X58.9289 Y10.8398
G01 X58.9502 Y10.8716
G01 X58.9754 Y10.9137
G01 X58.9935 Y10.9474
G01 X59.0145 Y10.9918
G01 X59.0291 Y11.0272
G01 X59.0457 Y11.0734
G01 X59.0568 Y11.1100
G01 X59.0687 Y11.1576
G01 X59.0762 Y11.1952
G01 X59.0834 Y11.2437
G01 X59.0871 Y11.2818
G01 X59.0895 Y11.3309
G01 X59.0900 Y11.3500
G01 X59.0900 Y11.8100
G01 X59.1997 Y11.8100
G01 X59.2380 Y11.8119
G01 X59.2758 Y11.8175
G01 X59.3130 Y11.8268
G01 X59.3490 Y11.8397
G01 X59.3836 Y11.8561
G01 X59.4164 Y11.8757
G01 X59.4472 Y11.8985
G01 X59.4755 Y11.9242
G01 X59.5012 Y11.9526
G01 X59.5240 Y11.9833
G01 X59.5437 Y12.0162
G01 X59.5601 Y12.0508
G01 X59.5730 Y12.0868
G01 X59.5823 Y12.1239
G01 X59.5879 Y12.1618
G01 X59.5897 Y12.2000
G01 X59.5897 Y14.2000
G01 X59.5879 Y14.2382
G01 X59.5823 Y14.2761
G01 X59.5730 Y14.3132
G01 X59.5601 Y14.3492
G01 X59.5437 Y14.3838
G01 X59.5240 Y14.4167
G01 X59.5012 Y14.4474
G01 X59.4755 Y14.4758
G01 X59.4472 Y14.5015
G01 X59.4164 Y14.5243
G01 X59.3836 Y14.5439
G01 X59.3490 Y14.5603
G01 X59.3130 Y14.5732
G01 X59.2758 Y14.5825
G01 X59.2380 Y14.5881
G01 X59.1997 Y14.5900
G01 X58.8125 Y14.5900
G01 X58.8418 Y14.6021
G01 X58.9172 Y14.6378
G01 X58.9509 Y14.6559
G01 X59.0225 Y14.6987
G01 X59.0543 Y14.7200
G01 X59.1213 Y14.7697
G01 X59.1509 Y14.7940
G01 X59.2127 Y14.8500
G01 X59.2398 Y14.8771
G01 X59.2958 Y14.9389
G01 X59.3201 Y14.9684
G01 X59.3697 Y15.0354
G01 X59.3910 Y15.0673
G01 X59.4339 Y15.1388
G01 X59.4519 Y15.1726
G01 X59.4876 Y15.2480
G01 X59.5022 Y15.2833
G01 X59.5304 Y15.3619
G01 X59.5415 Y15.3985
G01 X59.5617 Y15.4794
G01 X59.5692 Y15.5169
G01 X59.5814 Y15.5995
G01 X59.5852 Y15.6375
G01 X59.5893 Y15.7209
G01 X59.5893 Y15.7591
G01 X59.5852 Y15.8425
G01 X59.5814 Y15.8805
G01 X59.5692 Y15.9631
G01 X59.5617 Y16.0006
G01 X59.5415 Y16.0815
G01 X59.5304 Y16.1181
G01 X59.5022 Y16.1967
G01 X59.4876 Y16.2320
G01 X59.4519 Y16.3074
G01 X59.4339 Y16.3412
G01 X59.3910 Y16.4127
G01 X59.3697 Y16.4446
G01 X59.3201 Y16.5116
G01 X59.2958 Y16.5411
G01 X59.2398 Y16.6029
G01 X59.2127 Y16.6300
G01 X59.1509 Y16.6860
G01 X59.1213 Y16.7103
G01 X59.0900 Y16.7335
G01 X59.0900 Y19.7065
G01 X59.1213 Y19.7297
G01 X59.1509 Y19.7540
G01 X59.2127 Y19.8100
G01 X59.2398 Y19.8371
G01 X59.2958 Y19.8989
G01 X59.3201 Y19.9284
G01 X59.3697 Y19.9954
G01 X59.3910 Y20.0273
G01 X59.4339 Y20.0988
G01 X59.4519 Y20.1326
G01 X59.4876 Y20.2080
G01 X59.5022 Y20.2433
G01 X59.5304 Y20.3219
G01 X59.5415 Y20.3585
G01 X59.5617 Y20.4394
G01 X59.5692 Y20.4769
G01 X59.5814 Y20.5595
G01 X59.5852 Y20.5975
G01 X59.5893 Y20.6809
G01 X59.5893 Y20.7191
G01 X59.5852 Y20.8025
G01 X59.5814 Y20.8405
G01 X59.5692 Y20.9231
G01 X59.5617 Y20.9606
G01 X59.5415 Y21.0415
G01 X59.5304 Y21.0781
G01 X59.5022 Y21.1567
G01 X59.4876 Y21.1920
G01 X59.4519 Y21.2674
G01 X59.4339 Y21.3012
G01 X59.3910 Y21.3727
G01 X59.3697 Y21.4046
G01 X59.3201 Y21.4716
G01 X59.2958 Y21.5011
G01 X59.2398 Y21.5629
G01 X59.2127 Y21.5900
G01 X59.1509 Y21.6460
G01 X59.1213 Y21.6703
G01 X59.0543 Y21.7200
G01 X59.0225 Y21.7413
G01 X58.9509 Y21.7841
G01 X58.9172 Y21.8022
G01 X58.8418 Y21.8379
G01 X58.8125 Y21.8500
G01 X59.1997 Y21.8500
G01 X59.2380 Y21.8519
G01 X59.2758 Y21.8575
G01 X59.3130 Y21.8668
G01 X59.3490 Y21.8797
G01 X59.3836 Y21.8961
G01 X59.4164 Y21.9157
G01 X59.4472 Y21.9385
G01 X59.4755 Y21.9642
G01 X59.5012 Y21.9926
G01 X59.5240 Y22.0233
G01 X59.5437 Y22.0562
G01 X59.5601 Y22.0908
G01 X59.5730 Y22.1268
G01 X59.5823 Y22.1639
G01 X59.5879 Y22.2018
G01 X59.5897 Y22.2400
G01 X59.5897 Y24.2400
G01 X59.5879 Y24.2782
G01 X59.5823 Y24.3161
G01 X59.5730 Y24.3532
G01 X59.5601 Y24.3892
G01 X59.5437 Y24.4238
G01 X59.5240 Y24.4567
G01 X59.5012 Y24.4874
G01 X59.4755 Y24.5158
G01 X59.4472 Y24.5415
G01 X59.4164 Y24.5643
G01 X59.3836 Y24.5839
G01 X59.3490 Y24.6003
G01 X59.3130 Y24.6132
G01 X59.2758 Y24.6225
G01 X59.2380 Y24.6281
G01 X59.1997 Y24.6300
G01 X57.1997 Y24.6300
G01 X57.1615 Y24.6281
G01 X57.1237 Y24.6225
G01 X57.0865 Y24.6132
G01 X57.0505 Y24.6003
G01 X57.0159 Y24.5839
G01 X56.9831 Y24.5643
G01 X56.9523 Y24.5415
G01 X56.9240 Y24.5158
G01 X56.8983 Y24.4874
G01 X56.8755 Y24.4567
G01 X56.8558 Y24.4238
G01 X56.8394 Y24.3892
G01 X56.8265 Y24.3532
G01 X56.8172 Y24.3161
G01 X56.8116 Y24.2782
G01 X56.8097 Y24.2400
G01 X56.8097 Y24.1303
G01 X56.2397 Y24.1303
G01 X56.2206 Y24.1298
G01 X56.1716 Y24.1274
G01 X56.1335 Y24.1236
G01 X56.0849 Y24.1164
G01 X56.0474 Y24.1090
G01 X55.9998 Y24.0970
G01 X55.9631 Y24.0859
G01 X55.9169 Y24.0694
G01 X55.8816 Y24.0547
G01 X55.8372 Y24.0337
G01 X55.8034 Y24.0157
G01 X55.7613 Y23.9905
G01 X55.7295 Y23.9692
G01 X55.6901 Y23.9399
G01 X55.6605 Y23.9157
G01 X55.6241 Y23.8827
G01 X55.6102 Y23.8695
G01 X54.5702 Y22.8295
G01 X54.5570 Y22.8156
G01 X54.5241 Y22.7793
G01 X54.4998 Y22.7497
G01 X54.4706 Y22.7102
G01 X54.4493 Y22.6784
G01 X54.4241 Y22.6363
G01 X54.4060 Y22.6026
G01 X54.3850 Y22.5582
G01 X54.3704 Y22.5228
G01 X54.3538 Y22.4766
G01 X54.3427 Y22.4400
G01 X54.3308 Y22.3924
G01 X54.3233 Y22.3548
G01 X54.3161 Y22.3063
G01 X54.3124 Y22.2682
G01 X54.3100 Y22.2191
G01 X54.3095 Y22.2000
G01 X54.3095 Y20.0767
G01 X54.2730 Y20.0526
G01 X54.1744 Y19.9795
G01 X54.1449 Y19.9552
G01 X54.0540 Y19.8729
G01 X54.0269 Y19.8458
G01 X53.9445 Y19.7549
G01 X53.9202 Y19.7253
G01 X53.8472 Y19.6268
G01 X53.8259 Y19.5950
G01 X53.7628 Y19.4897
G01 X53.7448 Y19.4560
G01 X53.6923 Y19.3451
G01 X53.6777 Y19.3097
G01 X53.6364 Y19.1942
G01 X53.6253 Y19.1576
G01 X53.5955 Y19.0386
G01 X53.5880 Y19.0011
G01 X53.5700 Y18.8797
G01 X53.5662 Y18.8417
G01 X53.5602 Y18.7191
G01 X53.5602 Y18.6809
G01 X53.5662 Y18.5583
G01 X53.5700 Y18.5203
G01 X53.5880 Y18.3989
G01 X53.5955 Y18.3614
G01 X53.6253 Y18.2424
G01 X53.6364 Y18.2058
G01 X53.6777 Y18.0903
G01 X53.6923 Y18.0549
G01 X53.7448 Y17.9440
G01 X53.7628 Y17.9103
G01 X53.8259 Y17.8050
G01 X53.8472 Y17.7732
G01 X53.9202 Y17.6747
G01 X53.9445 Y17.6451
G01 X54.0269 Y17.5542
G01 X54.0540 Y17.5271
G01 X54.1449 Y17.4448
G01 X54.1744 Y17.4205
G01 X54.2730 Y17.3474
G01 X54.3048 Y17.3261
G01 X54.4100 Y17.2631
G01 X54.4438 Y17.2450
G01 X54.5546 Y17.1926
G01 X54.5900 Y17.1779
G01 X54.7055 Y17.1366
G01 X54.7421 Y17.1255
G01 X54.8611 Y17.0957
G01 X54.8987 Y17.0882
G01 X55.0200 Y17.0702
G01 X55.0581 Y17.0665
G01 X55.1806 Y17.0605
G01 X55.2189 Y17.0605
G01 X55.3414 Y17.0665
G01 X55.3795 Y17.0702
G01 X55.5008 Y17.0882
G01 X55.5384 Y17.0957
G01 X55.6574 Y17.1255
G01 X55.6940 Y17.1366
G01 X55.8095 Y17.1779
G01 X55.8449 Y17.1926
G01 X55.9557 Y17.2450
G01 X55.9895 Y17.2631
G01 X56.0947 Y17.3261
G01 X56.1265 Y17.3474
G01 X56.2251 Y17.4205
G01 X56.2546 Y17.4448
G01 X56.3455 Y17.5271
G01 X56.3726 Y17.5542
G01 X56.4550 Y17.6451
G01 X56.4793 Y17.6747
G01 X56.5523 Y17.7732
G01 X56.5736 Y17.8050
G01 X56.6367 Y17.9103
G01 X56.6547 Y17.9440
G01 X56.7072 Y18.0549
G01 X56.7218 Y18.0903
G01 X56.7631 Y18.2058
G01 X56.7742 Y18.2424
G01 X56.8040 Y18.3614
G01 X56.8115 Y18.3989
G01 X56.8295 Y18.5203
G01 X56.8333 Y18.5583
G01 X56.8393 Y18.6809
G01 X56.8393 Y18.7191
G01 X56.8333 Y18.8417
G01 X56.8295 Y18.8797
G01 X56.8115 Y19.0011
G01 X56.8040 Y19.0386
G01 X56.7742 Y19.1576
G01 X56.7631 Y19.1942
G01 X56.7218 Y19.3097
G01 X56.7072 Y19.3451
G01 X56.6547 Y19.4560
G01 X56.6367 Y19.4897
G01 X56.5736 Y19.5950
G01 X56.5523 Y19.6268
G01 X56.4793 Y19.7253
G01 X56.4550 Y19.7549
G01 X56.3726 Y19.8458
G01 X56.3455 Y19.8729
G01 X56.2546 Y19.9552
G01 X56.2251 Y19.9795
G01 X56.1265 Y20.0526
G01 X56.0900 Y20.0767
G01 X56.0900 Y21.8312
G01 X56.6085 Y22.3497
G01 X56.8097 Y22.3497
G01 X56.8097 Y22.2400
G01 X56.8116 Y22.2018
G01 X56.8172 Y22.1639
G01 X56.8265 Y22.1268
G01 X56.8394 Y22.0908
G01 X56.8558 Y22.0562
G01 X56.8755 Y22.0233
G01 X56.8983 Y21.9926
G01 X56.9240 Y21.9642
G01 X56.9523 Y21.9385
G01 X56.9831 Y21.9157
G01 X57.0159 Y21.8961
G01 X57.0505 Y21.8797
G01 X57.0865 Y21.8668
G01 X57.1237 Y21.8575
G01 X57.1615 Y21.8519
G01 X57.1997 Y21.8500
G01 X57.5870 Y21.8500
G01 X57.5577 Y21.8379
G01 X57.4823 Y21.8022
G01 X57.4486 Y21.7841
G01 X57.3770 Y21.7413
G01 X57.3452 Y21.7200
G01 X57.2782 Y21.6703
G01 X57.2486 Y21.6460
G01 X57.1868 Y21.5900
G01 X57.1597 Y21.5629
G01 X57.1037 Y21.5011
G01 X57.0794 Y21.4716
G01 X57.0297 Y21.4046
G01 X57.0085 Y21.3727
G01 X56.9656 Y21.3012
G01 X56.9476 Y21.2674
G01 X56.9119 Y21.1920
G01 X56.8973 Y21.1567
G01 X56.8691 Y21.0781
G01 X56.8580 Y21.0415
G01 X56.8378 Y20.9606
G01 X56.8303 Y20.9231
G01 X56.8181 Y20.8405
G01 X56.8143 Y20.8025
G01 X56.8102 Y20.7191
G01 X56.8102 Y20.6809
G01 X56.8143 Y20.5975
G01 X56.8181 Y20.5595
G01 X56.8303 Y20.4769
G01 X56.8378 Y20.4394
G01 X56.8580 Y20.3585
G01 X56.8691 Y20.3219
G01 X56.8973 Y20.2433
G01 X56.9119 Y20.2080
G01 X56.9476 Y20.1326
G01 X56.9656 Y20.0988
G01 X57.0085 Y20.0273
G01 X57.0297 Y19.9954
G01 X57.0794 Y19.9284
G01 X57.1037 Y19.8989
G01 X57.1597 Y19.8371
G01 X57.1868 Y19.8100
G01 X57.2486 Y19.7540
G01 X57.2782 Y19.7297
G01 X57.3095 Y19.7065
G01 X57.3095 Y16.7335
G01 X57.2782 Y16.7103
G01 X57.2486 Y16.6860
G01 X57.1871 Y16.6303
G01 X55.2397 Y16.6303
G01 X55.2206 Y16.6298
G01 X55.1716 Y16.6274
G01 X55.1335 Y16.6236
G01 X55.0849 Y16.6164
G01 X55.0474 Y16.6090
G01 X54.9998 Y16.5970
G01 X54.9631 Y16.5859
G01 X54.9169 Y16.5694
G01 X54.8816 Y16.5547
G01 X54.8372 Y16.5337
G01 X54.8034 Y16.5157
G01 X54.7613 Y16.4905
G01 X54.7295 Y16.4692
G01 X54.6901 Y16.4399
G01 X54.6605 Y16.4157
G01 X54.6241 Y16.3827
G01 X54.6102 Y16.3695
G01 X53.4497 Y15.2090
G01 X53.0900 Y15.5688
G01 X53.0900 Y22.5465
G01 X53.1213 Y22.5697
G01 X53.1509 Y22.5940
G01 X53.2127 Y22.6500
G01 X53.2398 Y22.6771
G01 X53.2958 Y22.7389
G01 X53.3201 Y22.7684
G01 X53.3697 Y22.8354
G01 X53.3910 Y22.8673
G01 X53.4339 Y22.9388
G01 X53.4519 Y22.9726
G01 X53.4876 Y23.0480
G01 X53.5022 Y23.0833
G01 X53.5304 Y23.1619
G01 X53.5415 Y23.1985
G01 X53.5617 Y23.2794
G01 X53.5692 Y23.3169
G01 X53.5814 Y23.3995
G01 X53.5852 Y23.4375
G01 X53.5893 Y23.5209
G01 X53.5893 Y23.5591
G01 X53.5852 Y23.6425
G01 X53.5814 Y23.6805
G01 X53.5692 Y23.7631
G01 X53.5617 Y23.8006
G01 X53.5415 Y23.8815
G01 X53.5304 Y23.9181
G01 X53.5022 Y23.9967
G01 X53.4876 Y24.0320
G01 X53.4519 Y24.1074
G01 X53.4339 Y24.1412
G01 X53.3910 Y24.2127
G01 X53.3697 Y24.2446
G01 X53.3201 Y24.3116
G01 X53.2958 Y24.3411
G01 X53.2398 Y24.4029
G01 X53.2127 Y24.4300
G01 X53.1509 Y24.4860
G01 X53.1213 Y24.5103
G01 X53.0900 Y24.5335
G01 X53.0900 Y25.0865
G01 X53.1213 Y25.1097
G01 X53.1509 Y25.1340
G01 X53.2127 Y25.1900
G01 X53.2398 Y25.2171
G01 X53.2958 Y25.2789
G01 X53.3201 Y25.3084
G01 X53.3697 Y25.3754
G01 X53.3910 Y25.4073
G01 X53.4339 Y25.4788
G01 X53.4519 Y25.5126
G01 X53.4876 Y25.5880
G01 X53.5022 Y25.6233
G01 X53.5304 Y25.7019
G01 X53.5415 Y25.7385
G01 X53.5617 Y25.8194
G01 X53.5692 Y25.8569
G01 X53.5814 Y25.9395
G01 X53.5852 Y25.9775
G01 X53.5893 Y26.0609
G01 X53.5893 Y26.0991
G01 X53.5852 Y26.1825
G01 X53.5814 Y26.2205
G01 X53.5692 Y26.3031
G01 X53.5617 Y26.3406
G01 X53.5415 Y26.4215
G01 X53.5304 Y26.4581
G01 X53.5022 Y26.5367
G01 X53.4876 Y26.5720
G01 X53.4519 Y26.6474
G01 X53.4339 Y26.6812
G01 X53.3910 Y26.7527
G01 X53.3697 Y26.7846
G01 X53.3201 Y26.8516
G01 X53.2958 Y26.8811
G01 X53.2398 Y26.9429
G01 X53.2127 Y26.9700
G01 X53.1509 Y27.0260
G01 X53.1213 Y27.0503
G01 X53.0900 Y27.0735
G01 X53.0900 Y27.6265
G01 X53.1213 Y27.6497
G01 X53.1509 Y27.6740
G01 X53.2127 Y27.7300
G01 X53.2398 Y27.7571
G01 X53.2958 Y27.8189
G01 X53.3201 Y27.8484
G01 X53.3697 Y27.9154
G01 X53.3910 Y27.9473
G01 X53.4339 Y28.0188
G01 X53.4519 Y28.0526
G01 X53.4876 Y28.1280
G01 X53.5022 Y28.1633
G01 X53.5304 Y28.2419
G01 X53.5415 Y28.2785
G01 X53.5617 Y28.3594
G01 X53.5692 Y28.3969
G01 X53.5814 Y28.4795
G01 X53.5852 Y28.5175
G01 X53.5893 Y28.6009
G01 X53.5893 Y28.6391
G01 X53.5852 Y28.7225
G01 X53.5814 Y28.7605
G01 X53.5692 Y28.8431
G01 X53.5617 Y28.8806
G01 X53.5415 Y28.9615
G01 X53.5304 Y28.9981
G01 X53.5022 Y29.0767
G01 X53.4876 Y29.1120
G01 X53.4519 Y29.1874
G01 X53.4339 Y29.2212
G01 X53.3910 Y29.2927
G01 X53.3697 Y29.3246
G01 X53.3201 Y29.3916
G01 X53.2958 Y29.4211
G01 X53.2398 Y29.4829
G01 X53.2127 Y29.5100
G01 X53.1509 Y29.5660
G01 X53.1213 Y29.5903
G01 X53.0900 Y29.6135
G01 X53.0900 Y30.1665
G01 X53.1213 Y30.1897
G01 X53.1509 Y30.2140
G01 X53.2127 Y30.2700
G01 X53.2398 Y30.2971
G01 X53.2958 Y30.3589
G01 X53.3201 Y30.3884
G01 X53.3697 Y30.4554
G01 X53.3910 Y30.4873
G01 X53.4339 Y30.5588
G01 X53.4519 Y30.5926
G01 X53.4876 Y30.6680
G01 X53.5022 Y30.7033
G01 X53.5304 Y30.7819
G01 X53.5415 Y30.8185
G01 X53.5617 Y30.8994
G01 X53.5692 Y30.9369
G01 X53.5814 Y31.0195
G01 X53.5852 Y31.0575
G01 X53.5893 Y31.1409
G01 X53.5893 Y31.1791
G01 X53.5852 Y31.2625
G01 X53.5814 Y31.3005
G01 X53.5692 Y31.3831
G01 X53.5617 Y31.4206
G01 X53.5415 Y31.5015
G01 X53.5304 Y31.5381
G01 X53.5022 Y31.6167
G01 X53.4876 Y31.6520
G01 X53.4519 Y31.7274
G01 X53.4339 Y31.7612
G01 X53.3910 Y31.8327
G01 X53.3697 Y31.8646
G01 X53.3201 Y31.9316
G01 X53.2958 Y31.9611
G01 X53.2398 Y32.0229
G01 X53.2127 Y32.0500
G01 X53.1509 Y32.1060
G01 X53.1213 Y32.1303
G01 X53.0900 Y32.1535
G01 X53.0900 Y32.3100
G01 X53.1997 Y32.3100
G01 X53.2380 Y32.3119
G01 X53.2758 Y32.3175
G01 X53.3130 Y32.3268
G01 X53.3490 Y32.3397
G01 X53.3836 Y32.3561
G01 X53.4164 Y32.3757
G01 X53.4472 Y32.3985
G01 X53.4755 Y32.4242
G01 X53.5012 Y32.4526
G01 X53.5240 Y32.4833
G01 X53.5437 Y32.5162
G01 X53.5601 Y32.5508
G01 X53.5730 Y32.5868
G01 X53.5823 Y32.6239
G01 X53.5879 Y32.6618
G01 X53.5897 Y32.7000
G01 X53.5897 Y34.7000
G01 X53.5879 Y34.7382
G01 X53.5823 Y34.7761
G01 X53.5730 Y34.8132
G01 X53.5601 Y34.8492
G01 X53.5437 Y34.8838
G01 X53.5240 Y34.9167
G01 X53.5012 Y34.9474
G01 X53.4755 Y34.9758
G01 X53.4472 Y35.0015
G01 X53.4164 Y35.0243
G01 X53.3836 Y35.0439
G01 X53.3490 Y35.0603
G01 X53.3130 Y35.0732
G01 X53.2758 Y35.0825
G01 X53.2380 Y35.0881
G01 X53.1997 Y35.0900
G01 X53.0900 Y35.0900
G01 X53.0900 Y37.8312
G01 X54.6785 Y39.4198
G01 X55.3498 Y39.4198
G01 X55.3689 Y39.4202
G01 X55.4179 Y39.4226
G01 X55.4560 Y39.4264
G01 X55.5046 Y39.4336
G01 X55.5421 Y39.4411
G01 X55.5897 Y39.4530
G01 X55.6264 Y39.4641
G01 X55.6726 Y39.4806
G01 X55.7079 Y39.4953
G01 X55.7523 Y39.5163
G01 X55.7861 Y39.5343
G01 X55.8282 Y39.5595
G01 X55.8600 Y39.5808
G01 X55.8994 Y39.6101
G01 X55.9290 Y39.6343
G01 X55.9654 Y39.6673
G01 X55.9793 Y39.6805
G01 X56.2188 Y39.9200
G01 X56.3497 Y39.9200
G01 X56.3689 Y39.9205
G01 X56.4522 Y39.9246
G01 X56.4903 Y39.9283
G01 X56.5728 Y39.9406
G01 X56.6103 Y39.9480
G01 X56.6913 Y39.9683
G01 X56.7279 Y39.9794
G01 X56.8064 Y40.0075
G01 X56.8418 Y40.0221
G01 X56.9172 Y40.0578
G01 X56.9509 Y40.0759
G01 X57.0225 Y40.1187
G01 X57.0543 Y40.1400
G01 X57.1213 Y40.1897
G01 X57.1509 Y40.2140
G01 X57.2124 Y40.2697
G01 X57.6597 Y40.2697
G01 X57.6789 Y40.2702
G01 X57.7279 Y40.2726
G01 X57.7660 Y40.2764
G01 X57.8146 Y40.2836
G01 X57.8521 Y40.2910
G01 X57.8997 Y40.3030
G01 X57.9364 Y40.3141
G01 X57.9826 Y40.3306
G01 X58.0179 Y40.3453
G01 X58.0623 Y40.3663
G01 X58.0961 Y40.3843
G01 X58.1382 Y40.4095
G01 X58.1700 Y40.4308
G01 X58.2094 Y40.4601
G01 X58.2390 Y40.4843
G01 X58.2754 Y40.5173
G01 X58.2893 Y40.5305
G01 X59.8293 Y42.0705
G01 X59.8425 Y42.0844
G01 X59.8754 Y42.1207
G01 X59.8997 Y42.1503
G01 X59.9289 Y42.1898
G01 X59.9502 Y42.2216
G01 X59.9754 Y42.2637
G01 X59.9935 Y42.2974
G01 X60.0145 Y42.3418
G01 X60.0291 Y42.3772
G01 X60.0457 Y42.4234
G01 X60.0568 Y42.4600
G01 X60.0687 Y42.5076
G01 X60.0762 Y42.5452
G01 X60.0834 Y42.5937
G01 X60.0871 Y42.6318
G01 X60.0895 Y42.6809
G01 X60.0900 Y42.7000
G01 X60.0900 Y45.7000
G01 X60.0895 Y45.7191
G01 X60.0871 Y45.7682
G01 X60.0834 Y45.8063
G01 X60.0762 Y45.8548
G01 X60.0687 Y45.8924
G01 X60.0568 Y45.9400
G01 X60.0457 Y45.9766
G01 X60.0291 Y46.0228
G01 X60.0145 Y46.0582
G01 X59.9935 Y46.1026
G01 X59.9754 Y46.1363
G01 X59.9502 Y46.1784
G01 X59.9289 Y46.2102
G01 X59.8997 Y46.2497
G01 X59.8754 Y46.2793
G01 X59.8425 Y46.3156
G01 X59.8293 Y46.3295
G01 X57.5830 Y48.5757
G01 X57.5852 Y48.5975
G01 X57.5893 Y48.6809
G01 X57.5893 Y48.7191
G01 X57.5852 Y48.8025
G01 X57.5814 Y48.8405
G01 X57.5692 Y48.9231
G01 X57.5617 Y48.9606
G01 X57.5415 Y49.0415
G01 X57.5304 Y49.0781
G01 X57.5022 Y49.1567
G01 X57.4876 Y49.1920
G01 X57.4519 Y49.2674
G01 X57.4339 Y49.3012
G01 X57.3910 Y49.3727
G01 X57.3697 Y49.4046
G01 X57.3201 Y49.4716
G01 X57.2958 Y49.5011
G01 X57.2398 Y49.5629
G01 X57.2127 Y49.5900
G01 X57.1509 Y49.6460
G01 X57.1213 Y49.6703
G01 X57.0543 Y49.7200
G01 X57.0225 Y49.7413
G01 X56.9509 Y49.7841
G01 X56.9172 Y49.8022
G01 X56.8418 Y49.8379
G01 X56.8125 Y49.8500
G01 X57.1997 Y49.8500
G01 X57.2380 Y49.8519
G01 X57.2758 Y49.8575
G01 X57.3130 Y49.8668
G01 X57.3490 Y49.8797
G01 X57.3836 Y49.8961
G01 X57.4164 Y49.9157
G01 X57.4472 Y49.9385
G01 X57.4755 Y49.9642
G01 X57.5012 Y49.9926
G01 X57.5240 Y50.0233
G01 X57.5437 Y50.0562
G01 X57.5601 Y50.0908
G01 X57.5730 Y50.1268
G01 X57.5823 Y50.1639
G01 X57.5879 Y50.2018
G01 X57.5897 Y50.2400
G01 X57.5897 Y52.2400
G01 X57.5879 Y52.2782
G01 X57.5823 Y52.3161
G01 X57.5730 Y52.3532
G01 X57.5601 Y52.3892
G01 X57.5437 Y52.4238
G01 X57.5240 Y52.4567
G01 X57.5012 Y52.4874
G01 X57.4755 Y52.5158
G01 X57.4472 Y52.5415
G01 X57.4164 Y52.5643
G01 X57.3836 Y52.5839
G01 X57.3490 Y52.6003
G01 X57.3130 Y52.6132
G01 X57.2758 Y52.6225
G01 X57.2380 Y52.6281
G01 X57.1997 Y52.6300
G01 X55.1997 Y52.6300
G01 X55.1615 Y52.6281
G01 X55.1237 Y52.6225
G01 X55.0865 Y52.6132
G01 X55.0505 Y52.6003
G01 X55.0159 Y52.5839
G01 X54.9831 Y52.5643
G01 X54.9523 Y52.5415
G01 X54.9240 Y52.5158
G01 X54.8983 Y52.4874
G01 X54.8755 Y52.4567
G01 X54.8558 Y52.4238
G01 X54.8394 Y52.3892
G01 X54.8265 Y52.3532
G01 X54.8172 Y52.3161
G01 X54.8116 Y52.2782
G01 X54.8097 Y52.2400
G01 X54.8097 Y52.1303
G01 X53.2397 Y52.1303
G01 X53.2206 Y52.1298
G01 X53.1716 Y52.1274
G01 X53.1335 Y52.1236
G01 X53.0849 Y52.1164
G01 X53.0474 Y52.1090
G01 X52.9998 Y52.0970
G01 X52.9631 Y52.0859
G01 X52.9169 Y52.0694
G01 X52.8816 Y52.0547
G01 X52.8372 Y52.0337
G01 X52.8034 Y52.0157
G01 X52.7613 Y51.9905
G01 X52.7295 Y51.9692
G01 X52.6901 Y51.9399
G01 X52.6605 Y51.9157
G01 X52.6241 Y51.8827
G01 X52.6102 Y51.8695
G01 X52.0702 Y51.3295
G01 X52.0570 Y51.3156
G01 X52.0241 Y51.2793
G01 X51.9998 Y51.2497
G01 X51.9706 Y51.2102
G01 X51.9493 Y51.1784
G01 X51.9241 Y51.1363
G01 X51.9060 Y51.1026
G01 X51.8850 Y51.0582
G01 X51.8704 Y51.0228
G01 X51.8538 Y50.9766
G01 X51.8427 Y50.9400
G01 X51.8308 Y50.8924
G01 X51.8233 Y50.8548
G01 X51.8161 Y50.8063
G01 X51.8124 Y50.7682
G01 X51.8100 Y50.7191
G01 X51.8095 Y50.7000
G01 X51.8095 Y49.5767
G01 X51.7730 Y49.5526
G01 X51.6744 Y49.4795
G01 X51.6449 Y49.4552
G01 X51.5540 Y49.3729
G01 X51.5269 Y49.3458
G01 X51.4445 Y49.2549
G01 X51.4202 Y49.2253
G01 X51.3472 Y49.1268
G01 X51.3259 Y49.0950
G01 X51.2628 Y48.9897
G01 X51.2448 Y48.9560
G01 X51.1923 Y48.8451
G01 X51.1777 Y48.8097
G01 X51.1364 Y48.6942
G01 X51.1253 Y48.6576
G01 X51.0955 Y48.5386
G01 X51.0900 Y48.5112
G01 X51.0900 Y52.7000
G01 X51.0895 Y52.7191
G01 X51.0871 Y52.7682
G01 X51.0834 Y52.8063
G01 X51.0762 Y52.8548
G01 X51.0687 Y52.8924
G01 X51.0568 Y52.9400
G01 X51.0457 Y52.9766
G01 X51.0291 Y53.0228
G01 X51.0145 Y53.0582
G01 X50.9935 Y53.1026
G01 X50.9754 Y53.1363
G01 X50.9502 Y53.1784
G01 X50.9289 Y53.2102
G01 X50.8997 Y53.2497
G01 X50.8754 Y53.2793
G01 X50.8425 Y53.3156
G01 X50.8293 Y53.3295
G01 X48.3293 Y55.8295
G01 X48.3154 Y55.8427
G01 X48.2790 Y55.8757
G01 X48.2494 Y55.8999
G01 X48.2100 Y55.9292
G01 X48.1782 Y55.9505
G01 X48.1361 Y55.9757
G01 X48.1023 Y55.9937
G01 X48.0579 Y56.0147
G01 X48.0226 Y56.0294
G01 X47.9764 Y56.0459
G01 X47.9397 Y56.0570
G01 X47.8921 Y56.0690
G01 X47.8546 Y56.0764
G01 X47.8060 Y56.0836
G01 X47.7679 Y56.0874
G01 X47.7189 Y56.0898
G01 X47.6997 Y56.0903
G01 X44.7333 Y56.0903
G01 X44.7101 Y56.1216
G01 X44.6858 Y56.1511
G01 X44.6298 Y56.2129
G01 X44.6027 Y56.2400
G01 X44.5409 Y56.2960
G01 X44.5113 Y56.3203
G01 X44.4443 Y56.3700
G01 X44.4125 Y56.3913
G01 X44.3409 Y56.4341
G01 X44.3072 Y56.4522
G01 X44.2318 Y56.4879
G01 X44.1964 Y56.5025
G01 X44.1179 Y56.5306
G01 X44.0813 Y56.5417
G01 X44.0003 Y56.5620
G01 X43.9628 Y56.5694
G01 X43.8803 Y56.5817
G01 X43.8422 Y56.5854
G01 X43.7589 Y56.5895
G01 X43.7206 Y56.5895
G01 X43.6373 Y56.5854
G01 X43.5992 Y56.5817
G01 X43.5167 Y56.5694
G01 X43.4792 Y56.5620
G01 X43.3982 Y56.5417
G01 X43.3616 Y56.5306
G01 X43.2831 Y56.5025
G01 X43.2477 Y56.4879
G01 X43.1723 Y56.4522
G01 X43.1386 Y56.4341
G01 X43.0670 Y56.3913
G01 X43.0352 Y56.3700
G01 X42.9682 Y56.3203
G01 X42.9386 Y56.2960
G01 X42.8768 Y56.2400
G01 X42.8497 Y56.2129
G01 X42.7937 Y56.1511
G01 X42.7694 Y56.1216
G01 X42.7197 Y56.0546
G01 X42.6985 Y56.0227
G01 X42.6556 Y55.9512
G01 X42.6376 Y55.9174
G01 X42.6019 Y55.8420
G01 X42.5873 Y55.8067
G01 X42.5591 Y55.7281
G01 X42.5480 Y55.6915
G01 X42.5278 Y55.6106
G01 X42.5203 Y55.5731
G01 X42.5081 Y55.4905
G01 X42.5043 Y55.4525
G01 X42.5002 Y55.3691
G01 X42.4997 Y55.3500
G01 X42.4997 Y55.0500
G01 X42.5002 Y55.0309
G01 X42.5043 Y54.9475
G01 X42.5081 Y54.9095
G01 X42.5203 Y54.8269
G01 X42.5278 Y54.7894
G01 X42.5480 Y54.7085
G01 X42.5591 Y54.6719
G01 X42.5873 Y54.5933
G01 X42.6019 Y54.5580
G01 X42.6376 Y54.4826
G01 X42.6556 Y54.4488
G01 X42.6985 Y54.3773
G01 X42.7197 Y54.3454
G01 X42.7694 Y54.2784
G01 X42.7937 Y54.2489
G01 X42.8497 Y54.1871
G01 X42.8768 Y54.1600
G01 X42.9386 Y54.1040
G01 X42.9682 Y54.0797
G01 X43.0082 Y54.0500
G01 X42.7397 Y54.0500
G01 X42.7015 Y54.0481
G01 X42.6637 Y54.0425
G01 X42.6265 Y54.0332
G01 X42.5905 Y54.0203
G01 X42.5559 Y54.0039
G01 X42.5231 Y53.9843
G01 X42.4923 Y53.9615
G01 X42.4640 Y53.9358
G01 X42.4383 Y53.9074
G01 X42.4155 Y53.8767
G01 X42.3958 Y53.8438
G01 X42.3794 Y53.8092
G01 X42.3665 Y53.7732
G01 X42.3572 Y53.7361
G01 X42.3516 Y53.6982
G01 X42.3497 Y53.6600
G01 X42.3497 Y53.2727
G01 X42.3376 Y53.3020
G01 X42.3019 Y53.3774
G01 X42.2839 Y53.4112
G01 X42.2410 Y53.4827
G01 X42.2197 Y53.5146
G01 X42.1701 Y53.5816
G01 X42.1458 Y53.6111
G01 X42.0898 Y53.6729
G01 X42.0627 Y53.7000
G01 X42.0009 Y53.7560
G01 X41.9713 Y53.7803
G01 X41.9043 Y53.8300
G01 X41.8725 Y53.8513
G01 X41.8009 Y53.8941
G01 X41.7672 Y53.9122
G01 X41.7295 Y53.9300
G01 X41.7672 Y53.9478
G01 X41.8009 Y53.9659
G01 X41.8725 Y54.0087
G01 X41.9043 Y54.0300
G01 X41.9713 Y54.0797
G01 X42.0009 Y54.1040
G01 X42.0627 Y54.1600
G01 X42.0898 Y54.1871
G01 X42.1458 Y54.2489
G01 X42.1701 Y54.2784
G01 X42.2197 Y54.3454
G01 X42.2410 Y54.3773
G01 X42.2839 Y54.4488
G01 X42.3019 Y54.4826
G01 X42.3376 Y54.5580
G01 X42.3522 Y54.5933
G01 X42.3804 Y54.6719
G01 X42.3915 Y54.7085
G01 X42.4117 Y54.7894
G01 X42.4192 Y54.8269
G01 X42.4314 Y54.9095
G01 X42.4352 Y54.9475
G01 X42.4393 Y55.0309
G01 X42.4397 Y55.0500
G01 X42.4397 Y55.3500
G01 X42.4393 Y55.3691
G01 X42.4352 Y55.4525
G01 X42.4314 Y55.4905
G01 X42.4192 Y55.5731
G01 X42.4117 Y55.6106
G01 X42.3915 Y55.6915
G01 X42.3804 Y55.7281
G01 X42.3522 Y55.8067
G01 X42.3376 Y55.8420
G01 X42.3019 Y55.9174
G01 X42.2839 Y55.9512
G01 X42.2410 Y56.0227
G01 X42.2197 Y56.0546
G01 X42.1701 Y56.1216
G01 X42.1458 Y56.1511
G01 X42.0900 Y56.2127
G01 X42.0900 Y57.2000
G01 X42.0895 Y57.2191
G01 X42.0871 Y57.2682
G01 X42.0834 Y57.3063
G01 X42.0762 Y57.3548
G01 X42.0687 Y57.3924
G01 X42.0568 Y57.4400
G01 X42.0457 Y57.4766
G01 X42.0291 Y57.5228
G01 X42.0145 Y57.5582
G01 X41.9935 Y57.6026
G01 X41.9754 Y57.6363
G01 X41.9502 Y57.6784
G01 X41.9289 Y57.7102
G01 X41.8997 Y57.7497
G01 X41.8754 Y57.7793
G01 X41.8425 Y57.8156
G01 X41.8293 Y57.8295
G01 X39.8293 Y59.8295
G01 X39.8154 Y59.8427
G01 X39.7790 Y59.8757
G01 X39.7494 Y59.8999
G01 X39.7100 Y59.9292
G01 X39.6782 Y59.9505
G01 X39.6361 Y59.9757
G01 X39.6023 Y59.9937
G01 X39.5579 Y60.0147
G01 X39.5226 Y60.0294
G01 X39.4764 Y60.0459
G01 X39.4397 Y60.0570
G01 X39.3921 Y60.0690
G01 X39.3546 Y60.0764
G01 X39.3060 Y60.0836
G01 X39.2679 Y60.0874
G01 X39.2189 Y60.0898
G01 X39.1997 Y60.0903
G01 X30.6997 Y60.0903
G01 X30.6806 Y60.0898
G01 X30.6316 Y60.0874
G01 X30.5935 Y60.0836
G01 X30.5449 Y60.0764
G01 X30.5074 Y60.0690
G01 X30.4598 Y60.0570
G01 X30.4231 Y60.0459
G01 X30.3769 Y60.0294
G01 X30.3416 Y60.0147
G01 X30.2972 Y59.9937
G01 X30.2634 Y59.9757
G01 X30.2213 Y59.9505
G01 X30.1895 Y59.9292
G01 X30.1501 Y59.8999
G01 X30.1205 Y59.8757
G01 X30.0841 Y59.8427
G01 X30.0702 Y59.8295
G01 X27.5702 Y57.3295
G01 X27.5570 Y57.3156
G01 X27.5241 Y57.2793
G01 X27.4998 Y57.2497
G01 X27.4706 Y57.2102
G01 X27.4493 Y57.1784
G01 X27.4241 Y57.1363
G01 X27.4060 Y57.1026
G01 X27.3850 Y57.0582
G01 X27.3704 Y57.0228
G01 X27.3538 Y56.9766
G01 X27.3427 Y56.9400
G01 X27.3308 Y56.8924
G01 X27.3233 Y56.8548
G01 X27.3161 Y56.8063
G01 X27.3124 Y56.7682
G01 X27.3100 Y56.7191
G01 X27.3095 Y56.7000
G01 X27.3095 Y56.5688
G01 X26.3310 Y55.5903
G01 X24.1997 Y55.5903
G01 X24.1806 Y55.5898
G01 X24.1316 Y55.5874
G01 X24.0935 Y55.5836
G01 X24.0449 Y55.5764
G01 X24.0074 Y55.5690
G01 X23.9598 Y55.5570
G01 X23.9231 Y55.5459
G01 X23.8769 Y55.5294
G01 X23.8416 Y55.5147
G01 X23.7972 Y55.4937
G01 X23.7634 Y55.4757
G01 X23.7213 Y55.4505
G01 X23.6895 Y55.4292
G01 X23.6501 Y55.3999
G01 X23.6205 Y55.3757
G01 X23.5841 Y55.3427
G01 X23.5702 Y55.3295
G01 X19.0702 Y50.8295
G01 X19.0570 Y50.8156
G01 X19.0241 Y50.7793
G01 X18.9998 Y50.7497
G01 X18.9706 Y50.7102
G01 X18.9493 Y50.6784
G01 X18.9241 Y50.6363
G01 X18.9060 Y50.6026
G01 X18.8850 Y50.5582
G01 X18.8704 Y50.5228
G01 X18.8538 Y50.4766
G01 X18.8427 Y50.4400
G01 X18.8308 Y50.3924
G01 X18.8233 Y50.3548
G01 X18.8161 Y50.3063
G01 X18.8124 Y50.2682
G01 X18.8100 Y50.2191
G01 X18.8095 Y50.2000
G01 X18.8095 Y32.6000
G01 X18.8100 Y32.5809
G01 X18.8124 Y32.5318
G01 X18.8161 Y32.4937
G01 X18.8233 Y32.4452
G01 X18.8308 Y32.4076
G01 X18.8427 Y32.3600
G01 X18.8538 Y32.3234
G01 X18.8704 Y32.2772
G01 X18.8850 Y32.2418
G01 X18.9060 Y32.1974
G01 X18.9241 Y32.1637
G01 X18.9493 Y32.1216
G01 X18.9706 Y32.0898
G01 X18.9998 Y32.0503
G01 X19.0241 Y32.0207
G01 X19.0570 Y31.9844
G01 X19.0702 Y31.9705
G01 X20.3502 Y30.6905
G01 X20.3641 Y30.6773
G01 X20.4005 Y30.6443
G01 X20.4301 Y30.6201
G01 X20.4695 Y30.5908
G01 X20.5013 Y30.5695
G01 X20.5434 Y30.5443
G01 X20.5772 Y30.5263
G01 X20.6216 Y30.5053
G01 X20.6569 Y30.4906
G01 X20.7031 Y30.4741
G01 X20.7398 Y30.4630
G01 X20.7874 Y30.4510
G01 X20.8249 Y30.4436
G01 X20.8735 Y30.4364
G01 X20.9116 Y30.4326
G01 X20.9606 Y30.4302
G01 X20.9797 Y30.4297
G01 X21.9671 Y30.4297
G01 X22.0286 Y30.3740
G01 X22.0582 Y30.3497
G01 X22.1252 Y30.3000
G01 X22.1570 Y30.2787
G01 X22.2286 Y30.2359
G01 X22.2623 Y30.2178
G01 X22.3377 Y30.1821
G01 X22.3731 Y30.1675
G01 X22.4516 Y30.1394
G01 X22.4882 Y30.1283
G01 X22.5692 Y30.1080
G01 X22.6067 Y30.1006
G01 X22.6892 Y30.0883
G01 X22.7273 Y30.0846
G01 X22.8106 Y30.0805
G01 X22.8297 Y30.0800
G01 X23.3297 Y30.0800
G01 X23.3489 Y30.0805
G01 X23.4322 Y30.0846
G01 X23.4703 Y30.0883
G01 X23.5528 Y30.1006
G01 X23.5903 Y30.1080
G01 X23.6713 Y30.1283
G01 X23.7079 Y30.1394
G01 X23.7864 Y30.1675
G01 X23.8218 Y30.1821
G01 X23.8972 Y30.2178
G01 X23.9309 Y30.2359
G01 X24.0025 Y30.2787
G01 X24.0343 Y30.3000
G01 X24.1013 Y30.3497
G01 X24.1309 Y30.3740
G01 X24.1927 Y30.4300
G01 X24.2198 Y30.4571
G01 X24.2758 Y30.5189
G01 X24.3001 Y30.5484
G01 X24.3497 Y30.6154
G01 X24.3710 Y30.6473
G01 X24.4139 Y30.7188
G01 X24.4319 Y30.7526
G01 X24.4676 Y30.8280
G01 X24.4822 Y30.8633
G01 X24.5104 Y30.9419
G01 X24.5215 Y30.9785
G01 X24.5417 Y31.0594
G01 X24.5492 Y31.0969
G01 X24.5614 Y31.1795
G01 X24.5652 Y31.2175
G01 X24.5693 Y31.3009
G01 X24.5693 Y31.3391
G01 X24.5652 Y31.4225
G01 X24.5614 Y31.4605
G01 X24.5492 Y31.5431
G01 X24.5417 Y31.5806
G01 X24.5215 Y31.6615
G01 X24.5104 Y31.6981
G01 X24.4822 Y31.7767
G01 X24.4676 Y31.8120
G01 X24.4319 Y31.8874
G01 X24.4139 Y31.9212
G01 X24.3710 Y31.9927
G01 X24.3497 Y32.0246
G01 X24.3001 Y32.0916
G01 X24.2758 Y32.1211
G01 X24.2198 Y32.1829
G01 X24.1927 Y32.2100
G01 X24.1309 Y32.2660
G01 X24.1013 Y32.2903
G01 X24.0343 Y32.3400
G01 X24.0025 Y32.3613
G01 X23.9309 Y32.4041
G01 X23.8972 Y32.4222
G01 X23.8218 Y32.4579
G01 X23.7864 Y32.4725
G01 X23.7079 Y32.5006
G01 X23.6713 Y32.5117
G01 X23.5903 Y32.5320
G01 X23.5528 Y32.5394
G01 X23.4703 Y32.5517
G01 X23.4322 Y32.5554
G01 X23.3489 Y32.5595
G01 X23.3297 Y32.5600
G01 X22.8297 Y32.5600
G01 X22.8106 Y32.5595
G01 X22.7273 Y32.5554
G01 X22.6892 Y32.5517
G01 X22.6067 Y32.5394
G01 X22.5692 Y32.5320
G01 X22.4882 Y32.5117
G01 X22.4516 Y32.5006
G01 X22.3731 Y32.4725
G01 X22.3377 Y32.4579
G01 X22.2623 Y32.4222
G01 X22.2286 Y32.4041
G01 X22.1570 Y32.3613
G01 X22.1252 Y32.3400
G01 X22.0582 Y32.2903
G01 X22.0286 Y32.2660
G01 X21.9671 Y32.2103
G01 X21.3485 Y32.2103
G01 X20.5900 Y32.9688
G01 X20.5900 Y49.8312
G01 X24.5685 Y53.8097
G01 X26.6997 Y53.8097
G01 X26.7189 Y53.8102
G01 X26.7679 Y53.8126
G01 X26.8060 Y53.8164
G01 X26.8546 Y53.8236
G01 X26.8921 Y53.8310
G01 X26.9397 Y53.8430
G01 X26.9764 Y53.8541
G01 X27.0226 Y53.8706
G01 X27.0579 Y53.8853
G01 X27.1023 Y53.9063
G01 X27.1361 Y53.9243
G01 X27.1782 Y53.9495
G01 X27.2100 Y53.9708
G01 X27.2494 Y54.0001
G01 X27.2790 Y54.0243
G01 X27.3154 Y54.0573
G01 X27.3293 Y54.0705
G01 X28.8293 Y55.5705
G01 X28.8425 Y55.5844
G01 X28.8754 Y55.6207
G01 X28.8997 Y55.6503
G01 X28.9289 Y55.6898
G01 X28.9502 Y55.7216
G01 X28.9754 Y55.7637
G01 X28.9935 Y55.7974
G01 X29.0145 Y55.8418
G01 X29.0291 Y55.8772
G01 X29.0457 Y55.9234
G01 X29.0568 Y55.9600
G01 X29.0687 Y56.0076
G01 X29.0762 Y56.0452
G01 X29.0834 Y56.0937
G01 X29.0871 Y56.1318
G01 X29.0895 Y56.1809
G01 X29.0900 Y56.2000
G01 X29.0900 Y56.3312
G01 X31.0685 Y58.3097
G01 X34.0505 Y58.3097
G01 X32.4150 Y56.6742
G01 X32.3449 Y56.7074
G01 X32.3095 Y56.7221
G01 X32.1940 Y56.7634
G01 X32.1574 Y56.7745
G01 X32.0384 Y56.8043
G01 X32.0008 Y56.8118
G01 X31.8795 Y56.8298
G01 X31.8414 Y56.8335
G01 X31.7189 Y56.8395
G01 X31.6806 Y56.8395
G01 X31.5581 Y56.8335
G01 X31.5200 Y56.8298
G01 X31.3987 Y56.8118
G01 X31.3611 Y56.8043
G01 X31.2421 Y56.7745
G01 X31.2055 Y56.7634
G01 X31.0900 Y56.7221
G01 X31.0546 Y56.7074
G01 X30.9438 Y56.6550
G01 X30.9100 Y56.6369
G01 X30.8048 Y56.5739
G01 X30.7730 Y56.5526
G01 X30.6744 Y56.4795
G01 X30.6449 Y56.4552
G01 X30.5540 Y56.3729
G01 X30.5269 Y56.3458
G01 X30.4445 Y56.2549
G01 X30.4202 Y56.2253
G01 X30.3472 Y56.1268
G01 X30.3259 Y56.0950
G01 X30.2628 Y55.9897
G01 X30.2448 Y55.9560
G01 X30.1923 Y55.8451
G01 X30.1777 Y55.8097
G01 X30.1364 Y55.6942
G01 X30.1253 Y55.6576
G01 X30.0955 Y55.5386
G01 X30.0880 Y55.5011
G01 X30.0700 Y55.3797
G01 X30.0662 Y55.3417
G01 X30.0602 Y55.2191
G01 X30.0602 Y55.1809
G01 X30.0662 Y55.0583
G01 X30.0700 Y55.0203
G01 X30.0880 Y54.8989
G01 X30.0955 Y54.8614
G01 X30.1253 Y54.7424
G01 X30.1364 Y54.7058
G01 X30.1777 Y54.5903
G01 X30.1923 Y54.5549
G01 X30.2448 Y54.4440
G01 X30.2628 Y54.4103
G01 X30.3259 Y54.3050
G01 X30.3472 Y54.2732
G01 X30.4202 Y54.1747
G01 X30.4445 Y54.1451
G01 X30.5269 Y54.0542
G01 X30.5540 Y54.0271
G01 X30.6449 Y53.9448
G01 X30.6744 Y53.9205
G01 X30.7730 Y53.8474
G01 X30.8048 Y53.8261
G01 X30.9100 Y53.7631
G01 X30.9438 Y53.7450
G01 X31.0546 Y53.6926
G01 X31.0900 Y53.6779
G01 X31.2055 Y53.6366
G01 X31.2421 Y53.6255
G01 X31.3611 Y53.5957
G01 X31.3987 Y53.5882
G01 X31.5200 Y53.5702
G01 X31.5581 Y53.5665
G01 X31.6806 Y53.5605
G01 X31.7189 Y53.5605
G01 X31.8414 Y53.5665
G01 X31.8795 Y53.5702
G01 X32.0008 Y53.5882
G01 X32.0384 Y53.5957
G01 X32.1574 Y53.6255
G01 X32.1940 Y53.6366
G01 X32.3095 Y53.6779
G01 X32.3449 Y53.6926
G01 X32.4557 Y53.7450
G01 X32.4895 Y53.7631
G01 X32.5947 Y53.8261
G01 X32.6265 Y53.8474
G01 X32.7251 Y53.9205
G01 X32.7546 Y53.9448
G01 X32.8455 Y54.0271
G01 X32.8726 Y54.0542
G01 X32.9550 Y54.1451
G01 X32.9793 Y54.1747
G01 X33.0523 Y54.2732
G01 X33.0736 Y54.3050
G01 X33.1367 Y54.4103
G01 X33.1547 Y54.4440
G01 X33.2072 Y54.5549
G01 X33.2218 Y54.5903
G01 X33.2631 Y54.7058
G01 X33.2742 Y54.7424
G01 X33.3040 Y54.8614
G01 X33.3115 Y54.8989
G01 X33.3295 Y55.0203
G01 X33.3333 Y55.0583
G01 X33.3341 Y55.0753
G01 X35.0685 Y56.8097
G01 X37.2510 Y56.8097
G01 X37.7695 Y56.2912
G01 X37.7695 Y56.2127
G01 X37.7137 Y56.1511
G01 X37.6894 Y56.1216
G01 X37.6397 Y56.0546
G01 X37.6185 Y56.0227
G01 X37.5756 Y55.9512
G01 X37.5576 Y55.9174
G01 X37.5219 Y55.8420
G01 X37.5073 Y55.8067
G01 X37.4791 Y55.7281
G01 X37.4680 Y55.6915
G01 X37.4478 Y55.6106
G01 X37.4403 Y55.5731
G01 X37.4281 Y55.4905
G01 X37.4243 Y55.4525
G01 X37.4202 Y55.3691
G01 X37.4197 Y55.3500
G01 X37.4197 Y55.0500
G01 X37.4202 Y55.0309
G01 X37.4243 Y54.9475
G01 X37.4281 Y54.9095
G01 X37.4403 Y54.8269
G01 X37.4478 Y54.7894
G01 X37.4680 Y54.7085
G01 X37.4791 Y54.6719
G01 X37.5073 Y54.5933
G01 X37.5219 Y54.5580
G01 X37.5576 Y54.4826
G01 X37.5756 Y54.4488
G01 X37.6185 Y54.3773
G01 X37.6397 Y54.3454
G01 X37.6894 Y54.2784
G01 X37.7137 Y54.2489
G01 X37.7697 Y54.1871
G01 X37.7968 Y54.1600
G01 X37.8586 Y54.1040
G01 X37.8882 Y54.0797
G01 X37.9552 Y54.0300
G01 X37.9870 Y54.0087
G01 X38.0586 Y53.9659
G01 X38.0923 Y53.9478
G01 X38.1300 Y53.9300
G01 X38.0923 Y53.9122
G01 X38.0586 Y53.8941
G01 X37.9870 Y53.8513
G01 X37.9552 Y53.8300
G01 X37.8882 Y53.7803
G01 X37.8586 Y53.7560
G01 X37.7968 Y53.7000
G01 X37.7697 Y53.6729
G01 X37.7137 Y53.6111
G01 X37.6894 Y53.5816
G01 X37.6397 Y53.5146
G01 X37.6185 Y53.4827
G01 X37.5756 Y53.4112
G01 X37.5576 Y53.3774
G01 X37.5219 Y53.3020
G01 X37.5073 Y53.2667
G01 X37.4791 Y53.1881
G01 X37.4680 Y53.1515
G01 X37.4478 Y53.0706
G01 X37.4403 Y53.0331
G01 X37.4281 Y52.9505
G01 X37.4243 Y52.9125
G01 X37.4202 Y52.8291
G01 X37.4197 Y52.8100
G01 X37.4197 Y52.5100
G01 X37.4202 Y52.4909
G01 X37.4243 Y52.4075
G01 X37.4281 Y52.3695
G01 X37.4403 Y52.2869
G01 X37.4478 Y52.2494
G01 X37.4680 Y52.1685
G01 X37.4791 Y52.1319
G01 X37.5073 Y52.0533
G01 X37.5219 Y52.0180
G01 X37.5576 Y51.9426
G01 X37.5756 Y51.9088
G01 X37.6185 Y51.8373
G01 X37.6397 Y51.8054
G01 X37.6894 Y51.7384
G01 X37.7137 Y51.7089
G01 X37.7695 Y51.6473
G01 X37.7695 Y51.1088
G01 X37.0702 Y50.4095
G01 X37.0570 Y50.3956
G01 X37.0241 Y50.3593
G01 X36.9998 Y50.3297
G01 X36.9706 Y50.2902
G01 X36.9493 Y50.2584
G01 X36.9241 Y50.2163
G01 X36.9060 Y50.1826
G01 X36.8905 Y50.1497
G01 X36.4733 Y49.7326
G01 X36.4550 Y49.7549
G01 X36.3726 Y49.8458
G01 X36.3455 Y49.8729
G01 X36.2546 Y49.9552
G01 X36.2251 Y49.9795
G01 X36.1265 Y50.0526
G01 X36.0947 Y50.0739
G01 X35.9895 Y50.1369
G01 X35.9557 Y50.1550
G01 X35.8449 Y50.2074
G01 X35.8095 Y50.2221
G01 X35.6940 Y50.2634
G01 X35.6574 Y50.2745
G01 X35.5384 Y50.3043
G01 X35.5008 Y50.3118
G01 X35.3795 Y50.3298
G01 X35.3414 Y50.3335
G01 X35.2189 Y50.3395
G01 X35.1806 Y50.3395
G01 X35.0581 Y50.3335
G01 X35.0200 Y50.3298
G01 X34.8987 Y50.3118
G01 X34.8611 Y50.3043
G01 X34.7421 Y50.2745
G01 X34.7055 Y50.2634
G01 X34.5900 Y50.2221
G01 X34.5546 Y50.2074
G01 X34.4438 Y50.1550
G01 X34.4100 Y50.1369
G01 X34.3048 Y50.0739
G01 X34.2730 Y50.0526
G01 X34.1744 Y49.9795
G01 X34.1449 Y49.9552
G01 X34.0540 Y49.8729
G01 X34.0269 Y49.8458
G01 X33.9445 Y49.7549
G01 X33.9202 Y49.7253
G01 X33.8472 Y49.6268
G01 X33.8259 Y49.5950
G01 X33.7628 Y49.4897
G01 X33.7448 Y49.4560
G01 X33.6923 Y49.3451
G01 X33.6777 Y49.3097
G01 X33.6364 Y49.1942
G01 X33.6253 Y49.1576
G01 X33.5955 Y49.0386
G01 X33.5880 Y49.0011
G01 X33.5700 Y48.8797
G01 X33.5662 Y48.8417
G01 X33.5602 Y48.7191
G01 X33.5602 Y48.6809
G01 X33.5662 Y48.5583
G01 X33.5700 Y48.5203
G01 X33.5880 Y48.3989
G01 X33.5955 Y48.3614
G01 X33.6253 Y48.2424
G01 X33.6364 Y48.2058
G01 X33.6777 Y48.0903
G01 X33.6923 Y48.0549
G01 X33.7448 Y47.9440
G01 X33.7628 Y47.9103
G01 X33.8259 Y47.8050
G01 X33.8472 Y47.7732
G01 X33.9202 Y47.6747
G01 X33.9445 Y47.6451
G01 X34.0269 Y47.5542
G01 X34.0540 Y47.5271
G01 X34.1449 Y47.4448
G01 X34.1744 Y47.4205
G01 X34.2730 Y47.3474
G01 X34.3048 Y47.3261
G01 X34.4100 Y47.2631
G01 X34.4438 Y47.2450
G01 X34.5546 Y47.1926
G01 X34.5900 Y47.1779
G01 X34.7055 Y47.1366
G01 X34.7421 Y47.1255
G01 X34.8611 Y47.0957
G01 X34.8886 Y47.0903
G01 X33.1997 Y47.0903
G01 X33.1806 Y47.0898
G01 X33.1316 Y47.0874
G01 X33.0935 Y47.0836
G01 X33.0449 Y47.0764
G01 X33.0074 Y47.0690
G01 X32.9598 Y47.0570
G01 X32.9231 Y47.0459
G01 X32.8769 Y47.0294
G01 X32.8416 Y47.0147
G01 X32.7972 Y46.9937
G01 X32.7634 Y46.9757
G01 X32.7213 Y46.9505
G01 X32.6895 Y46.9292
G01 X32.6501 Y46.8999
G01 X32.6205 Y46.8757
G01 X32.5841 Y46.8427
G01 X32.5702 Y46.8295
G01 X31.5702 Y45.8295
G01 X31.5570 Y45.8156
G01 X31.5241 Y45.7793
G01 X31.4998 Y45.7497
G01 X31.4706 Y45.7102
G01 X31.4493 Y45.6784
G01 X31.4241 Y45.6363
G01 X31.4060 Y45.6026
G01 X31.3850 Y45.5582
G01 X31.3704 Y45.5228
G01 X31.3538 Y45.4766
G01 X31.3427 Y45.4400
G01 X31.3308 Y45.3924
G01 X31.3233 Y45.3548
G01 X31.3161 Y45.3063
G01 X31.3124 Y45.2682
G01 X31.3100 Y45.2191
G01 X31.3095 Y45.2000
G01 X31.3095 Y37.5688
G01 X28.4910 Y34.7503
G01 X24.1924 Y34.7503
G01 X24.1309 Y34.8060
G01 X24.1013 Y34.8303
G01 X24.0343 Y34.8800
G01 X24.0025 Y34.9013
G01 X23.9309 Y34.9441
G01 X23.8972 Y34.9622
G01 X23.8218 Y34.9979
G01 X23.7864 Y35.0125
G01 X23.7079 Y35.0406
G01 X23.6713 Y35.0517
G01 X23.5903 Y35.0720
G01 X23.5528 Y35.0794
G01 X23.4703 Y35.0917
G01 X23.4322 Y35.0954
G01 X23.3489 Y35.0995
G01 X23.3297 Y35.1000
G01 X22.8297 Y35.1000
G01 X22.8106 Y35.0995
G01 X22.7273 Y35.0954
G01 X22.6892 Y35.0917
G01 X22.6067 Y35.0794
G01 X22.5692 Y35.0720
G01 X22.4882 Y35.0517
G01 X22.4516 Y35.0406
G01 X22.3731 Y35.0125
G01 X22.3377 Y34.9979
G01 X22.2623 Y34.9622
G01 X22.2286 Y34.9441
G01 X22.1570 Y34.9013
G01 X22.1252 Y34.8800
G01 X22.0582 Y34.8303
G01 X22.0286 Y34.8060
G01 X21.9668 Y34.7500
G01 X21.9397 Y34.7229
G01 X21.8837 Y34.6611
G01 X21.8594 Y34.6316
G01 X21.8097 Y34.5646
G01 X21.7885 Y34.5327
G01 X21.7456 Y34.4612
G01 X21.7276 Y34.4274
G01 X21.6919 Y34.3520
G01 X21.6773 Y34.3167
G01 X21.6491 Y34.2381
G01 X21.6380 Y34.2015
G01 X21.6178 Y34.1206
G01 X21.6103 Y34.0831
G01 X21.5981 Y34.0005
G01 X21.5943 Y33.9625
G01 X21.5902 Y33.8791
G01 X21.5902 Y33.8409
G01 X21.5943 Y33.7575
G01 X21.5981 Y33.7195
G01 X21.6103 Y33.6369
G01 X21.6178 Y33.5994
G01 X21.6380 Y33.5185
G01 X21.6491 Y33.4819
G01 X21.6773 Y33.4033
G01 X21.6919 Y33.3680
G01 X21.7276 Y33.2926
G01 X21.7456 Y33.2588
G01 X21.7885 Y33.1873
G01 X21.8097 Y33.1554
G01 X21.8594 Y33.0884
G01 X21.8837 Y33.0589
G01 X21.9397 Y32.9971
G01 X21.9668 Y32.9700
G01 X22.0286 Y32.9140
G01 X22.0582 Y32.8897
G01 X22.1252 Y32.8400
G01 X22.1570 Y32.8187
G01 X22.2286 Y32.7759
G01 X22.2623 Y32.7578
G01 X22.3377 Y32.7221
G01 X22.3731 Y32.7075
G01 X22.4516 Y32.6794
G01 X22.4882 Y32.6683
G01 X22.5692 Y32.6480
G01 X22.6067 Y32.6406
G01 X22.6892 Y32.6283
G01 X22.7273 Y32.6246
G01 X22.8106 Y32.6205
G01 X22.8297 Y32.6200
G01 X23.3297 Y32.6200
G01 X23.3489 Y32.6205
G01 X23.4322 Y32.6246
G01 X23.4703 Y32.6283
G01 X23.5528 Y32.6406
G01 X23.5903 Y32.6480
G01 X23.6713 Y32.6683
G01 X23.7079 Y32.6794
G01 X23.7864 Y32.7075
G01 X23.8218 Y32.7221
G01 X23.8972 Y32.7578
G01 X23.9309 Y32.7759
G01 X24.0025 Y32.8187
G01 X24.0343 Y32.8400
G01 X24.1013 Y32.8897
G01 X24.1309 Y32.9140
G01 X24.1924 Y32.9697
G01 X28.8597 Y32.9697
G01 X28.8789 Y32.9702
G01 X28.9279 Y32.9726
G01 X28.9660 Y32.9764
G01 X29.0146 Y32.9836
G01 X29.0521 Y32.9910
G01 X29.0997 Y33.0030
G01 X29.1364 Y33.0141
G01 X29.1826 Y33.0306
G01 X29.2179 Y33.0453
G01 X29.2623 Y33.0663
G01 X29.2961 Y33.0843
G01 X29.3382 Y33.1095
G01 X29.3700 Y33.1308
G01 X29.4094 Y33.1601
G01 X29.4390 Y33.1843
G01 X29.4754 Y33.2173
G01 X29.4893 Y33.2305
G01 X32.8293 Y36.5705
G01 X32.8425 Y36.5844
G01 X32.8754 Y36.6207
G01 X32.8997 Y36.6503
G01 X32.9289 Y36.6898
G01 X32.9502 Y36.7216
G01 X32.9754 Y36.7637
G01 X32.9935 Y36.7974
G01 X33.0145 Y36.8418
G01 X33.0291 Y36.8772
G01 X33.0457 Y36.9234
G01 X33.0568 Y36.9600
G01 X33.0687 Y37.0076
G01 X33.0762 Y37.0452
G01 X33.0834 Y37.0937
G01 X33.0871 Y37.1318
G01 X33.0895 Y37.1809
G01 X33.0900 Y37.2000
G01 X33.0900 Y40.8888
G01 X33.0955 Y40.8614
G01 X33.1253 Y40.7424
G01 X33.1364 Y40.7058
G01 X33.1777 Y40.5903
G01 X33.1923 Y40.5549
G01 X33.2448 Y40.4440
G01 X33.2628 Y40.4103
G01 X33.3259 Y40.3050
G01 X33.3472 Y40.2732
G01 X33.4202 Y40.1747
G01 X33.4445 Y40.1451
G01 X33.5269 Y40.0542
G01 X33.5540 Y40.0271
G01 X33.6449 Y39.9448
G01 X33.6744 Y39.9205
G01 X33.7730 Y39.8474
G01 X33.8048 Y39.8261
G01 X33.9100 Y39.7631
G01 X33.9438 Y39.7450
G01 X34.0546 Y39.6926
G01 X34.0900 Y39.6779
G01 X34.2055 Y39.6366
G01 X34.2421 Y39.6255
G01 X34.3611 Y39.5957
G01 X34.3987 Y39.5882
G01 X34.5200 Y39.5702
G01 X34.5581 Y39.5665
G01 X34.6806 Y39.5605
G01 X34.7189 Y39.5605
G01 X34.8414 Y39.5665
G01 X34.8795 Y39.5702
G01 X35.0008 Y39.5882
G01 X35.0384 Y39.5957
G01 X35.1574 Y39.6255
G01 X35.1940 Y39.6366
G01 X35.3095 Y39.6779
G01 X35.3449 Y39.6926
G01 X35.4557 Y39.7450
G01 X35.4895 Y39.7631
G01 X35.5947 Y39.8261
G01 X35.6265 Y39.8474
G01 X35.7251 Y39.9205
G01 X35.7546 Y39.9448
G01 X35.8455 Y40.0271
G01 X35.8726 Y40.0542
G01 X35.9550 Y40.1451
G01 X35.9793 Y40.1747
G01 X36.0523 Y40.2732
G01 X36.0736 Y40.3050
G01 X36.1367 Y40.4103
G01 X36.1547 Y40.4440
G01 X36.2072 Y40.5549
G01 X36.2216 Y40.5897
G01 X37.2071 Y40.5897
G01 X37.2686 Y40.5340
G01 X37.2982 Y40.5097
G01 X37.3652 Y40.4600
G01 X37.3970 Y40.4387
G01 X37.4686 Y40.3959
G01 X37.5023 Y40.3778
G01 X37.5777 Y40.3421
G01 X37.6131 Y40.3275
G01 X37.6916 Y40.2994
G01 X37.7282 Y40.2883
G01 X37.8092 Y40.2680
G01 X37.8467 Y40.2606
G01 X37.9292 Y40.2483
G01 X37.9673 Y40.2446
G01 X38.0506 Y40.2405
G01 X38.0697 Y40.2400
G01 X38.5697 Y40.2400
G01 X38.5889 Y40.2405
G01 X38.6722 Y40.2446
G01 X38.7103 Y40.2483
G01 X38.7928 Y40.2606
G01 X38.8303 Y40.2680
G01 X38.9113 Y40.2883
G01 X38.9479 Y40.2994
G01 X39.0264 Y40.3275
G01 X39.0618 Y40.3421
G01 X39.1372 Y40.3778
G01 X39.1709 Y40.3959
G01 X39.2425 Y40.4387
G01 X39.2743 Y40.4600
G01 X39.3413 Y40.5097
G01 X39.3709 Y40.5340
G01 X39.4327 Y40.5900
G01 X39.4598 Y40.6171
G01 X39.5158 Y40.6789
G01 X39.5401 Y40.7084
G01 X39.5897 Y40.7754
G01 X39.6110 Y40.8073
G01 X39.6539 Y40.8788
G01 X39.6719 Y40.9126
G01 X39.7076 Y40.9880
G01 X39.7222 Y41.0233
G01 X39.7504 Y41.1019
G01 X39.7615 Y41.1385
G01 X39.7817 Y41.2194
G01 X39.7892 Y41.2569
G01 X39.8014 Y41.3395
G01 X39.8052 Y41.3775
G01 X39.8093 Y41.4609
G01 X39.8093 Y41.4991
G01 X39.8052 Y41.5825
G01 X39.8014 Y41.6205
G01 X39.7892 Y41.7031
G01 X39.7817 Y41.7406
G01 X39.7615 Y41.8215
G01 X39.7504 Y41.8581
G01 X39.7222 Y41.9367
G01 X39.7076 Y41.9720
G01 X39.6719 Y42.0474
G01 X39.6539 Y42.0812
G01 X39.6110 Y42.1527
G01 X39.5897 Y42.1846
G01 X39.5401 Y42.2516
G01 X39.5158 Y42.2811
G01 X39.4598 Y42.3429
G01 X39.4327 Y42.3700
G01 X39.3709 Y42.4260
G01 X39.3413 Y42.4503
G01 X39.2743 Y42.5000
G01 X39.2425 Y42.5213
G01 X39.1709 Y42.5641
G01 X39.1372 Y42.5822
G01 X39.0618 Y42.6179
G01 X39.0264 Y42.6325
G01 X38.9479 Y42.6606
G01 X38.9113 Y42.6717
G01 X38.8303 Y42.6920
G01 X38.7928 Y42.6994
G01 X38.7103 Y42.7117
G01 X38.6722 Y42.7154
G01 X38.5889 Y42.7195
G01 X38.5697 Y42.7200
G01 X38.0697 Y42.7200
G01 X38.0506 Y42.7195
G01 X37.9673 Y42.7154
G01 X37.9292 Y42.7117
G01 X37.8467 Y42.6994
G01 X37.8092 Y42.6920
G01 X37.7282 Y42.6717
G01 X37.6916 Y42.6606
G01 X37.6131 Y42.6325
G01 X37.5777 Y42.6179
G01 X37.5023 Y42.5822
G01 X37.4686 Y42.5641
G01 X37.3970 Y42.5213
G01 X37.3652 Y42.5000
G01 X37.2982 Y42.4503
G01 X37.2686 Y42.4260
G01 X37.2071 Y42.3703
G01 X35.8481 Y42.3703
G01 X35.7546 Y42.4552
G01 X35.7251 Y42.4795
G01 X35.6265 Y42.5526
G01 X35.5947 Y42.5739
G01 X35.4895 Y42.6369
G01 X35.4557 Y42.6550
G01 X35.3449 Y42.7074
G01 X35.3095 Y42.7221
G01 X35.1940 Y42.7634
G01 X35.1574 Y42.7745
G01 X35.0384 Y42.8043
G01 X35.0008 Y42.8118
G01 X34.8795 Y42.8298
G01 X34.8414 Y42.8335
G01 X34.7189 Y42.8395
G01 X34.6806 Y42.8395
G01 X34.5581 Y42.8335
G01 X34.5200 Y42.8298
G01 X34.3987 Y42.8118
G01 X34.3611 Y42.8043
G01 X34.2421 Y42.7745
G01 X34.2055 Y42.7634
G01 X34.0900 Y42.7221
G01 X34.0546 Y42.7074
G01 X33.9438 Y42.6550
G01 X33.9100 Y42.6369
G01 X33.8048 Y42.5739
G01 X33.7730 Y42.5526
G01 X33.6744 Y42.4795
G01 X33.6449 Y42.4552
G01 X33.5540 Y42.3729
G01 X33.5269 Y42.3458
G01 X33.4445 Y42.2549
G01 X33.4202 Y42.2253
G01 X33.3472 Y42.1268
G01 X33.3259 Y42.0950
G01 X33.2628 Y41.9897
G01 X33.2448 Y41.9560
G01 X33.1923 Y41.8451
G01 X33.1777 Y41.8097
G01 X33.1364 Y41.6942
G01 X33.1253 Y41.6576
G01 X33.0955 Y41.5386
G01 X33.0900 Y41.5112
G01 X33.0900 Y44.8312
G01 X33.5685 Y45.3097
G01 X37.6997 Y45.3097
G01 X37.7189 Y45.3102
G01 X37.7679 Y45.3126
G01 X37.8060 Y45.3164
G01 X37.8546 Y45.3236
G01 X37.8921 Y45.3310
G01 X37.9397 Y45.3430
G01 X37.9764 Y45.3541
G01 X38.0226 Y45.3706
G01 X38.0579 Y45.3853
G01 X38.1023 Y45.4063
G01 X38.1361 Y45.4243
G01 X38.1782 Y45.4495
G01 X38.2100 Y45.4708
G01 X38.2494 Y45.5001
G01 X38.2790 Y45.5243
G01 X38.3154 Y45.5573
G01 X38.3293 Y45.5705
G01 X41.8293 Y49.0705
G01 X41.8425 Y49.0844
G01 X41.8754 Y49.1207
G01 X41.8997 Y49.1503
G01 X41.9289 Y49.1898
G01 X41.9502 Y49.2216
G01 X41.9754 Y49.2637
G01 X41.9935 Y49.2974
G01 X42.0145 Y49.3418
G01 X42.0291 Y49.3772
G01 X42.0457 Y49.4234
G01 X42.0568 Y49.4600
G01 X42.0687 Y49.5076
G01 X42.0762 Y49.5452
G01 X42.0834 Y49.5937
G01 X42.0871 Y49.6318
G01 X42.0895 Y49.6809
G01 X42.0900 Y49.7000
G01 X42.0900 Y51.6473
G01 X42.1458 Y51.7089
G01 X42.1701 Y51.7384
G01 X42.2197 Y51.8054
G01 X42.2410 Y51.8373
G01 X42.2839 Y51.9088
G01 X42.3019 Y51.9426
G01 X42.3376 Y52.0180
G01 X42.3497 Y52.0473
G01 X42.3497 Y51.6600
G01 X42.3516 Y51.6218
G01 X42.3572 Y51.5839
G01 X42.3665 Y51.5468
G01 X42.3794 Y51.5108
G01 X42.3958 Y51.4762
G01 X42.4155 Y51.4433
G01 X42.4383 Y51.4126
G01 X42.4640 Y51.3842
G01 X42.4923 Y51.3585
G01 X42.5231 Y51.3357
G01 X42.5559 Y51.3161
G01 X42.5905 Y51.2997
G01 X42.6265 Y51.2868
G01 X42.6637 Y51.2775
G01 X42.7015 Y51.2719
G01 X42.7397 Y51.2700
G01 X44.7397 Y51.2700
G01 X44.7780 Y51.2719
G01 X44.8158 Y51.2775
G01 X44.8530 Y51.2868
G01 X44.8890 Y51.2997
G01 X44.9236 Y51.3161
G01 X44.9564 Y51.3357
G01 X44.9872 Y51.3585
G01 X45.0155 Y51.3842
G01 X45.0412 Y51.4126
G01 X45.0640 Y51.4433
G01 X45.0837 Y51.4762
G01 X45.1001 Y51.5108
G01 X45.1130 Y51.5468
G01 X45.1223 Y51.5839
G01 X45.1279 Y51.6218
G01 X45.1297 Y51.6600
G01 X45.1297 Y51.7697
G01 X45.8710 Y51.7697
G01 X47.3095 Y50.3312
G01 X47.3095 Y41.2000
G01 X47.3100 Y41.1809
G01 X47.3124 Y41.1318
G01 X47.3161 Y41.0937
G01 X47.3233 Y41.0452
G01 X47.3308 Y41.0076
G01 X47.3427 Y40.9600
G01 X47.3538 Y40.9234
G01 X47.3704 Y40.8772
G01 X47.3850 Y40.8418
G01 X47.4060 Y40.7974
G01 X47.4241 Y40.7637
G01 X47.4493 Y40.7216
G01 X47.4706 Y40.6898
G01 X47.4998 Y40.6503
G01 X47.5241 Y40.6207
G01 X47.5570 Y40.5844
G01 X47.5702 Y40.5705
G01 X51.3095 Y36.8312
G01 X51.3095 Y35.0900
G01 X51.1997 Y35.0900
G01 X51.1615 Y35.0881
G01 X51.1237 Y35.0825
G01 X51.0865 Y35.0732
G01 X51.0505 Y35.0603
G01 X51.0159 Y35.0439
G01 X50.9831 Y35.0243
G01 X50.9523 Y35.0015
G01 X50.9240 Y34.9758
G01 X50.8983 Y34.9474
G01 X50.8755 Y34.9167
G01 X50.8558 Y34.8838
G01 X50.8394 Y34.8492
G01 X50.8265 Y34.8132
G01 X50.8172 Y34.7761
G01 X50.8116 Y34.7382
G01 X50.8097 Y34.7000
G01 X50.8097 Y32.7000
G01 X50.8116 Y32.6618
G01 X50.8172 Y32.6239
G01 X50.8265 Y32.5868
G01 X50.8394 Y32.5508
G01 X50.8558 Y32.5162
G01 X50.8755 Y32.4833
G01 X50.8983 Y32.4526
G01 X50.9240 Y32.4242
G01 X50.9523 Y32.3985
G01 X50.9831 Y32.3757
G01 X51.0159 Y32.3561
G01 X51.0505 Y32.3397
G01 X51.0865 Y32.3268
G01 X51.1237 Y32.3175
G01 X51.1615 Y32.3119
G01 X51.1997 Y32.3100
G01 X51.3095 Y32.3100
G01 X51.3095 Y32.1535
G01 X51.2782 Y32.1303
G01 X51.2486 Y32.1060
G01 X51.1868 Y32.0500
G01 X51.1597 Y32.0229
G01 X51.1037 Y31.9611
G01 X51.0794 Y31.9316
G01 X51.0297 Y31.8646
G01 X51.0085 Y31.8327
G01 X50.9656 Y31.7612
G01 X50.9476 Y31.7274
G01 X50.9119 Y31.6520
G01 X50.8973 Y31.6167
G01 X50.8691 Y31.5381
G01 X50.8580 Y31.5015
G01 X50.8378 Y31.4206
G01 X50.8303 Y31.3831
G01 X50.8181 Y31.3005
G01 X50.8143 Y31.2625
G01 X50.8102 Y31.1791
G01 X50.8102 Y31.1409
G01 X50.8143 Y31.0575
G01 X50.8181 Y31.0195
G01 X50.8303 Y30.9369
G01 X50.8378 Y30.8994
G01 X50.8580 Y30.8185
G01 X50.8691 Y30.7819
G01 X50.8973 Y30.7033
G01 X50.9119 Y30.6680
G01 X50.9476 Y30.5926
G01 X50.9656 Y30.5588
G01 X51.0085 Y30.4873
G01 X51.0297 Y30.4554
G01 X51.0794 Y30.3884
G01 X51.1037 Y30.3589
G01 X51.1597 Y30.2971
G01 X51.1868 Y30.2700
G01 X51.2486 Y30.2140
G01 X51.2782 Y30.1897
G01 X51.3095 Y30.1665
G01 X51.3095 Y29.6135
G01 X51.2782 Y29.5903
G01 X51.2486 Y29.5660
G01 X51.1868 Y29.5100
G01 X51.1597 Y29.4829
G01 X51.1037 Y29.4211
G01 X51.0794 Y29.3916
G01 X51.0297 Y29.3246
G01 X51.0085 Y29.2927
G01 X50.9656 Y29.2212
G01 X50.9476 Y29.1874
G01 X50.9119 Y29.1120
G01 X50.8973 Y29.0767
G01 X50.8691 Y28.9981
G01 X50.8580 Y28.9615
G01 X50.8378 Y28.8806
G01 X50.8303 Y28.8431
G01 X50.8181 Y28.7605
G01 X50.8143 Y28.7225
G01 X50.8102 Y28.6391
G01 X50.8102 Y28.6009
G01 X50.8143 Y28.5175
G01 X50.8181 Y28.4795
G01 X50.8303 Y28.3969
G01 X50.8378 Y28.3594
G01 X50.8580 Y28.2785
G01 X50.8691 Y28.2419
G01 X50.8973 Y28.1633
G01 X50.9119 Y28.1280
G01 X50.9476 Y28.0526
G01 X50.9656 Y28.0188
G01 X51.0085 Y27.9473
G01 X51.0297 Y27.9154
G01 X51.0794 Y27.8484
G01 X51.1037 Y27.8189
G01 X51.1597 Y27.7571
G01 X51.1868 Y27.7300
G01 X51.2486 Y27.6740
G01 X51.2782 Y27.6497
G01 X51.3095 Y27.6265
G01 X51.3095 Y27.0735
G01 X51.2782 Y27.0503
G01 X51.2486 Y27.0260
G01 X51.1868 Y26.9700
G01 X51.1597 Y26.9429
G01 X51.1037 Y26.8811
G01 X51.0794 Y26.8516
G01 X51.0297 Y26.7846
G01 X51.0085 Y26.7527
G01 X50.9656 Y26.6812
G01 X50.9476 Y26.6474
G01 X50.9119 Y26.5720
G01 X50.8973 Y26.5367
G01 X50.8691 Y26.4581
G01 X50.8580 Y26.4215
G01 X50.8378 Y26.3406
G01 X50.8303 Y26.3031
G01 X50.8181 Y26.2205
G01 X50.8143 Y26.1825
G01 X50.8102 Y26.0991
G01 X50.8102 Y26.0609
G01 X50.8143 Y25.9775
G01 X50.8181 Y25.9395
G01 X50.8303 Y25.8569
G01 X50.8378 Y25.8194
G01 X50.8580 Y25.7385
G01 X50.8691 Y25.7019
G01 X50.8973 Y25.6233
G01 X50.9119 Y25.5880
G01 X50.9476 Y25.5126
G01 X50.9656 Y25.4788
G01 X51.0085 Y25.4073
G01 X51.0297 Y25.3754
G01 X51.0794 Y25.3084
G01 X51.1037 Y25.2789
G01 X51.1597 Y25.2171
G01 X51.1868 Y25.1900
G01 X51.2486 Y25.1340
G01 X51.2782 Y25.1097
G01 X51.3095 Y25.0865
G01 X51.3095 Y24.5335
G01 X51.2782 Y24.5103
G01 X51.2486 Y24.4860
G01 X51.1868 Y24.4300
G01 X51.1597 Y24.4029
G01 X51.1037 Y24.3411
G01 X51.0794 Y24.3116
G01 X51.0297 Y24.2446
G01 X51.0085 Y24.2127
G01 X50.9656 Y24.1412
G01 X50.9476 Y24.1074
G01 X50.9119 Y24.0320
G01 X50.8973 Y23.9967
G01 X50.8691 Y23.9181
G01 X50.8580 Y23.8815
G01 X50.8378 Y23.8006
G01 X50.8303 Y23.7631
G01 X50.8181 Y23.6805
G01 X50.8143 Y23.6425
