(G-CODE GENERATED BY FLATCAM v8.991 - www.flatcam.org - Version Date: 2019/12/27)

(Name: 4)
(Type: G-code from Geometry)
(Units: MM)

(Created on Wednesday, 08 April 2020 at 14:37)

(TOOL DIAMETER: 0.3 mm)
(Feedrate: 120.0 mm/min)
(Feedrate_Z: 60.0 mm/min)
(Feedrate rapids 1500.0 mm/min)

(Z_Cut: -0.15 mm)
(Z_Move: 2.0 mm)
(Z Toolchange: 15.0 mm)
(X,Y Toolchange: 0.0000, 0.0000 mm)
(Z Start: None mm)
(Z End: 4.0 mm)
(Steps per circle: 64)
(Preprocessor Geometry: default)

(X range:    0.1897 ...   60.2100  mm)
(Y range:    0.6897 ...   60.2103  mm)

(Spindle Speed: None RPM)
G21
G90
G94




G01 F120.00
G00 Z2.0000

M03
G00 X9.7608 Y2.7103
G01 F60.00
G01 Z-0.1500
G01 F120.00
G01 X7.7100 Y4.7610
G01 X7.7100 Y4.6185
G01 X9.6182 Y2.7103
G01 X9.7608 Y2.7103
G00 Z2.0000
G00 X13.6408 Y12.6497
G01 F60.00
G01 Z-0.1500
G01 F120.00
G01 X12.5782 Y12.6497
G01 X12.4141 Y12.4856
G01 X12.3960 Y12.4684
G01 X12.3596 Y12.4354
G01 X12.3209 Y12.4037
G01 X12.2815 Y12.3744
G01 X12.2399 Y12.3466
G01 X12.1978 Y12.3214
G01 X12.1536 Y12.2978
G01 X12.1092 Y12.2768
G01 X12.0630 Y12.2576
G01 X12.0168 Y12.2411
G01 X11.9689 Y12.2266
G01 X11.9213 Y12.2146
G01 X11.8722 Y12.2049
G01 X11.8236 Y12.1977
G01 X11.7738 Y12.1928
G01 X11.7248 Y12.1904
G01 X11.6997 Y12.1897
G01 X9.6182 Y12.1897
G01 X9.2100 Y11.7815
G01 X9.2100 Y11.1350
G01 X9.2230 Y11.1567
G01 X9.2508 Y11.1983
G01 X9.3239 Y11.2968
G01 X9.3556 Y11.3355
G01 X9.4380 Y11.4264
G01 X9.4734 Y11.4618
G01 X9.5643 Y11.5441
G01 X9.6030 Y11.5759
G01 X9.7015 Y11.6490
G01 X9.7431 Y11.6768
G01 X9.8483 Y11.7398
G01 X9.8925 Y11.7634
G01 X10.0033 Y11.8159
G01 X10.0496 Y11.8350
G01 X10.1651 Y11.8764
G01 X10.2130 Y11.8909
G01 X10.3320 Y11.9207
G01 X10.3811 Y11.9305
G01 X10.5024 Y11.9485
G01 X10.5522 Y11.9534
G01 X10.6747 Y11.9594
G01 X10.7248 Y11.9594
G01 X10.8473 Y11.9534
G01 X10.8971 Y11.9485
G01 X11.0184 Y11.9305
G01 X11.0675 Y11.9207
G01 X11.1865 Y11.8909
G01 X11.2344 Y11.8764
G01 X11.3499 Y11.8350
G01 X11.3962 Y11.8159
G01 X11.5070 Y11.7634
G01 X11.5512 Y11.7398
G01 X11.6564 Y11.6768
G01 X11.6980 Y11.6490
G01 X11.7965 Y11.5759
G01 X11.8352 Y11.5441
G01 X11.9261 Y11.4618
G01 X11.9615 Y11.4264
G01 X12.0439 Y11.3355
G01 X12.0756 Y11.2968
G01 X12.0879 Y11.2803
G01 X13.1997 Y11.2803
G01 X13.2116 Y11.3607
G01 X13.2214 Y11.4097
G01 X13.2416 Y11.4907
G01 X13.2562 Y11.5386
G01 X13.2843 Y11.6171
G01 X13.3034 Y11.6633
G01 X13.3391 Y11.7387
G01 X13.3627 Y11.7829
G01 X13.4056 Y11.8544
G01 X13.4334 Y11.8960
G01 X13.4831 Y11.9630
G01 X13.5148 Y12.0017
G01 X13.5708 Y12.0635
G01 X13.6062 Y12.0989
G01 X13.6680 Y12.1549
G01 X13.7067 Y12.1867
G01 X13.7737 Y12.2364
G01 X13.8153 Y12.2642
G01 X13.8869 Y12.3071
G01 X13.9310 Y12.3307
G01 X14.0064 Y12.3663
G01 X14.0527 Y12.3855
G01 X14.0653 Y12.3900
G01 X14.0527 Y12.3945
G01 X14.0064 Y12.4137
G01 X13.9310 Y12.4493
G01 X13.8869 Y12.4729
G01 X13.8153 Y12.5158
G01 X13.7737 Y12.5436
G01 X13.7067 Y12.5933
G01 X13.6680 Y12.6251
G01 X13.6408 Y12.6497
G00 Z2.0000
G00 X15.8410 Y17.6897
G01 F60.00
G01 Z-0.1500
G01 F120.00
G01 X15.8478 Y17.6880
G01 X15.8949 Y17.6712
G01 X15.9402 Y17.6498
G01 X15.9831 Y17.6240
G01 X16.0233 Y17.5942
G01 X16.0604 Y17.5606
G01 X16.0940 Y17.5235
G01 X16.1238 Y17.4833
G01 X16.1495 Y17.4404
G01 X16.1709 Y17.3952
G01 X16.1878 Y17.3480
G01 X16.2000 Y17.2995
G01 X16.2073 Y17.2500
G01 X16.2097 Y17.2000
G01 X16.2097 Y17.0903
G01 X21.9208 Y17.0903
G01 X21.9480 Y17.1149
G01 X21.9867 Y17.1467
G01 X22.0537 Y17.1964
G01 X22.0953 Y17.2242
G01 X22.1669 Y17.2671
G01 X22.2110 Y17.2907
G01 X22.2864 Y17.3263
G01 X22.3327 Y17.3455
G01 X22.3453 Y17.3500
G01 X22.3327 Y17.3545
G01 X22.2864 Y17.3737
G01 X22.2110 Y17.4093
G01 X22.1669 Y17.4329
G01 X22.0953 Y17.4758
G01 X22.0537 Y17.5036
G01 X21.9867 Y17.5533
G01 X21.9480 Y17.5851
G01 X21.9208 Y17.6097
G01 X20.9797 Y17.6097
G01 X20.9547 Y17.6104
G01 X20.9057 Y17.6128
G01 X20.8559 Y17.6177
G01 X20.8073 Y17.6249
G01 X20.7582 Y17.6346
G01 X20.7106 Y17.6466
G01 X20.6627 Y17.6611
G01 X20.6165 Y17.6776
G01 X20.5873 Y17.6897
G01 X15.8410 Y17.6897
G00 Z2.0000
G00 X16.2073 Y20.1497
G01 F60.00
G01 Z-0.1500
G01 F120.00
G01 X16.2000 Y20.1005
G01 X16.1878 Y20.0520
G01 X16.1709 Y20.0048
G01 X16.1495 Y19.9596
G01 X16.1238 Y19.9167
G01 X16.0940 Y19.8765
G01 X16.0604 Y19.8394
G01 X16.0233 Y19.8058
G01 X15.9831 Y19.7760
G01 X15.9402 Y19.7502
G01 X15.8949 Y19.7288
G01 X15.8478 Y19.7120
G01 X15.8410 Y19.7103
G01 X20.8997 Y19.7103
G01 X20.9248 Y19.7096
G01 X20.9738 Y19.7072
G01 X21.0236 Y19.7023
G01 X21.0722 Y19.6951
G01 X21.1213 Y19.6854
G01 X21.1689 Y19.6734
G01 X21.2168 Y19.6589
G01 X21.2630 Y19.6424
G01 X21.2922 Y19.6303
G01 X21.9208 Y19.6303
G01 X21.9480 Y19.6549
G01 X21.9867 Y19.6867
G01 X22.0537 Y19.7364
G01 X22.0953 Y19.7642
G01 X22.1669 Y19.8071
G01 X22.2110 Y19.8307
G01 X22.2864 Y19.8663
G01 X22.3327 Y19.8855
G01 X22.3453 Y19.8900
G01 X22.3327 Y19.8945
G01 X22.2864 Y19.9137
G01 X22.2110 Y19.9493
G01 X22.1669 Y19.9729
G01 X22.0953 Y20.0158
G01 X22.0537 Y20.0436
G01 X21.9867 Y20.0933
G01 X21.9480 Y20.1251
G01 X21.9208 Y20.1497
G01 X16.2073 Y20.1497
G00 Z2.0000
G00 X15.8410 Y22.6897
G01 F60.00
G01 Z-0.1500
G01 F120.00
G01 X15.8478 Y22.6880
G01 X15.8949 Y22.6712
G01 X15.9402 Y22.6498
G01 X15.9831 Y22.6240
G01 X16.0233 Y22.5942
G01 X16.0604 Y22.5606
G01 X16.0940 Y22.5235
G01 X16.1238 Y22.4833
G01 X16.1495 Y22.4404
G01 X16.1709 Y22.3952
G01 X16.1878 Y22.3480
G01 X16.2000 Y22.2995
G01 X16.2073 Y22.2500
G01 X16.2097 Y22.2000
G01 X16.2097 Y22.1703
G01 X21.9208 Y22.1703
G01 X21.9480 Y22.1949
G01 X21.9867 Y22.2267
G01 X22.0537 Y22.2764
G01 X22.0953 Y22.3042
G01 X22.1669 Y22.3471
G01 X22.2110 Y22.3707
G01 X22.2864 Y22.4063
G01 X22.3327 Y22.4255
G01 X22.3453 Y22.4300
G01 X22.3327 Y22.4345
G01 X22.2864 Y22.4537
G01 X22.2110 Y22.4893
G01 X22.1669 Y22.5129
G01 X22.0953 Y22.5558
G01 X22.0537 Y22.5836
G01 X21.9867 Y22.6333
G01 X21.9480 Y22.6651
G01 X21.9208 Y22.6897
G01 X15.8410 Y22.6897
G00 Z2.0000
G00 X10.6895 Y25.7650
G01 F60.00
G01 Z-0.1500
G01 F120.00
G01 X10.6765 Y25.7433
G01 X10.6487 Y25.7017
G01 X10.5756 Y25.6032
G01 X10.5439 Y25.5645
G01 X10.4615 Y25.4736
G01 X10.4261 Y25.4382
G01 X10.3352 Y25.3559
G01 X10.2965 Y25.3241
G01 X10.2100 Y25.2599
G01 X10.2100 Y19.3862
G01 X10.7562 Y18.8400
G01 X10.7409 Y18.8830
G01 X10.7263 Y18.9309
G01 X10.7144 Y18.9785
G01 X10.7046 Y19.0276
G01 X10.6974 Y19.0761
G01 X10.6925 Y19.1259
G01 X10.6901 Y19.1750
G01 X10.6895 Y19.2000
G01 X10.6895 Y25.7650
G00 Z2.0000
G00 X12.3534 Y29.4750
G01 F60.00
G01 Z-0.1500
G01 F120.00
G01 X12.4141 Y29.4144
G01 X12.4314 Y29.3962
G01 X12.4643 Y29.3599
G01 X12.4961 Y29.3212
G01 X12.5253 Y29.2817
G01 X12.5531 Y29.2401
G01 X12.5784 Y29.1980
G01 X12.6020 Y29.1539
G01 X12.6230 Y29.1095
G01 X12.6421 Y29.0633
G01 X12.6586 Y29.0170
G01 X12.6732 Y28.9691
G01 X12.6851 Y28.9215
G01 X12.6949 Y28.8724
G01 X12.7021 Y28.8239
G01 X12.7070 Y28.7741
G01 X12.7094 Y28.7250
G01 X12.7100 Y28.7000
G01 X12.7100 Y19.7103
G01 X13.5585 Y19.7103
G01 X13.5517 Y19.7120
G01 X13.5046 Y19.7288
G01 X13.4593 Y19.7502
G01 X13.4164 Y19.7760
G01 X13.3762 Y19.8058
G01 X13.3391 Y19.8394
G01 X13.3055 Y19.8765
G01 X13.2757 Y19.9167
G01 X13.2500 Y19.9596
G01 X13.2286 Y20.0048
G01 X13.2117 Y20.0520
G01 X13.1995 Y20.1005
G01 X13.1922 Y20.1500
G01 X13.1897 Y20.2000
G01 X13.1897 Y22.2000
G01 X13.1922 Y22.2500
G01 X13.1995 Y22.2995
G01 X13.2117 Y22.3480
G01 X13.2286 Y22.3952
G01 X13.2500 Y22.4404
G01 X13.2757 Y22.4833
G01 X13.3055 Y22.5235
G01 X13.3391 Y22.5606
G01 X13.3762 Y22.5942
G01 X13.4164 Y22.6240
G01 X13.4593 Y22.6498
G01 X13.5046 Y22.6712
G01 X13.5517 Y22.6880
G01 X13.6003 Y22.7002
G01 X13.6498 Y22.7075
G01 X13.6645 Y22.7083
G01 X13.6062 Y22.7611
G01 X13.5708 Y22.7965
G01 X13.5148 Y22.8583
G01 X13.4831 Y22.8970
G01 X13.4334 Y22.9640
G01 X13.4056 Y23.0056
G01 X13.3627 Y23.0771
G01 X13.3391 Y23.1213
G01 X13.3034 Y23.1967
G01 X13.2843 Y23.2429
G01 X13.2562 Y23.3214
G01 X13.2416 Y23.3693
G01 X13.2214 Y23.4503
G01 X13.2116 Y23.4993
G01 X13.1994 Y23.5819
G01 X13.1945 Y23.6317
G01 X13.1904 Y23.7150
G01 X13.1904 Y23.7650
G01 X13.1945 Y23.8483
G01 X13.1994 Y23.8981
G01 X13.2116 Y23.9807
G01 X13.2214 Y24.0297
G01 X13.2416 Y24.1107
G01 X13.2562 Y24.1586
G01 X13.2843 Y24.2371
G01 X13.3034 Y24.2833
G01 X13.3391 Y24.3587
G01 X13.3627 Y24.4029
G01 X13.4056 Y24.4744
G01 X13.4334 Y24.5160
G01 X13.4831 Y24.5830
G01 X13.5148 Y24.6217
G01 X13.5708 Y24.6835
G01 X13.6062 Y24.7189
G01 X13.6680 Y24.7749
G01 X13.7067 Y24.8067
G01 X13.7737 Y24.8564
G01 X13.8153 Y24.8842
G01 X13.8869 Y24.9271
G01 X13.9310 Y24.9507
G01 X14.0064 Y24.9863
G01 X14.0527 Y25.0055
G01 X14.1312 Y25.0336
G01 X14.1791 Y25.0481
G01 X14.2600 Y25.0684
G01 X14.3091 Y25.0781
G01 X14.3916 Y25.0904
G01 X14.4414 Y25.0953
G01 X14.5247 Y25.0994
G01 X14.5497 Y25.1000
G01 X14.8497 Y25.1000
G01 X14.8748 Y25.0994
G01 X14.9581 Y25.0953
G01 X15.0079 Y25.0904
G01 X15.0904 Y25.0781
G01 X15.1395 Y25.0684
G01 X15.2204 Y25.0481
G01 X15.2683 Y25.0336
G01 X15.3468 Y25.0055
G01 X15.3931 Y24.9863
G01 X15.4685 Y24.9507
G01 X15.5126 Y24.9271
G01 X15.5842 Y24.8842
G01 X15.6258 Y24.8564
G01 X15.6928 Y24.8067
G01 X15.7315 Y24.7749
G01 X15.7933 Y24.7189
G01 X15.8020 Y24.7103
G01 X21.9208 Y24.7103
G01 X21.9480 Y24.7349
G01 X21.9867 Y24.7667
G01 X22.0537 Y24.8164
G01 X22.0953 Y24.8442
G01 X22.1669 Y24.8871
G01 X22.2110 Y24.9107
G01 X22.2864 Y24.9463
G01 X22.3327 Y24.9655
G01 X22.3453 Y24.9700
G01 X22.3327 Y24.9745
G01 X22.2864 Y24.9937
G01 X22.2110 Y25.0293
G01 X22.1669 Y25.0529
G01 X22.0953 Y25.0958
G01 X22.0537 Y25.1236
G01 X21.9867 Y25.1733
G01 X21.9480 Y25.2051
G01 X21.9208 Y25.2297
G01 X20.2397 Y25.2297
G01 X20.2147 Y25.2304
G01 X20.1657 Y25.2328
G01 X20.1159 Y25.2377
G01 X20.0673 Y25.2449
G01 X20.0182 Y25.2546
G01 X19.9706 Y25.2666
G01 X19.9227 Y25.2811
G01 X19.8765 Y25.2976
G01 X19.8303 Y25.3168
G01 X19.7859 Y25.3378
G01 X19.7417 Y25.3614
G01 X19.6996 Y25.3866
G01 X19.6580 Y25.4144
G01 X19.6186 Y25.4437
G01 X19.5799 Y25.4754
G01 X19.5435 Y25.5084
G01 X19.5254 Y25.5256
G01 X14.9854 Y30.0656
G01 X14.9681 Y30.0838
G01 X14.9352 Y30.1201
G01 X14.9034 Y30.1588
G01 X14.8742 Y30.1983
G01 X14.8464 Y30.2399
G01 X14.8211 Y30.2820
G01 X14.7975 Y30.3261
G01 X14.7765 Y30.3705
G01 X14.7574 Y30.4167
G01 X14.7409 Y30.4630
G01 X14.7263 Y30.5109
G01 X14.7144 Y30.5585
G01 X14.7046 Y30.6076
G01 X14.6974 Y30.6561
G01 X14.6925 Y30.7059
G01 X14.6901 Y30.7550
G01 X14.6895 Y30.7800
G01 X14.6895 Y36.0006
G01 X14.6851 Y35.9785
G01 X14.6732 Y35.9309
G01 X14.6586 Y35.8830
G01 X14.6421 Y35.8367
G01 X14.6230 Y35.7905
G01 X14.6020 Y35.7461
G01 X14.5784 Y35.7020
G01 X14.5531 Y35.6599
G01 X14.5253 Y35.6183
G01 X14.4961 Y35.5788
G01 X14.4643 Y35.5401
G01 X14.4314 Y35.5038
G01 X14.4141 Y35.4856
G01 X13.2065 Y34.2781
G01 X13.2091 Y34.2250
G01 X13.2091 Y34.1750
G01 X13.2043 Y34.0770
G01 X13.1994 Y34.0272
G01 X13.1850 Y33.9301
G01 X13.1753 Y33.8810
G01 X13.1514 Y33.7858
G01 X13.1369 Y33.7379
G01 X13.1038 Y33.6455
G01 X13.0847 Y33.5993
G01 X13.0427 Y33.5106
G01 X13.0191 Y33.4664
G01 X12.9687 Y33.3822
G01 X12.9409 Y33.3406
G01 X12.8824 Y33.2618
G01 X12.8506 Y33.2231
G01 X12.7847 Y33.1504
G01 X12.7494 Y33.1150
G01 X12.7100 Y33.0793
G01 X12.7100 Y32.9594
G01 X12.7248 Y32.9594
G01 X12.8473 Y32.9534
G01 X12.8971 Y32.9485
G01 X13.0184 Y32.9305
G01 X13.0675 Y32.9207
G01 X13.1865 Y32.8909
G01 X13.2344 Y32.8764
G01 X13.3499 Y32.8350
G01 X13.3962 Y32.8159
G01 X13.5070 Y32.7634
G01 X13.5512 Y32.7398
G01 X13.6564 Y32.6768
G01 X13.6980 Y32.6490
G01 X13.7965 Y32.5759
G01 X13.8352 Y32.5441
G01 X13.9261 Y32.4618
G01 X13.9615 Y32.4264
G01 X14.0439 Y32.3355
G01 X14.0756 Y32.2968
G01 X14.1487 Y32.1983
G01 X14.1765 Y32.1567
G01 X14.2396 Y32.0514
G01 X14.2632 Y32.0073
G01 X14.3156 Y31.8964
G01 X14.3348 Y31.8502
G01 X14.3761 Y31.7347
G01 X14.3906 Y31.6868
G01 X14.4204 Y31.5678
G01 X14.4302 Y31.5187
G01 X14.4482 Y31.3974
G01 X14.4531 Y31.3475
G01 X14.4591 Y31.2250
G01 X14.4591 Y31.1750
G01 X14.4531 Y31.0525
G01 X14.4482 Y31.0026
G01 X14.4302 Y30.8813
G01 X14.4204 Y30.8322
G01 X14.3906 Y30.7132
G01 X14.3761 Y30.6653
G01 X14.3348 Y30.5498
G01 X14.3156 Y30.5036
G01 X14.2632 Y30.3927
G01 X14.2396 Y30.3486
G01 X14.1765 Y30.2433
G01 X14.1487 Y30.2017
G01 X14.0756 Y30.1032
G01 X14.0439 Y30.0645
G01 X13.9615 Y29.9736
G01 X13.9261 Y29.9382
G01 X13.8352 Y29.8559
G01 X13.7965 Y29.8241
G01 X13.6980 Y29.7510
G01 X13.6564 Y29.7232
G01 X13.5512 Y29.6602
G01 X13.5070 Y29.6366
G01 X13.3962 Y29.5841
G01 X13.3499 Y29.5650
G01 X13.2344 Y29.5236
G01 X13.1865 Y29.5091
G01 X13.0675 Y29.4793
G01 X13.0184 Y29.4695
G01 X12.8971 Y29.4515
G01 X12.8473 Y29.4466
G01 X12.7248 Y29.4406
G01 X12.6747 Y29.4406
G01 X12.5522 Y29.4466
G01 X12.5024 Y29.4515
G01 X12.3811 Y29.4695
G01 X12.3534 Y29.4750
G00 Z2.0000
G00 X16.7100 Y31.5006
G01 F60.00
G01 Z-0.1500
G01 F120.00
G01 X16.7100 Y31.1985
G01 X20.6582 Y27.2503
G01 X21.9208 Y27.2503
G01 X21.9480 Y27.2749
G01 X21.9867 Y27.3067
G01 X22.0537 Y27.3564
G01 X22.0953 Y27.3842
G01 X22.1669 Y27.4271
G01 X22.2110 Y27.4507
G01 X22.2864 Y27.4863
G01 X22.3327 Y27.5055
G01 X22.3453 Y27.5100
G01 X22.3327 Y27.5145
G01 X22.2864 Y27.5337
G01 X22.2110 Y27.5693
G01 X22.1669 Y27.5929
G01 X22.0953 Y27.6358
G01 X22.0537 Y27.6636
G01 X21.9867 Y27.7133
G01 X21.9480 Y27.7451
G01 X21.9208 Y27.7697
G01 X20.6197 Y27.7697
G01 X20.5947 Y27.7704
G01 X20.5457 Y27.7728
G01 X20.4959 Y27.7777
G01 X20.4473 Y27.7849
G01 X20.3982 Y27.7946
G01 X20.3506 Y27.8066
G01 X20.3027 Y27.8211
G01 X20.2565 Y27.8376
G01 X20.2103 Y27.8568
G01 X20.1659 Y27.8778
G01 X20.1217 Y27.9014
G01 X20.0796 Y27.9266
G01 X20.0380 Y27.9544
G01 X19.9986 Y27.9837
G01 X19.9599 Y28.0154
G01 X19.9235 Y28.0484
G01 X19.9054 Y28.0656
G01 X16.9854 Y30.9856
G01 X16.9681 Y31.0038
G01 X16.9352 Y31.0401
G01 X16.9034 Y31.0788
G01 X16.8742 Y31.1183
G01 X16.8464 Y31.1599
G01 X16.8211 Y31.2020
G01 X16.7975 Y31.2461
G01 X16.7765 Y31.2905
G01 X16.7574 Y31.3367
G01 X16.7409 Y31.3830
G01 X16.7263 Y31.4309
G01 X16.7144 Y31.4785
G01 X16.7100 Y31.5006
G00 Z2.0000
G00 X18.7100 Y32.4006
G01 F60.00
G01 Z-0.1500
G01 F120.00
G01 X18.7100 Y32.1185
G01 X21.0382 Y29.7903
G01 X21.9208 Y29.7903
G01 X21.9480 Y29.8149
G01 X21.9867 Y29.8467
G01 X22.0537 Y29.8964
G01 X22.0953 Y29.9242
G01 X22.1669 Y29.9671
G01 X22.2110 Y29.9907
G01 X22.2864 Y30.0263
G01 X22.3327 Y30.0455
G01 X22.3453 Y30.0500
G01 X22.3327 Y30.0545
G01 X22.2864 Y30.0737
G01 X22.2110 Y30.1093
G01 X22.1669 Y30.1329
G01 X22.0953 Y30.1758
G01 X22.0537 Y30.2036
G01 X21.9867 Y30.2533
G01 X21.9480 Y30.2851
G01 X21.9208 Y30.3097
G01 X20.9797 Y30.3097
G01 X20.9547 Y30.3104
G01 X20.9057 Y30.3128
G01 X20.8559 Y30.3177
G01 X20.8073 Y30.3249
G01 X20.7582 Y30.3346
G01 X20.7106 Y30.3466
G01 X20.6627 Y30.3611
G01 X20.6165 Y30.3776
G01 X20.5703 Y30.3968
G01 X20.5259 Y30.4178
G01 X20.4817 Y30.4414
G01 X20.4396 Y30.4666
G01 X20.3980 Y30.4944
G01 X20.3586 Y30.5237
G01 X20.3199 Y30.5554
G01 X20.2835 Y30.5884
G01 X20.2654 Y30.6056
G01 X18.9854 Y31.8856
G01 X18.9681 Y31.9038
G01 X18.9352 Y31.9401
G01 X18.9034 Y31.9788
G01 X18.8742 Y32.0183
G01 X18.8464 Y32.0599
G01 X18.8211 Y32.1020
G01 X18.7975 Y32.1461
G01 X18.7765 Y32.1905
G01 X18.7574 Y32.2367
G01 X18.7409 Y32.2830
G01 X18.7263 Y32.3309
G01 X18.7144 Y32.3785
G01 X18.7100 Y32.4006
G00 Z2.0000
G00 X24.6801 Y36.2419
G01 F60.00
G01 Z-0.1500
G01 F120.00
G01 X24.6679 Y36.1593
G01 X24.6581 Y36.1103
G01 X24.6379 Y36.0293
G01 X24.6233 Y35.9814
G01 X24.5952 Y35.9029
G01 X24.5761 Y35.8567
G01 X24.5404 Y35.7813
G01 X24.5168 Y35.7371
G01 X24.4739 Y35.6656
G01 X24.4461 Y35.6240
G01 X24.3964 Y35.5570
G01 X24.3647 Y35.5183
G01 X24.3087 Y35.4565
G01 X24.2733 Y35.4211
G01 X24.2115 Y35.3651
G01 X24.1728 Y35.3333
G01 X24.1058 Y35.2836
G01 X24.0642 Y35.2558
G01 X23.9926 Y35.2129
G01 X23.9485 Y35.1893
G01 X23.8731 Y35.1537
G01 X23.8268 Y35.1345
G01 X23.8142 Y35.1300
G01 X23.8268 Y35.1255
G01 X23.8731 Y35.1063
G01 X23.9485 Y35.0707
G01 X23.9926 Y35.0471
G01 X24.0642 Y35.0042
G01 X24.1058 Y34.9764
G01 X24.1728 Y34.9267
G01 X24.2115 Y34.8949
G01 X24.2387 Y34.8703
G01 X28.4413 Y34.8703
G01 X31.1895 Y37.6185
G01 X31.1895 Y45.2000
G01 X31.1901 Y45.2250
G01 X31.1925 Y45.2741
G01 X31.1974 Y45.3239
G01 X31.2046 Y45.3724
G01 X31.2144 Y45.4215
G01 X31.2263 Y45.4691
G01 X31.2409 Y45.5170
G01 X31.2574 Y45.5633
G01 X31.2765 Y45.6095
G01 X31.2975 Y45.6539
G01 X31.3211 Y45.6980
G01 X31.3464 Y45.7401
G01 X31.3742 Y45.7817
G01 X31.4034 Y45.8212
G01 X31.4352 Y45.8599
G01 X31.4681 Y45.8962
G01 X31.4854 Y45.9144
G01 X32.4854 Y46.9144
G01 X32.5035 Y46.9316
G01 X32.5399 Y46.9646
G01 X32.5786 Y46.9963
G01 X32.6180 Y47.0256
G01 X32.6596 Y47.0534
G01 X32.7017 Y47.0786
G01 X32.7459 Y47.1022
G01 X32.7903 Y47.1232
G01 X32.8365 Y47.1424
G01 X32.8827 Y47.1589
G01 X32.9306 Y47.1734
G01 X32.9782 Y47.1854
G01 X33.0273 Y47.1951
G01 X33.0759 Y47.2023
G01 X33.1257 Y47.2072
G01 X33.1747 Y47.2096
G01 X33.1997 Y47.2103
G01 X34.2647 Y47.2103
G01 X34.2431 Y47.2232
G01 X34.2015 Y47.2510
G01 X34.1030 Y47.3241
G01 X34.0643 Y47.3559
G01 X33.9734 Y47.4382
G01 X33.9380 Y47.4736
G01 X33.8556 Y47.5645
G01 X33.8239 Y47.6032
G01 X33.7508 Y47.7017
G01 X33.7230 Y47.7433
G01 X33.6599 Y47.8486
G01 X33.6363 Y47.8927
G01 X33.5839 Y48.0036
G01 X33.5647 Y48.0498
G01 X33.5234 Y48.1653
G01 X33.5089 Y48.2132
G01 X33.4791 Y48.3322
G01 X33.4693 Y48.3813
G01 X33.4513 Y48.5026
G01 X33.4464 Y48.5525
G01 X33.4404 Y48.6750
G01 X33.4404 Y48.7250
G01 X33.4464 Y48.8475
G01 X33.4513 Y48.8974
G01 X33.4693 Y49.0187
G01 X33.4791 Y49.0678
G01 X33.5089 Y49.1868
G01 X33.5234 Y49.2347
G01 X33.5647 Y49.3502
G01 X33.5839 Y49.3964
G01 X33.6363 Y49.5073
G01 X33.6599 Y49.5514
G01 X33.7230 Y49.6567
G01 X33.7508 Y49.6983
G01 X33.8239 Y49.7968
G01 X33.8556 Y49.8355
G01 X33.9380 Y49.9264
G01 X33.9734 Y49.9618
G01 X34.0643 Y50.0441
G01 X34.1030 Y50.0759
G01 X34.2015 Y50.1490
G01 X34.2431 Y50.1768
G01 X34.3483 Y50.2398
G01 X34.3925 Y50.2634
G01 X34.5033 Y50.3159
G01 X34.5496 Y50.3350
G01 X34.6651 Y50.3764
G01 X34.7130 Y50.3909
G01 X34.8320 Y50.4207
G01 X34.8811 Y50.4305
G01 X35.0024 Y50.4485
G01 X35.0522 Y50.4534
G01 X35.1747 Y50.4594
G01 X35.2248 Y50.4594
G01 X35.3473 Y50.4534
G01 X35.3971 Y50.4485
G01 X35.5184 Y50.4305
G01 X35.5675 Y50.4207
G01 X35.6865 Y50.3909
G01 X35.7344 Y50.3764
G01 X35.8499 Y50.3350
G01 X35.8962 Y50.3159
G01 X36.0070 Y50.2634
G01 X36.0512 Y50.2398
G01 X36.1564 Y50.1768
G01 X36.1980 Y50.1490
G01 X36.2965 Y50.0759
G01 X36.3352 Y50.0441
G01 X36.4261 Y49.9618
G01 X36.4615 Y49.9264
G01 X36.4786 Y49.9075
G01 X36.7909 Y50.2199
G01 X36.7975 Y50.2339
G01 X36.8211 Y50.2780
G01 X36.8464 Y50.3201
G01 X36.8742 Y50.3617
G01 X36.9034 Y50.4012
G01 X36.9352 Y50.4399
G01 X36.9681 Y50.4762
G01 X36.9854 Y50.4944
G01 X37.6495 Y51.1585
G01 X37.6495 Y51.6010
G01 X37.6248 Y51.6283
G01 X37.5931 Y51.6670
G01 X37.5434 Y51.7340
G01 X37.5156 Y51.7756
G01 X37.4727 Y51.8471
G01 X37.4491 Y51.8913
G01 X37.4134 Y51.9667
G01 X37.3943 Y52.0129
G01 X37.3897 Y52.0255
G01 X37.3852 Y52.0129
G01 X37.3661 Y51.9667
G01 X37.3304 Y51.8913
G01 X37.3068 Y51.8471
G01 X37.2639 Y51.7756
G01 X37.2361 Y51.7340
G01 X37.1864 Y51.6670
G01 X37.1547 Y51.6283
G01 X37.0987 Y51.5665
G01 X37.0633 Y51.5311
G01 X37.0015 Y51.4751
G01 X36.9628 Y51.4433
G01 X36.8958 Y51.3936
G01 X36.8542 Y51.3658
G01 X36.7826 Y51.3229
G01 X36.7385 Y51.2993
G01 X36.6631 Y51.2637
G01 X36.6168 Y51.2445
G01 X36.5383 Y51.2164
G01 X36.4904 Y51.2019
G01 X36.4095 Y51.1816
G01 X36.3604 Y51.1719
G01 X36.2779 Y51.1596
G01 X36.2281 Y51.1547
G01 X36.1448 Y51.1506
G01 X36.0947 Y51.1506
G01 X36.0114 Y51.1547
G01 X35.9616 Y51.1596
G01 X35.8791 Y51.1719
G01 X35.8300 Y51.1816
G01 X35.7491 Y51.2019
G01 X35.7012 Y51.2164
G01 X35.6227 Y51.2445
G01 X35.5764 Y51.2637
G01 X35.5010 Y51.2993
G01 X35.4569 Y51.3229
G01 X35.3853 Y51.3658
G01 X35.3437 Y51.3936
G01 X35.2767 Y51.4433
G01 X35.2380 Y51.4751
G01 X35.1762 Y51.5311
G01 X35.1408 Y51.5665
G01 X35.0848 Y51.6283
G01 X35.0672 Y51.6497
G01 X26.0782 Y51.6497
G01 X24.0900 Y49.6615
G01 X24.0900 Y42.6069
G01 X24.1058 Y42.5964
G01 X24.1728 Y42.5467
G01 X24.2115 Y42.5149
G01 X24.2733 Y42.4589
G01 X24.3087 Y42.4235
G01 X24.3647 Y42.3617
G01 X24.3964 Y42.3230
G01 X24.4461 Y42.2560
G01 X24.4739 Y42.2144
G01 X24.5168 Y42.1429
G01 X24.5404 Y42.0987
G01 X24.5761 Y42.0233
G01 X24.5952 Y41.9771
G01 X24.6233 Y41.8986
G01 X24.6379 Y41.8507
G01 X24.6581 Y41.7697
G01 X24.6679 Y41.7207
G01 X24.6801 Y41.6381
G01 X24.6850 Y41.5883
G01 X24.6891 Y41.5050
G01 X24.6891 Y41.4550
G01 X24.6850 Y41.3717
G01 X24.6801 Y41.3219
G01 X24.6679 Y41.2393
G01 X24.6581 Y41.1903
G01 X24.6379 Y41.1093
G01 X24.6233 Y41.0614
G01 X24.5952 Y40.9829
G01 X24.5761 Y40.9367
G01 X24.5404 Y40.8613
G01 X24.5168 Y40.8171
G01 X24.4739 Y40.7456
G01 X24.4461 Y40.7040
G01 X24.3964 Y40.6370
G01 X24.3647 Y40.5983
G01 X24.3087 Y40.5365
G01 X24.2733 Y40.5011
G01 X24.2115 Y40.4451
G01 X24.1728 Y40.4133
G01 X24.1058 Y40.3636
G01 X24.0642 Y40.3358
G01 X23.9926 Y40.2929
G01 X23.9485 Y40.2693
G01 X23.8731 Y40.2337
G01 X23.8268 Y40.2145
G01 X23.8142 Y40.2100
G01 X23.8268 Y40.2055
G01 X23.8731 Y40.1863
G01 X23.9485 Y40.1507
G01 X23.9926 Y40.1271
G01 X24.0642 Y40.0842
G01 X24.1058 Y40.0564
G01 X24.1728 Y40.0067
G01 X24.2115 Y39.9749
G01 X24.2387 Y39.9503
G01 X28.0213 Y39.9503
G01 X28.9395 Y40.8685
G01 X28.9395 Y44.9439
G01 X28.9302 Y44.8813
G01 X28.9204 Y44.8322
G01 X28.8906 Y44.7132
G01 X28.8761 Y44.6653
G01 X28.8348 Y44.5498
G01 X28.8156 Y44.5036
G01 X28.7632 Y44.3927
G01 X28.7396 Y44.3486
G01 X28.6765 Y44.2433
G01 X28.6487 Y44.2017
G01 X28.5756 Y44.1032
G01 X28.5439 Y44.0645
G01 X28.4615 Y43.9736
G01 X28.4261 Y43.9382
G01 X28.3352 Y43.8559
G01 X28.2965 Y43.8241
G01 X28.1980 Y43.7510
G01 X28.1564 Y43.7232
G01 X28.0512 Y43.6602
G01 X28.0070 Y43.6366
G01 X27.8962 Y43.5841
G01 X27.8499 Y43.5650
G01 X27.7344 Y43.5236
G01 X27.6865 Y43.5091
G01 X27.5675 Y43.4793
G01 X27.5184 Y43.4695
G01 X27.3971 Y43.4515
G01 X27.3473 Y43.4466
G01 X27.2248 Y43.4406
G01 X27.1747 Y43.4406
G01 X27.0522 Y43.4466
G01 X27.0024 Y43.4515
G01 X26.8811 Y43.4695
G01 X26.8320 Y43.4793
G01 X26.7130 Y43.5091
G01 X26.6651 Y43.5236
G01 X26.5496 Y43.5650
G01 X26.5033 Y43.5841
G01 X26.3925 Y43.6366
G01 X26.3483 Y43.6602
G01 X26.2431 Y43.7232
G01 X26.2015 Y43.7510
G01 X26.1030 Y43.8241
G01 X26.0643 Y43.8559
G01 X25.9734 Y43.9382
G01 X25.9380 Y43.9736
G01 X25.8556 Y44.0645
G01 X25.8239 Y44.1032
G01 X25.7508 Y44.2017
G01 X25.7230 Y44.2433
G01 X25.6599 Y44.3486
G01 X25.6363 Y44.3927
G01 X25.5839 Y44.5036
G01 X25.5647 Y44.5498
G01 X25.5234 Y44.6653
G01 X25.5089 Y44.7132
G01 X25.4791 Y44.8322
G01 X25.4693 Y44.8813
G01 X25.4513 Y45.0026
G01 X25.4464 Y45.0525
G01 X25.4404 Y45.1750
G01 X25.4404 Y45.2250
G01 X25.4464 Y45.3475
G01 X25.4513 Y45.3974
G01 X25.4693 Y45.5187
G01 X25.4791 Y45.5678
G01 X25.5089 Y45.6868
G01 X25.5234 Y45.7347
G01 X25.5647 Y45.8502
G01 X25.5839 Y45.8964
G01 X25.6363 Y46.0073
G01 X25.6599 Y46.0514
G01 X25.7230 Y46.1567
G01 X25.7508 Y46.1983
G01 X25.8239 Y46.2968
G01 X25.8556 Y46.3355
G01 X25.9380 Y46.4264
G01 X25.9734 Y46.4618
G01 X26.0643 Y46.5441
G01 X26.1030 Y46.5759
G01 X26.1374 Y46.6014
G01 X25.4854 Y47.2534
G01 X25.4681 Y47.2715
G01 X25.4352 Y47.3079
G01 X25.4034 Y47.3466
G01 X25.3742 Y47.3860
G01 X25.3464 Y47.4276
G01 X25.3211 Y47.4698
G01 X25.2975 Y47.5139
G01 X25.2765 Y47.5583
G01 X25.2574 Y47.6045
G01 X25.2409 Y47.6507
G01 X25.2263 Y47.6986
G01 X25.2156 Y47.7416
G01 X25.2015 Y47.7510
G01 X25.1030 Y47.8241
G01 X25.0643 Y47.8559
G01 X24.9734 Y47.9382
G01 X24.9380 Y47.9736
G01 X24.8556 Y48.0645
G01 X24.8239 Y48.1032
G01 X24.7508 Y48.2017
G01 X24.7230 Y48.2433
G01 X24.6599 Y48.3486
G01 X24.6363 Y48.3927
G01 X24.5839 Y48.5036
G01 X24.5647 Y48.5498
G01 X24.5234 Y48.6653
G01 X24.5089 Y48.7132
G01 X24.4791 Y48.8322
G01 X24.4693 Y48.8813
G01 X24.4513 Y49.0026
G01 X24.4464 Y49.0525
G01 X24.4404 Y49.1750
G01 X24.4404 Y49.2250
G01 X24.4464 Y49.3475
G01 X24.4513 Y49.3974
G01 X24.4693 Y49.5187
G01 X24.4791 Y49.5678
G01 X24.5089 Y49.6868
G01 X24.5234 Y49.7347
G01 X24.5647 Y49.8502
G01 X24.5839 Y49.8964
G01 X24.6363 Y50.0073
G01 X24.6599 Y50.0514
G01 X24.7230 Y50.1567
G01 X24.7508 Y50.1983
G01 X24.8239 Y50.2968
G01 X24.8556 Y50.3355
G01 X24.9380 Y50.4264
G01 X24.9734 Y50.4618
G01 X25.0643 Y50.5441
G01 X25.1030 Y50.5759
G01 X25.2015 Y50.6490
G01 X25.2431 Y50.6768
G01 X25.3483 Y50.7398
G01 X25.3925 Y50.7634
G01 X25.5033 Y50.8159
G01 X25.5496 Y50.8350
G01 X25.6651 Y50.8764
G01 X25.7130 Y50.8909
G01 X25.8320 Y50.9207
G01 X25.8811 Y50.9305
G01 X26.0024 Y50.9485
G01 X26.0522 Y50.9534
G01 X26.1747 Y50.9594
G01 X26.2248 Y50.9594
G01 X26.3473 Y50.9534
G01 X26.3971 Y50.9485
G01 X26.5184 Y50.9305
G01 X26.5675 Y50.9207
G01 X26.6865 Y50.8909
G01 X26.7344 Y50.8764
G01 X26.8499 Y50.8350
G01 X26.8962 Y50.8159
G01 X27.0070 Y50.7634
G01 X27.0512 Y50.7398
G01 X27.1564 Y50.6768
G01 X27.1980 Y50.6490
G01 X27.2965 Y50.5759
G01 X27.3352 Y50.5441
G01 X27.4261 Y50.4618
G01 X27.4615 Y50.4264
G01 X27.5439 Y50.3355
G01 X27.5756 Y50.2968
G01 X27.6487 Y50.1983
G01 X27.6765 Y50.1567
G01 X27.7396 Y50.0514
G01 X27.7632 Y50.0073
G01 X27.8156 Y49.8964
G01 X27.8348 Y49.8502
G01 X27.8761 Y49.7347
G01 X27.8906 Y49.6868
G01 X27.9204 Y49.5678
G01 X27.9302 Y49.5187
G01 X27.9482 Y49.3974
G01 X27.9531 Y49.3475
G01 X27.9591 Y49.2250
G01 X27.9591 Y49.1750
G01 X27.9531 Y49.0525
G01 X27.9482 Y49.0026
G01 X27.9302 Y48.8813
G01 X27.9204 Y48.8322
G01 X27.8906 Y48.7132
G01 X27.8761 Y48.6653
G01 X27.8348 Y48.5498
G01 X27.8156 Y48.5036
G01 X27.7632 Y48.3927
G01 X27.7396 Y48.3486
G01 X27.6765 Y48.2433
G01 X27.6487 Y48.2017
G01 X27.5756 Y48.1032
G01 X27.5439 Y48.0645
G01 X27.5381 Y48.0581
G01 X27.9141 Y47.6821
G01 X27.9314 Y47.6640
G01 X27.9643 Y47.6276
G01 X27.9961 Y47.5889
G01 X28.0253 Y47.5495
G01 X28.0531 Y47.5079
G01 X28.0784 Y47.4658
G01 X28.1020 Y47.4216
G01 X28.1230 Y47.3773
G01 X28.1421 Y47.3310
G01 X28.1586 Y47.2848
G01 X28.1732 Y47.2369
G01 X28.1851 Y47.1893
G01 X28.1949 Y47.1402
G01 X28.2021 Y47.0916
G01 X28.2070 Y47.0418
G01 X28.2094 Y46.9928
G01 X28.2100 Y46.9678
G01 X28.2100 Y46.6401
G01 X28.2965 Y46.5759
G01 X28.3352 Y46.5441
G01 X28.4261 Y46.4618
G01 X28.4615 Y46.4264
G01 X28.5439 Y46.3355
G01 X28.5756 Y46.2968
G01 X28.6487 Y46.1983
G01 X28.6765 Y46.1567
G01 X28.7396 Y46.0514
G01 X28.7632 Y46.0073
G01 X28.8156 Y45.8964
G01 X28.8348 Y45.8502
G01 X28.8761 Y45.7347
G01 X28.8906 Y45.6868
G01 X28.9204 Y45.5678
G01 X28.9302 Y45.5187
G01 X28.9395 Y45.4561
G01 X28.9395 Y47.9500
G01 X28.9401 Y47.9750
G01 X28.9425 Y48.0241
G01 X28.9474 Y48.0739
G01 X28.9546 Y48.1224
G01 X28.9644 Y48.1715
G01 X28.9763 Y48.2191
G01 X28.9909 Y48.2670
G01 X29.0074 Y48.3133
G01 X29.0265 Y48.3595
G01 X29.0475 Y48.4039
G01 X29.0711 Y48.4480
G01 X29.0964 Y48.4901
G01 X29.1242 Y48.5317
G01 X29.1534 Y48.5712
G01 X29.1852 Y48.6099
G01 X29.2181 Y48.6462
G01 X29.2354 Y48.6644
G01 X29.4671 Y48.8961
G01 X29.4513 Y49.0026
G01 X29.4464 Y49.0525
G01 X29.4404 Y49.1750
G01 X29.4404 Y49.2250
G01 X29.4464 Y49.3475
G01 X29.4513 Y49.3974
G01 X29.4693 Y49.5187
G01 X29.4791 Y49.5678
G01 X29.5089 Y49.6868
G01 X29.5234 Y49.7347
G01 X29.5647 Y49.8502
G01 X29.5839 Y49.8964
G01 X29.6363 Y50.0073
G01 X29.6599 Y50.0514
G01 X29.7230 Y50.1567
G01 X29.7508 Y50.1983
G01 X29.8239 Y50.2968
G01 X29.8556 Y50.3355
G01 X29.9380 Y50.4264
G01 X29.9734 Y50.4618
G01 X30.0643 Y50.5441
G01 X30.1030 Y50.5759
G01 X30.2015 Y50.6490
G01 X30.2431 Y50.6768
G01 X30.3483 Y50.7398
G01 X30.3925 Y50.7634
G01 X30.5033 Y50.8159
G01 X30.5496 Y50.8350
G01 X30.6651 Y50.8764
G01 X30.7130 Y50.8909
G01 X30.8320 Y50.9207
G01 X30.8811 Y50.9305
G01 X31.0024 Y50.9485
G01 X31.0522 Y50.9534
G01 X31.1747 Y50.9594
G01 X31.2248 Y50.9594
G01 X31.3473 Y50.9534
G01 X31.3971 Y50.9485
G01 X31.5184 Y50.9305
G01 X31.5675 Y50.9207
G01 X31.6865 Y50.8909
G01 X31.7344 Y50.8764
G01 X31.8499 Y50.8350
G01 X31.8962 Y50.8159
G01 X32.0070 Y50.7634
G01 X32.0512 Y50.7398
G01 X32.1564 Y50.6768
G01 X32.1980 Y50.6490
G01 X32.2965 Y50.5759
G01 X32.3352 Y50.5441
G01 X32.4261 Y50.4618
G01 X32.4615 Y50.4264
G01 X32.5439 Y50.3355
G01 X32.5756 Y50.2968
G01 X32.6487 Y50.1983
G01 X32.6765 Y50.1567
G01 X32.7396 Y50.0514
G01 X32.7632 Y50.0073
G01 X32.8156 Y49.8964
G01 X32.8348 Y49.8502
G01 X32.8761 Y49.7347
G01 X32.8906 Y49.6868
G01 X32.9204 Y49.5678
G01 X32.9302 Y49.5187
G01 X32.9482 Y49.3974
G01 X32.9531 Y49.3475
G01 X32.9591 Y49.2250
G01 X32.9591 Y49.1750
G01 X32.9531 Y49.0525
G01 X32.9482 Y49.0026
G01 X32.9302 Y48.8813
G01 X32.9204 Y48.8322
G01 X32.8906 Y48.7132
G01 X32.8761 Y48.6653
G01 X32.8348 Y48.5498
G01 X32.8156 Y48.5036
G01 X32.7632 Y48.3927
G01 X32.7396 Y48.3486
G01 X32.6765 Y48.2433
G01 X32.6487 Y48.2017
G01 X32.5756 Y48.1032
G01 X32.5439 Y48.0645
G01 X32.4615 Y47.9736
G01 X32.4261 Y47.9382
G01 X32.3352 Y47.8559
G01 X32.2965 Y47.8241
G01 X32.1980 Y47.7510
G01 X32.1564 Y47.7232
G01 X32.0512 Y47.6602
G01 X32.0070 Y47.6366
G01 X31.8962 Y47.5841
G01 X31.8499 Y47.5650
G01 X31.7344 Y47.5236
G01 X31.6865 Y47.5091
G01 X31.5675 Y47.4793
G01 X31.5184 Y47.4695
G01 X31.3971 Y47.4515
G01 X31.3473 Y47.4466
G01 X31.2248 Y47.4406
G01 X31.1747 Y47.4406
G01 X31.0522 Y47.4466
G01 X31.0024 Y47.4515
G01 X30.9600 Y47.4578
G01 X30.9600 Y40.4500
G01 X30.9594 Y40.4250
G01 X30.9570 Y40.3759
G01 X30.9521 Y40.3261
G01 X30.9449 Y40.2776
G01 X30.9351 Y40.2285
G01 X30.9232 Y40.1809
G01 X30.9086 Y40.1330
G01 X30.8921 Y40.0867
G01 X30.8730 Y40.0405
G01 X30.8520 Y39.9961
G01 X30.8284 Y39.9520
G01 X30.8031 Y39.9099
G01 X30.7753 Y39.8683
G01 X30.7461 Y39.8288
G01 X30.7143 Y39.7902
G01 X30.6814 Y39.7538
G01 X30.6641 Y39.7356
G01 X29.1541 Y38.2256
G01 X29.1360 Y38.2084
G01 X29.0996 Y38.1754
G01 X29.0609 Y38.1437
G01 X29.0215 Y38.1144
G01 X28.9799 Y38.0866
G01 X28.9378 Y38.0614
G01 X28.8936 Y38.0378
G01 X28.8492 Y38.0168
G01 X28.8030 Y37.9976
G01 X28.7568 Y37.9811
G01 X28.7089 Y37.9666
G01 X28.6613 Y37.9546
G01 X28.6122 Y37.9449
G01 X28.5636 Y37.9377
G01 X28.5138 Y37.9328
G01 X28.4648 Y37.9304
G01 X28.4397 Y37.9297
G01 X24.2387 Y37.9297
G01 X24.2115 Y37.9051
G01 X24.1728 Y37.8733
G01 X24.1058 Y37.8236
G01 X24.0642 Y37.7958
G01 X23.9926 Y37.7529
G01 X23.9485 Y37.7293
G01 X23.8731 Y37.6937
G01 X23.8268 Y37.6745
G01 X23.8142 Y37.6700
G01 X23.8268 Y37.6655
G01 X23.8731 Y37.6463
G01 X23.9485 Y37.6107
G01 X23.9926 Y37.5871
G01 X24.0642 Y37.5442
G01 X24.1058 Y37.5164
G01 X24.1728 Y37.4667
G01 X24.2115 Y37.4349
G01 X24.2733 Y37.3789
G01 X24.3087 Y37.3435
G01 X24.3647 Y37.2817
G01 X24.3964 Y37.2430
G01 X24.4461 Y37.1760
G01 X24.4739 Y37.1344
G01 X24.5168 Y37.0629
G01 X24.5404 Y37.0187
G01 X24.5761 Y36.9433
G01 X24.5952 Y36.8971
G01 X24.6233 Y36.8186
G01 X24.6379 Y36.7707
G01 X24.6581 Y36.6897
G01 X24.6679 Y36.6407
G01 X24.6801 Y36.5581
G01 X24.6850 Y36.5083
G01 X24.6891 Y36.4250
G01 X24.6891 Y36.3750
G01 X24.6850 Y36.2917
G01 X24.6801 Y36.2419
G00 Z2.0000
G00 X23.8142 Y24.9700
G01 F60.00
G01 Z-0.1500
G01 F120.00
G01 X23.8268 Y24.9655
G01 X23.8731 Y24.9463
G01 X23.9485 Y24.9107
G01 X23.9926 Y24.8871
G01 X24.0642 Y24.8442
G01 X24.1058 Y24.8164
G01 X24.1728 Y24.7667
G01 X24.2115 Y24.7349
G01 X24.2733 Y24.6789
G01 X24.3087 Y24.6435
G01 X24.3647 Y24.5817
G01 X24.3964 Y24.5430
G01 X24.4461 Y24.4760
G01 X24.4739 Y24.4344
G01 X24.5168 Y24.3629
G01 X24.5404 Y24.3187
G01 X24.5761 Y24.2433
G01 X24.5952 Y24.1971
G01 X24.6233 Y24.1186
G01 X24.6379 Y24.0707
G01 X24.6581 Y23.9897
G01 X24.6679 Y23.9407
G01 X24.6801 Y23.8581
G01 X24.6850 Y23.8083
G01 X24.6891 Y23.7250
G01 X24.6891 Y23.6750
G01 X24.6850 Y23.5917
G01 X24.6801 Y23.5419
G01 X24.6679 Y23.4593
G01 X24.6581 Y23.4103
G01 X24.6379 Y23.3293
G01 X24.6233 Y23.2814
G01 X24.5952 Y23.2029
G01 X24.5761 Y23.1567
G01 X24.5404 Y23.0813
G01 X24.5168 Y23.0371
G01 X24.4739 Y22.9656
G01 X24.4461 Y22.9240
G01 X24.3964 Y22.8570
G01 X24.3647 Y22.8183
G01 X24.3087 Y22.7565
G01 X24.2733 Y22.7211
G01 X24.2115 Y22.6651
G01 X24.1728 Y22.6333
G01 X24.1058 Y22.5836
G01 X24.0642 Y22.5558
G01 X23.9926 Y22.5129
G01 X23.9485 Y22.4893
G01 X23.8731 Y22.4537
G01 X23.8268 Y22.4345
G01 X23.8142 Y22.4300
G01 X23.8268 Y22.4255
G01 X23.8731 Y22.4063
G01 X23.9485 Y22.3707
G01 X23.9926 Y22.3471
G01 X24.0642 Y22.3042
G01 X24.1058 Y22.2764
G01 X24.1728 Y22.2267
G01 X24.2115 Y22.1949
G01 X24.2733 Y22.1389
G01 X24.3087 Y22.1035
G01 X24.3647 Y22.0417
G01 X24.3964 Y22.0030
G01 X24.4461 Y21.9360
G01 X24.4739 Y21.8944
G01 X24.5168 Y21.8229
G01 X24.5404 Y21.7787
G01 X24.5761 Y21.7033
G01 X24.5952 Y21.6571
G01 X24.6233 Y21.5786
G01 X24.6379 Y21.5307
G01 X24.6581 Y21.4497
G01 X24.6679 Y21.4007
G01 X24.6801 Y21.3181
G01 X24.6850 Y21.2683
G01 X24.6891 Y21.1850
G01 X24.6891 Y21.1350
G01 X24.6850 Y21.0517
G01 X24.6801 Y21.0019
G01 X24.6679 Y20.9193
G01 X24.6581 Y20.8703
G01 X24.6379 Y20.7893
G01 X24.6233 Y20.7414
G01 X24.5952 Y20.6629
G01 X24.5761 Y20.6167
G01 X24.5404 Y20.5413
G01 X24.5168 Y20.4971
G01 X24.4739 Y20.4256
G01 X24.4461 Y20.3840
G01 X24.3964 Y20.3170
G01 X24.3647 Y20.2783
G01 X24.3087 Y20.2165
G01 X24.2733 Y20.1811
G01 X24.2115 Y20.1251
G01 X24.1728 Y20.0933
G01 X24.1058 Y20.0436
G01 X24.0642 Y20.0158
G01 X23.9926 Y19.9729
G01 X23.9485 Y19.9493
G01 X23.8731 Y19.9137
G01 X23.8268 Y19.8945
G01 X23.8142 Y19.8900
G01 X23.8268 Y19.8855
G01 X23.8731 Y19.8663
G01 X23.9485 Y19.8307
G01 X23.9926 Y19.8071
G01 X24.0642 Y19.7642
G01 X24.1058 Y19.7364
G01 X24.1728 Y19.6867
G01 X24.2115 Y19.6549
G01 X24.2733 Y19.5989
G01 X24.3087 Y19.5635
G01 X24.3647 Y19.5017
G01 X24.3964 Y19.4630
G01 X24.4461 Y19.3960
G01 X24.4739 Y19.3544
G01 X24.5168 Y19.2829
G01 X24.5404 Y19.2387
G01 X24.5761 Y19.1633
G01 X24.5952 Y19.1171
G01 X24.6233 Y19.0386
G01 X24.6379 Y18.9907
G01 X24.6581 Y18.9097
G01 X24.6679 Y18.8607
G01 X24.6801 Y18.7781
G01 X24.6850 Y18.7283
G01 X24.6891 Y18.6450
G01 X24.6891 Y18.5950
G01 X24.6850 Y18.5117
G01 X24.6801 Y18.4619
G01 X24.6679 Y18.3793
G01 X24.6581 Y18.3303
G01 X24.6379 Y18.2493
G01 X24.6233 Y18.2014
G01 X24.5952 Y18.1229
G01 X24.5761 Y18.0767
G01 X24.5404 Y18.0013
G01 X24.5168 Y17.9571
G01 X24.4739 Y17.8856
G01 X24.4461 Y17.8440
G01 X24.3964 Y17.7770
G01 X24.3647 Y17.7383
G01 X24.3087 Y17.6765
G01 X24.2733 Y17.6411
G01 X24.2115 Y17.5851
G01 X24.1728 Y17.5533
G01 X24.1058 Y17.5036
G01 X24.0642 Y17.4758
G01 X23.9926 Y17.4329
G01 X23.9485 Y17.4093
G01 X23.8731 Y17.3737
G01 X23.8268 Y17.3545
G01 X23.8142 Y17.3500
G01 X23.8268 Y17.3455
G01 X23.8731 Y17.3263
G01 X23.9485 Y17.2907
G01 X23.9926 Y17.2671
G01 X24.0642 Y17.2242
G01 X24.1058 Y17.1964
G01 X24.1728 Y17.1467
G01 X24.2115 Y17.1149
G01 X24.2733 Y17.0589
G01 X24.3087 Y17.0235
G01 X24.3647 Y16.9617
G01 X24.3964 Y16.9230
G01 X24.4461 Y16.8560
G01 X24.4739 Y16.8144
G01 X24.5168 Y16.7429
G01 X24.5404 Y16.6987
G01 X24.5761 Y16.6233
G01 X24.5952 Y16.5771
G01 X24.6233 Y16.4986
G01 X24.6379 Y16.4507
G01 X24.6581 Y16.3697
G01 X24.6679 Y16.3207
G01 X24.6801 Y16.2381
G01 X24.6850 Y16.1883
G01 X24.6891 Y16.1050
G01 X24.6891 Y16.0550
G01 X24.6850 Y15.9717
G01 X24.6801 Y15.9219
G01 X24.6679 Y15.8393
G01 X24.6581 Y15.7903
G01 X24.6379 Y15.7093
G01 X24.6233 Y15.6614
G01 X24.5952 Y15.5829
G01 X24.5761 Y15.5367
G01 X24.5404 Y15.4613
G01 X24.5168 Y15.4171
G01 X24.4739 Y15.3456
G01 X24.4461 Y15.3040
G01 X24.3964 Y15.2370
G01 X24.3647 Y15.1983
G01 X24.3087 Y15.1365
G01 X24.2733 Y15.1011
G01 X24.2115 Y15.0451
G01 X24.1728 Y15.0133
G01 X24.1058 Y14.9636
G01 X24.0642 Y14.9358
G01 X23.9926 Y14.8929
G01 X23.9485 Y14.8693
G01 X23.8731 Y14.8337
G01 X23.8268 Y14.8145
G01 X23.8142 Y14.8100
G01 X23.8268 Y14.8055
G01 X23.8731 Y14.7863
G01 X23.9485 Y14.7507
G01 X23.9926 Y14.7271
G01 X24.0642 Y14.6842
G01 X24.1058 Y14.6564
G01 X24.1728 Y14.6067
G01 X24.2115 Y14.5749
G01 X24.2387 Y14.5503
G01 X31.1397 Y14.5503
G01 X31.1648 Y14.5496
G01 X31.2138 Y14.5472
G01 X31.2636 Y14.5423
G01 X31.3122 Y14.5351
G01 X31.3613 Y14.5254
G01 X31.4089 Y14.5134
G01 X31.4568 Y14.4989
G01 X31.5030 Y14.4824
G01 X31.5492 Y14.4632
G01 X31.5936 Y14.4422
G01 X31.6378 Y14.4186
G01 X31.6799 Y14.3934
G01 X31.7215 Y14.3656
G01 X31.7609 Y14.3363
G01 X31.7996 Y14.3046
G01 X31.8360 Y14.2716
G01 X31.8541 Y14.2544
G01 X36.6382 Y9.4703
G01 X37.1608 Y9.4703
G01 X37.1880 Y9.4949
G01 X37.2267 Y9.5267
G01 X37.2937 Y9.5764
G01 X37.3353 Y9.6042
G01 X37.4069 Y9.6471
G01 X37.4510 Y9.6707
G01 X37.5264 Y9.7063
G01 X37.5727 Y9.7255
G01 X37.5853 Y9.7300
G01 X37.5727 Y9.7345
G01 X37.5264 Y9.7537
G01 X37.4510 Y9.7893
G01 X37.4069 Y9.8129
G01 X37.3353 Y9.8558
G01 X37.2937 Y9.8836
G01 X37.2267 Y9.9333
G01 X37.1880 Y9.9651
G01 X37.1262 Y10.0211
G01 X37.0908 Y10.0565
G01 X37.0348 Y10.1183
G01 X37.0031 Y10.1570
G01 X36.9534 Y10.2240
G01 X36.9256 Y10.2656
G01 X36.8827 Y10.3371
G01 X36.8591 Y10.3813
G01 X36.8234 Y10.4567
G01 X36.8043 Y10.5029
G01 X36.7762 Y10.5814
G01 X36.7616 Y10.6293
G01 X36.7414 Y10.7103
G01 X36.7316 Y10.7593
G01 X36.7194 Y10.8419
G01 X36.7145 Y10.8917
G01 X36.7104 Y10.9750
G01 X36.7104 Y11.0250
G01 X36.7145 Y11.1083
G01 X36.7194 Y11.1581
G01 X36.7316 Y11.2407
G01 X36.7414 Y11.2897
G01 X36.7616 Y11.3707
G01 X36.7762 Y11.4186
G01 X36.8043 Y11.4971
G01 X36.8234 Y11.5433
G01 X36.8591 Y11.6187
G01 X36.8827 Y11.6629
G01 X36.9256 Y11.7344
G01 X36.9534 Y11.7760
G01 X37.0031 Y11.8430
G01 X37.0348 Y11.8817
G01 X37.0908 Y11.9435
G01 X37.1262 Y11.9789
G01 X37.1880 Y12.0349
G01 X37.2267 Y12.0667
G01 X37.2937 Y12.1164
G01 X37.3353 Y12.1442
G01 X37.4069 Y12.1871
G01 X37.4510 Y12.2107
G01 X37.5264 Y12.2463
G01 X37.5727 Y12.2655
G01 X37.5853 Y12.2700
G01 X37.5727 Y12.2745
G01 X37.5264 Y12.2937
G01 X37.4510 Y12.3293
G01 X37.4069 Y12.3529
G01 X37.3353 Y12.3958
G01 X37.2937 Y12.4236
G01 X37.2267 Y12.4733
G01 X37.1880 Y12.5051
G01 X37.1262 Y12.5611
G01 X37.0908 Y12.5965
G01 X37.0348 Y12.6583
G01 X37.0031 Y12.6970
G01 X36.9534 Y12.7640
G01 X36.9256 Y12.8056
G01 X36.8827 Y12.8771
G01 X36.8591 Y12.9213
G01 X36.8234 Y12.9967
G01 X36.8043 Y13.0429
G01 X36.7762 Y13.1214
G01 X36.7616 Y13.1693
G01 X36.7414 Y13.2503
G01 X36.7316 Y13.2993
G01 X36.7194 Y13.3819
G01 X36.7145 Y13.4317
G01 X36.7104 Y13.5150
G01 X36.7104 Y13.5650
G01 X36.7145 Y13.6483
G01 X36.7194 Y13.6981
G01 X36.7316 Y13.7807
G01 X36.7414 Y13.8297
G01 X36.7616 Y13.9107
G01 X36.7762 Y13.9586
G01 X36.8043 Y14.0371
G01 X36.8234 Y14.0833
G01 X36.8591 Y14.1587
G01 X36.8827 Y14.2029
G01 X36.9256 Y14.2744
G01 X36.9534 Y14.3160
G01 X37.0031 Y14.3830
G01 X37.0348 Y14.4217
G01 X37.0908 Y14.4835
G01 X37.1262 Y14.5189
G01 X37.1880 Y14.5749
G01 X37.2267 Y14.6067
G01 X37.2937 Y14.6564
G01 X37.3353 Y14.6842
G01 X37.4069 Y14.7271
G01 X37.4510 Y14.7507
G01 X37.5264 Y14.7863
G01 X37.5727 Y14.8055
G01 X37.5853 Y14.8100
G01 X37.5727 Y14.8145
G01 X37.5264 Y14.8337
G01 X37.4510 Y14.8693
G01 X37.4069 Y14.8929
G01 X37.3353 Y14.9358
G01 X37.2937 Y14.9636
G01 X37.2267 Y15.0133
G01 X37.1880 Y15.0451
G01 X37.1262 Y15.1011
G01 X37.0908 Y15.1365
G01 X37.0348 Y15.1983
G01 X37.0031 Y15.2370
G01 X36.9534 Y15.3040
G01 X36.9256 Y15.3456
G01 X36.8827 Y15.4171
G01 X36.8591 Y15.4613
G01 X36.8234 Y15.5367
G01 X36.8043 Y15.5829
G01 X36.7762 Y15.6614
G01 X36.7616 Y15.7093
G01 X36.7414 Y15.7903
G01 X36.7316 Y15.8393
G01 X36.7194 Y15.9219
G01 X36.7145 Y15.9717
G01 X36.7104 Y16.0550
G01 X36.7104 Y16.1050
G01 X36.7145 Y16.1883
G01 X36.7194 Y16.2381
G01 X36.7316 Y16.3207
G01 X36.7414 Y16.3697
G01 X36.7616 Y16.4507
G01 X36.7762 Y16.4986
G01 X36.8043 Y16.5771
G01 X36.8234 Y16.6233
G01 X36.8591 Y16.6987
G01 X36.8827 Y16.7429
G01 X36.9256 Y16.8144
G01 X36.9534 Y16.8560
G01 X37.0031 Y16.9230
G01 X37.0348 Y16.9617
G01 X37.0908 Y17.0235
G01 X37.1262 Y17.0589
G01 X37.1880 Y17.1149
G01 X37.2267 Y17.1467
G01 X37.2937 Y17.1964
G01 X37.3353 Y17.2242
G01 X37.4069 Y17.2671
G01 X37.4510 Y17.2907
G01 X37.5264 Y17.3263
G01 X37.5727 Y17.3455
G01 X37.5853 Y17.3500
G01 X37.5727 Y17.3545
G01 X37.5264 Y17.3737
G01 X37.4510 Y17.4093
G01 X37.4069 Y17.4329
G01 X37.3353 Y17.4758
G01 X37.2937 Y17.5036
G01 X37.2267 Y17.5533
G01 X37.1880 Y17.5851
G01 X37.1262 Y17.6411
G01 X37.0908 Y17.6765
G01 X37.0348 Y17.7383
G01 X37.0031 Y17.7770
G01 X36.9534 Y17.8440
G01 X36.9256 Y17.8856
G01 X36.8827 Y17.9571
G01 X36.8591 Y18.0013
G01 X36.8234 Y18.0767
G01 X36.8043 Y18.1229
G01 X36.7762 Y18.2014
G01 X36.7616 Y18.2493
G01 X36.7414 Y18.3303
G01 X36.7316 Y18.3793
G01 X36.7194 Y18.4619
G01 X36.7145 Y18.5117
G01 X36.7104 Y18.5950
G01 X36.7104 Y18.6450
G01 X36.7145 Y18.7283
G01 X36.7194 Y18.7781
G01 X36.7316 Y18.8607
G01 X36.7414 Y18.9097
G01 X36.7616 Y18.9907
G01 X36.7762 Y19.0386
G01 X36.8043 Y19.1171
G01 X36.8234 Y19.1633
G01 X36.8591 Y19.2387
G01 X36.8827 Y19.2829
G01 X36.9256 Y19.3544
G01 X36.9534 Y19.3960
G01 X37.0031 Y19.4630
G01 X37.0348 Y19.5017
G01 X37.0908 Y19.5635
G01 X37.1262 Y19.5989
G01 X37.1880 Y19.6549
G01 X37.2267 Y19.6867
G01 X37.2937 Y19.7364
G01 X37.3353 Y19.7642
G01 X37.4069 Y19.8071
G01 X37.4510 Y19.8307
G01 X37.5264 Y19.8663
G01 X37.5727 Y19.8855
G01 X37.5853 Y19.8900
G01 X37.5727 Y19.8945
G01 X37.5264 Y19.9137
G01 X37.4510 Y19.9493
G01 X37.4069 Y19.9729
G01 X37.3353 Y20.0158
G01 X37.2937 Y20.0436
G01 X37.2267 Y20.0933
G01 X37.1880 Y20.1251
G01 X37.1262 Y20.1811
G01 X37.0908 Y20.2165
G01 X37.0348 Y20.2783
G01 X37.0031 Y20.3170
G01 X36.9534 Y20.3840
G01 X36.9256 Y20.4256
G01 X36.8827 Y20.4971
G01 X36.8591 Y20.5413
G01 X36.8234 Y20.6167
G01 X36.8043 Y20.6629
G01 X36.7762 Y20.7414
G01 X36.7616 Y20.7893
G01 X36.7414 Y20.8703
G01 X36.7316 Y20.9193
G01 X36.7194 Y21.0019
G01 X36.7145 Y21.0517
G01 X36.7104 Y21.1350
G01 X36.7104 Y21.1850
G01 X36.7145 Y21.2683
G01 X36.7194 Y21.3181
G01 X36.7316 Y21.4007
G01 X36.7414 Y21.4497
G01 X36.7616 Y21.5307
G01 X36.7762 Y21.5786
G01 X36.8043 Y21.6571
G01 X36.8234 Y21.7033
G01 X36.8591 Y21.7787
G01 X36.8827 Y21.8229
G01 X36.9256 Y21.8944
G01 X36.9534 Y21.9360
G01 X37.0031 Y22.0030
G01 X37.0348 Y22.0417
G01 X37.0908 Y22.1035
G01 X37.1262 Y22.1389
G01 X37.1880 Y22.1949
G01 X37.2267 Y22.2267
G01 X37.2937 Y22.2764
G01 X37.3353 Y22.3042
G01 X37.4069 Y22.3471
G01 X37.4510 Y22.3707
G01 X37.5264 Y22.4063
G01 X37.5727 Y22.4255
G01 X37.5853 Y22.4300
G01 X37.5727 Y22.4345
G01 X37.5264 Y22.4537
G01 X37.4510 Y22.4893
G01 X37.4069 Y22.5129
G01 X37.3353 Y22.5558
G01 X37.2937 Y22.5836
G01 X37.2267 Y22.6333
G01 X37.1880 Y22.6651
G01 X37.1262 Y22.7211
G01 X37.0908 Y22.7565
G01 X37.0348 Y22.8183
G01 X37.0031 Y22.8570
G01 X36.9534 Y22.9240
G01 X36.9256 Y22.9656
G01 X36.8827 Y23.0371
G01 X36.8591 Y23.0813
G01 X36.8234 Y23.1567
G01 X36.8043 Y23.2029
G01 X36.7762 Y23.2814
G01 X36.7616 Y23.3293
G01 X36.7414 Y23.4103
G01 X36.7316 Y23.4593
G01 X36.7194 Y23.5419
G01 X36.7145 Y23.5917
G01 X36.7104 Y23.6750
G01 X36.7104 Y23.7250
G01 X36.7145 Y23.8083
G01 X36.7194 Y23.8581
G01 X36.7316 Y23.9407
G01 X36.7414 Y23.9897
G01 X36.7616 Y24.0707
G01 X36.7762 Y24.1186
G01 X36.8043 Y24.1971
G01 X36.8234 Y24.2433
G01 X36.8591 Y24.3187
G01 X36.8827 Y24.3629
G01 X36.9256 Y24.4344
G01 X36.9534 Y24.4760
G01 X37.0031 Y24.5430
G01 X37.0348 Y24.5817
G01 X37.0908 Y24.6435
G01 X37.1262 Y24.6789
G01 X37.1880 Y24.7349
G01 X37.2267 Y24.7667
G01 X37.2937 Y24.8164
G01 X37.3353 Y24.8442
G01 X37.4069 Y24.8871
G01 X37.4510 Y24.9107
G01 X37.5264 Y24.9463
G01 X37.5727 Y24.9655
G01 X37.5853 Y24.9700
G01 X37.5727 Y24.9745
G01 X37.5264 Y24.9937
G01 X37.4510 Y25.0293
G01 X37.4069 Y25.0529
G01 X37.3353 Y25.0958
G01 X37.2937 Y25.1236
G01 X37.2267 Y25.1733
G01 X37.1880 Y25.2051
G01 X37.1262 Y25.2611
G01 X37.0908 Y25.2965
G01 X37.0348 Y25.3583
G01 X37.0031 Y25.3970
G01 X36.9534 Y25.4640
G01 X36.9256 Y25.5056
G01 X36.8827 Y25.5771
G01 X36.8591 Y25.6213
G01 X36.8234 Y25.6967
G01 X36.8043 Y25.7429
G01 X36.7762 Y25.8214
G01 X36.7616 Y25.8693
G01 X36.7414 Y25.9503
G01 X36.7316 Y25.9993
G01 X36.7194 Y26.0819
G01 X36.7145 Y26.1317
G01 X36.7104 Y26.2150
G01 X36.7104 Y26.2650
G01 X36.7145 Y26.3483
G01 X36.7194 Y26.3981
G01 X36.7316 Y26.4807
G01 X36.7414 Y26.5297
G01 X36.7616 Y26.6107
G01 X36.7762 Y26.6586
G01 X36.8043 Y26.7371
G01 X36.8234 Y26.7833
G01 X36.8591 Y26.8587
G01 X36.8827 Y26.9029
G01 X36.9256 Y26.9744
G01 X36.9534 Y27.0160
G01 X37.0031 Y27.0830
G01 X37.0348 Y27.1217
G01 X37.0908 Y27.1835
G01 X37.1262 Y27.2189
G01 X37.1880 Y27.2749
G01 X37.2267 Y27.3067
G01 X37.2937 Y27.3564
G01 X37.3353 Y27.3842
G01 X37.4069 Y27.4271
G01 X37.4510 Y27.4507
G01 X37.5264 Y27.4863
G01 X37.5727 Y27.5055
G01 X37.5853 Y27.5100
G01 X37.5727 Y27.5145
G01 X37.5264 Y27.5337
G01 X37.4510 Y27.5693
G01 X37.4069 Y27.5929
G01 X37.3353 Y27.6358
G01 X37.2937 Y27.6636
G01 X37.2267 Y27.7133
G01 X37.1880 Y27.7451
G01 X37.1262 Y27.8011
G01 X37.0908 Y27.8365
G01 X37.0348 Y27.8983
G01 X37.0031 Y27.9370
G01 X36.9534 Y28.0040
G01 X36.9256 Y28.0456
G01 X36.8827 Y28.1171
G01 X36.8591 Y28.1613
G01 X36.8234 Y28.2367
G01 X36.8043 Y28.2829
G01 X36.7762 Y28.3614
G01 X36.7616 Y28.4093
G01 X36.7414 Y28.4903
G01 X36.7316 Y28.5393
G01 X36.7194 Y28.6219
G01 X36.7145 Y28.6717
G01 X36.7104 Y28.7550
G01 X36.7104 Y28.8050
G01 X36.7145 Y28.8883
G01 X36.7194 Y28.9381
G01 X36.7316 Y29.0207
G01 X36.7414 Y29.0697
G01 X36.7616 Y29.1507
G01 X36.7762 Y29.1986
G01 X36.8043 Y29.2771
G01 X36.8234 Y29.3233
G01 X36.8591 Y29.3987
G01 X36.8827 Y29.4429
G01 X36.9256 Y29.5144
G01 X36.9534 Y29.5560
G01 X37.0031 Y29.6230
G01 X37.0348 Y29.6617
G01 X37.0908 Y29.7235
G01 X37.1262 Y29.7589
G01 X37.1880 Y29.8149
G01 X37.2267 Y29.8467
G01 X37.2937 Y29.8964
G01 X37.3353 Y29.9242
G01 X37.4069 Y29.9671
G01 X37.4510 Y29.9907
G01 X37.5264 Y30.0263
G01 X37.5727 Y30.0455
G01 X37.5853 Y30.0500
G01 X37.5727 Y30.0545
G01 X37.5264 Y30.0737
G01 X37.4510 Y30.1093
G01 X37.4069 Y30.1329
G01 X37.3353 Y30.1758
G01 X37.2937 Y30.2036
G01 X37.2267 Y30.2533
G01 X37.1880 Y30.2851
G01 X37.1262 Y30.3411
G01 X37.0908 Y30.3765
G01 X37.0348 Y30.4383
G01 X37.0031 Y30.4770
G01 X36.9534 Y30.5440
G01 X36.9256 Y30.5856
G01 X36.8827 Y30.6571
G01 X36.8591 Y30.7013
G01 X36.8234 Y30.7767
G01 X36.8043 Y30.8229
G01 X36.7762 Y30.9014
G01 X36.7616 Y30.9493
G01 X36.7414 Y31.0303
G01 X36.7316 Y31.0793
G01 X36.7194 Y31.1619
G01 X36.7145 Y31.2117
G01 X36.7104 Y31.2950
G01 X36.7104 Y31.3450
G01 X36.7145 Y31.4283
G01 X36.7194 Y31.4781
G01 X36.7316 Y31.5607
G01 X36.7414 Y31.6097
G01 X36.7616 Y31.6907
G01 X36.7762 Y31.7386
G01 X36.8043 Y31.8171
G01 X36.8234 Y31.8633
G01 X36.8591 Y31.9387
G01 X36.8827 Y31.9829
G01 X36.9256 Y32.0544
G01 X36.9534 Y32.0960
G01 X37.0031 Y32.1630
G01 X37.0348 Y32.2017
G01 X37.0908 Y32.2635
G01 X37.1262 Y32.2989
G01 X37.1880 Y32.3549
G01 X37.2267 Y32.3867
G01 X37.2937 Y32.4364
G01 X37.3353 Y32.4642
G01 X37.4069 Y32.5071
G01 X37.4510 Y32.5307
G01 X37.5264 Y32.5663
G01 X37.5727 Y32.5855
G01 X37.5853 Y32.5900
G01 X37.5727 Y32.5945
G01 X37.5264 Y32.6137
G01 X37.4510 Y32.6493
G01 X37.4069 Y32.6729
G01 X37.3353 Y32.7158
G01 X37.2937 Y32.7436
G01 X37.2267 Y32.7933
G01 X37.1880 Y32.8251
G01 X37.1262 Y32.8811
G01 X37.0908 Y32.9165
G01 X37.0348 Y32.9783
G01 X37.0031 Y33.0170
G01 X36.9534 Y33.0840
G01 X36.9256 Y33.1256
G01 X36.8827 Y33.1971
G01 X36.8591 Y33.2413
G01 X36.8234 Y33.3167
G01 X36.8043 Y33.3629
G01 X36.7762 Y33.4414
G01 X36.7616 Y33.4893
G01 X36.7414 Y33.5703
G01 X36.7316 Y33.6193
G01 X36.7194 Y33.7019
G01 X36.7145 Y33.7517
G01 X36.7104 Y33.8350
G01 X36.7104 Y33.8850
G01 X36.7145 Y33.9683
G01 X36.7194 Y34.0181
G01 X36.7316 Y34.1007
G01 X36.7414 Y34.1497
G01 X36.7616 Y34.2307
G01 X36.7762 Y34.2786
G01 X36.8043 Y34.3571
G01 X36.8234 Y34.4033
G01 X36.8591 Y34.4787
G01 X36.8827 Y34.5229
G01 X36.9256 Y34.5944
G01 X36.9534 Y34.6360
G01 X37.0031 Y34.7030
G01 X37.0348 Y34.7417
G01 X37.0908 Y34.8035
G01 X37.1262 Y34.8389
G01 X37.1880 Y34.8949
G01 X37.2267 Y34.9267
G01 X37.2937 Y34.9764
G01 X37.3353 Y35.0042
G01 X37.4069 Y35.0471
G01 X37.4510 Y35.0707
G01 X37.5264 Y35.1063
G01 X37.5727 Y35.1255
G01 X37.5853 Y35.1300
G01 X37.5727 Y35.1345
G01 X37.5264 Y35.1537
G01 X37.4510 Y35.1893
G01 X37.4069 Y35.2129
G01 X37.3353 Y35.2558
G01 X37.2937 Y35.2836
G01 X37.2267 Y35.3333
G01 X37.1880 Y35.3651
G01 X37.1262 Y35.4211
G01 X37.0908 Y35.4565
G01 X37.0348 Y35.5183
G01 X37.0031 Y35.5570
G01 X36.9534 Y35.6240
G01 X36.9256 Y35.6656
G01 X36.8827 Y35.7371
G01 X36.8591 Y35.7813
G01 X36.8234 Y35.8567
G01 X36.8043 Y35.9029
G01 X36.7762 Y35.9814
G01 X36.7616 Y36.0293
G01 X36.7414 Y36.1103
G01 X36.7316 Y36.1593
G01 X36.7194 Y36.2419
G01 X36.7145 Y36.2917
G01 X36.7104 Y36.3750
G01 X36.7104 Y36.4250
G01 X36.7145 Y36.5083
G01 X36.7194 Y36.5581
G01 X36.7316 Y36.6407
G01 X36.7414 Y36.6897
G01 X36.7616 Y36.7707
G01 X36.7762 Y36.8186
G01 X36.8043 Y36.8971
G01 X36.8234 Y36.9433
G01 X36.8591 Y37.0187
G01 X36.8827 Y37.0629
G01 X36.9256 Y37.1344
G01 X36.9534 Y37.1760
G01 X37.0031 Y37.2430
G01 X37.0348 Y37.2817
G01 X37.0908 Y37.3435
G01 X37.1262 Y37.3789
G01 X37.1880 Y37.4349
G01 X37.2267 Y37.4667
G01 X37.2937 Y37.5164
G01 X37.3353 Y37.5442
G01 X37.4069 Y37.5871
G01 X37.4510 Y37.6107
G01 X37.5264 Y37.6463
G01 X37.5727 Y37.6655
G01 X37.5853 Y37.6700
G01 X37.5727 Y37.6745
G01 X37.5264 Y37.6937
G01 X37.4510 Y37.7293
G01 X37.4069 Y37.7529
G01 X37.3353 Y37.7958
G01 X37.2937 Y37.8236
G01 X37.2267 Y37.8733
G01 X37.1880 Y37.9051
G01 X37.1262 Y37.9611
G01 X37.0908 Y37.9965
G01 X37.0348 Y38.0583
G01 X37.0031 Y38.0970
G01 X36.9534 Y38.1640
G01 X36.9256 Y38.2056
G01 X36.8827 Y38.2771
G01 X36.8591 Y38.3213
G01 X36.8234 Y38.3967
G01 X36.8043 Y38.4429
G01 X36.7762 Y38.5214
G01 X36.7616 Y38.5693
G01 X36.7414 Y38.6503
G01 X36.7316 Y38.6993
G01 X36.7194 Y38.7819
G01 X36.7145 Y38.8317
G01 X36.7104 Y38.9150
G01 X36.7104 Y38.9650
G01 X36.7145 Y39.0483
G01 X36.7194 Y39.0981
G01 X36.7316 Y39.1807
G01 X36.7414 Y39.2297
G01 X36.7616 Y39.3107
G01 X36.7762 Y39.3586
G01 X36.8043 Y39.4371
G01 X36.8234 Y39.4833
G01 X36.8591 Y39.5587
G01 X36.8827 Y39.6029
G01 X36.9256 Y39.6744
G01 X36.9534 Y39.7160
G01 X37.0031 Y39.7830
G01 X37.0348 Y39.8217
G01 X37.0908 Y39.8835
G01 X37.1262 Y39.9189
G01 X37.1880 Y39.9749
G01 X37.2267 Y40.0067
G01 X37.2937 Y40.0564
G01 X37.3353 Y40.0842
G01 X37.4069 Y40.1271
G01 X37.4510 Y40.1507
G01 X37.5264 Y40.1863
G01 X37.5727 Y40.2055
G01 X37.5853 Y40.2100
G01 X37.5727 Y40.2145
G01 X37.5264 Y40.2337
G01 X37.4510 Y40.2693
G01 X37.4069 Y40.2929
G01 X37.3353 Y40.3358
G01 X37.2937 Y40.3636
G01 X37.2267 Y40.4133
G01 X37.1880 Y40.4451
G01 X37.1608 Y40.4697
G01 X36.2996 Y40.4697
G01 X36.2632 Y40.3927
G01 X36.2396 Y40.3486
G01 X36.1765 Y40.2433
G01 X36.1487 Y40.2017
G01 X36.0756 Y40.1032
G01 X36.0439 Y40.0645
G01 X35.9615 Y39.9736
G01 X35.9261 Y39.9382
G01 X35.8352 Y39.8559
G01 X35.7965 Y39.8241
G01 X35.6980 Y39.7510
G01 X35.6564 Y39.7232
G01 X35.5512 Y39.6602
G01 X35.5070 Y39.6366
G01 X35.3962 Y39.5841
G01 X35.3499 Y39.5650
G01 X35.2344 Y39.5236
G01 X35.1865 Y39.5091
G01 X35.0675 Y39.4793
G01 X35.0184 Y39.4695
G01 X34.8971 Y39.4515
G01 X34.8473 Y39.4466
G01 X34.7248 Y39.4406
G01 X34.6747 Y39.4406
G01 X34.5522 Y39.4466
G01 X34.5024 Y39.4515
G01 X34.3811 Y39.4695
G01 X34.3320 Y39.4793
G01 X34.2130 Y39.5091
G01 X34.1651 Y39.5236
G01 X34.0496 Y39.5650
G01 X34.0033 Y39.5841
G01 X33.8925 Y39.6366
G01 X33.8483 Y39.6602
G01 X33.7431 Y39.7232
G01 X33.7015 Y39.7510
G01 X33.6030 Y39.8241
G01 X33.5643 Y39.8559
G01 X33.4734 Y39.9382
G01 X33.4380 Y39.9736
G01 X33.3556 Y40.0645
G01 X33.3239 Y40.1032
G01 X33.2508 Y40.2017
G01 X33.2230 Y40.2433
G01 X33.2100 Y40.2650
G01 X33.2100 Y37.2000
G01 X33.2094 Y37.1750
G01 X33.2070 Y37.1259
G01 X33.2021 Y37.0761
G01 X33.1949 Y37.0276
G01 X33.1851 Y36.9785
G01 X33.1732 Y36.9309
G01 X33.1586 Y36.8830
G01 X33.1421 Y36.8367
G01 X33.1230 Y36.7905
G01 X33.1020 Y36.7461
G01 X33.0784 Y36.7020
G01 X33.0531 Y36.6599
G01 X33.0253 Y36.6183
G01 X32.9961 Y36.5788
G01 X32.9643 Y36.5401
G01 X32.9314 Y36.5038
G01 X32.9141 Y36.4856
G01 X29.5741 Y33.1456
G01 X29.5560 Y33.1284
G01 X29.5196 Y33.0954
G01 X29.4809 Y33.0637
G01 X29.4415 Y33.0344
G01 X29.3999 Y33.0066
G01 X29.3578 Y32.9814
G01 X29.3136 Y32.9578
G01 X29.2692 Y32.9368
G01 X29.2230 Y32.9176
G01 X29.1768 Y32.9011
G01 X29.1289 Y32.8866
G01 X29.0813 Y32.8746
G01 X29.0322 Y32.8649
G01 X28.9836 Y32.8577
G01 X28.9338 Y32.8528
G01 X28.8848 Y32.8504
G01 X28.8597 Y32.8497
G01 X24.2387 Y32.8497
G01 X24.2115 Y32.8251
G01 X24.1728 Y32.7933
G01 X24.1058 Y32.7436
G01 X24.0642 Y32.7158
G01 X23.9926 Y32.6729
G01 X23.9485 Y32.6493
G01 X23.8731 Y32.6137
G01 X23.8268 Y32.5945
G01 X23.8142 Y32.5900
G01 X23.8268 Y32.5855
G01 X23.8731 Y32.5663
G01 X23.9485 Y32.5307
G01 X23.9926 Y32.5071
G01 X24.0642 Y32.4642
G01 X24.1058 Y32.4364
G01 X24.1728 Y32.3867
G01 X24.2115 Y32.3549
G01 X24.2733 Y32.2989
G01 X24.3087 Y32.2635
G01 X24.3647 Y32.2017
G01 X24.3964 Y32.1630
G01 X24.4461 Y32.0960
G01 X24.4739 Y32.0544
G01 X24.5168 Y31.9829
G01 X24.5404 Y31.9387
G01 X24.5761 Y31.8633
G01 X24.5952 Y31.8171
G01 X24.6233 Y31.7386
G01 X24.6379 Y31.6907
G01 X24.6581 Y31.6097
G01 X24.6679 Y31.5607
G01 X24.6801 Y31.4781
G01 X24.6850 Y31.4283
G01 X24.6891 Y31.3450
G01 X24.6891 Y31.2950
G01 X24.6850 Y31.2117
G01 X24.6801 Y31.1619
G01 X24.6679 Y31.0793
G01 X24.6581 Y31.0303
G01 X24.6379 Y30.9493
G01 X24.6233 Y30.9014
G01 X24.5952 Y30.8229
G01 X24.5761 Y30.7767
G01 X24.5404 Y30.7013
G01 X24.5168 Y30.6571
G01 X24.4739 Y30.5856
G01 X24.4461 Y30.5440
G01 X24.3964 Y30.4770
G01 X24.3647 Y30.4383
G01 X24.3087 Y30.3765
G01 X24.2733 Y30.3411
G01 X24.2115 Y30.2851
G01 X24.1728 Y30.2533
G01 X24.1058 Y30.2036
G01 X24.0642 Y30.1758
G01 X23.9926 Y30.1329
G01 X23.9485 Y30.1093
G01 X23.8731 Y30.0737
G01 X23.8268 Y30.0545
G01 X23.8142 Y30.0500
G01 X23.8268 Y30.0455
G01 X23.8731 Y30.0263
G01 X23.9485 Y29.9907
G01 X23.9926 Y29.9671
G01 X24.0642 Y29.9242
G01 X24.1058 Y29.8964
G01 X24.1728 Y29.8467
G01 X24.2115 Y29.8149
G01 X24.2733 Y29.7589
G01 X24.3087 Y29.7235
G01 X24.3647 Y29.6617
G01 X24.3964 Y29.6230
G01 X24.4461 Y29.5560
G01 X24.4739 Y29.5144
G01 X24.5168 Y29.4429
G01 X24.5404 Y29.3987
G01 X24.5761 Y29.3233
G01 X24.5952 Y29.2771
G01 X24.6233 Y29.1986
G01 X24.6379 Y29.1507
G01 X24.6581 Y29.0697
G01 X24.6679 Y29.0207
G01 X24.6801 Y28.9381
G01 X24.6850 Y28.8883
G01 X24.6891 Y28.8050
G01 X24.6891 Y28.7550
G01 X24.6850 Y28.6717
G01 X24.6801 Y28.6219
G01 X24.6679 Y28.5393
G01 X24.6581 Y28.4903
G01 X24.6379 Y28.4093
G01 X24.6233 Y28.3614
G01 X24.5952 Y28.2829
G01 X24.5761 Y28.2367
G01 X24.5404 Y28.1613
G01 X24.5168 Y28.1171
G01 X24.4739 Y28.0456
G01 X24.4461 Y28.0040
G01 X24.3964 Y27.9370
G01 X24.3647 Y27.8983
G01 X24.3087 Y27.8365
G01 X24.2733 Y27.8011
G01 X24.2115 Y27.7451
G01 X24.1728 Y27.7133
G01 X24.1058 Y27.6636
G01 X24.0642 Y27.6358
G01 X23.9926 Y27.5929
G01 X23.9485 Y27.5693
G01 X23.8731 Y27.5337
G01 X23.8268 Y27.5145
G01 X23.8142 Y27.5100
G01 X23.8268 Y27.5055
G01 X23.8731 Y27.4863
G01 X23.9485 Y27.4507
G01 X23.9926 Y27.4271
G01 X24.0642 Y27.3842
G01 X24.1058 Y27.3564
G01 X24.1728 Y27.3067
G01 X24.2115 Y27.2749
G01 X24.2733 Y27.2189
G01 X24.3087 Y27.1835
G01 X24.3647 Y27.1217
G01 X24.3964 Y27.0830
G01 X24.4461 Y27.0160
G01 X24.4739 Y26.9744
G01 X24.5168 Y26.9029
G01 X24.5404 Y26.8587
G01 X24.5761 Y26.7833
G01 X24.5952 Y26.7371
G01 X24.6233 Y26.6586
G01 X24.6379 Y26.6107
G01 X24.6581 Y26.5297
G01 X24.6679 Y26.4807
G01 X24.6801 Y26.3981
G01 X24.6850 Y26.3483
G01 X24.6891 Y26.2650
G01 X24.6891 Y26.2150
G01 X24.6850 Y26.1317
G01 X24.6801 Y26.0819
G01 X24.6679 Y25.9993
G01 X24.6581 Y25.9503
G01 X24.6379 Y25.8693
G01 X24.6233 Y25.8214
G01 X24.5952 Y25.7429
G01 X24.5761 Y25.6967
G01 X24.5404 Y25.6213
G01 X24.5168 Y25.5771
G01 X24.4739 Y25.5056
G01 X24.4461 Y25.4640
G01 X24.3964 Y25.3970
G01 X24.3647 Y25.3583
G01 X24.3087 Y25.2965
G01 X24.2733 Y25.2611
G01 X24.2115 Y25.2051
G01 X24.1728 Y25.1733
G01 X24.1058 Y25.1236
G01 X24.0642 Y25.0958
G01 X23.9926 Y25.0529
G01 X23.9485 Y25.0293
G01 X23.8731 Y24.9937
G01 X23.8268 Y24.9745
G01 X23.8142 Y24.9700
G00 Z2.0000
G00 X22.3453 Y14.8100
G01 F60.00
G01 Z-0.1500
G01 F120.00
G01 X22.3327 Y14.8145
G01 X22.2864 Y14.8337
G01 X22.2110 Y14.8693
G01 X22.1669 Y14.8929
G01 X22.0953 Y14.9358
G01 X22.0537 Y14.9636
G01 X21.9867 Y15.0133
G01 X21.9480 Y15.0451
G01 X21.9208 Y15.0697
G01 X16.1922 Y15.0697
G01 X16.1878 Y15.0520
G01 X16.1709 Y15.0048
G01 X16.1495 Y14.9596
G01 X16.1238 Y14.9167
G01 X16.0940 Y14.8765
G01 X16.0604 Y14.8394
G01 X16.0233 Y14.8058
G01 X15.9831 Y14.7760
G01 X15.9402 Y14.7502
G01 X15.8949 Y14.7288
G01 X15.8478 Y14.7120
G01 X15.7992 Y14.6998
G01 X15.7497 Y14.6925
G01 X15.7350 Y14.6917
G01 X15.7933 Y14.6389
G01 X15.8287 Y14.6035
G01 X15.8847 Y14.5417
G01 X15.9164 Y14.5030
G01 X15.9661 Y14.4360
G01 X15.9939 Y14.3944
G01 X16.0368 Y14.3229
G01 X16.0604 Y14.2787
G01 X16.0961 Y14.2033
G01 X16.1152 Y14.1571
G01 X16.1433 Y14.0786
G01 X16.1579 Y14.0307
G01 X16.1781 Y13.9497
G01 X16.1879 Y13.9007
G01 X16.2001 Y13.8181
G01 X16.2050 Y13.7683
G01 X16.2091 Y13.6850
G01 X16.2091 Y13.6350
G01 X16.2050 Y13.5517
G01 X16.2001 Y13.5019
G01 X16.1879 Y13.4193
G01 X16.1781 Y13.3703
G01 X16.1579 Y13.2893
G01 X16.1433 Y13.2414
G01 X16.1152 Y13.1629
G01 X16.0961 Y13.1167
G01 X16.0604 Y13.0413
G01 X16.0368 Y12.9971
G01 X15.9939 Y12.9256
G01 X15.9661 Y12.8840
G01 X15.9164 Y12.8170
G01 X15.8847 Y12.7783
G01 X15.8287 Y12.7165
G01 X15.7933 Y12.6811
G01 X15.7315 Y12.6251
G01 X15.6928 Y12.5933
G01 X15.6258 Y12.5436
G01 X15.5842 Y12.5158
G01 X15.5126 Y12.4729
G01 X15.4685 Y12.4493
G01 X15.3931 Y12.4137
G01 X15.3468 Y12.3945
G01 X15.3342 Y12.3900
G01 X15.3468 Y12.3855
G01 X15.3931 Y12.3663
G01 X15.4685 Y12.3307
G01 X15.5126 Y12.3071
G01 X15.5842 Y12.2642
G01 X15.6258 Y12.2364
G01 X15.6928 Y12.1867
G01 X15.7315 Y12.1549
G01 X15.7587 Y12.1303
G01 X18.1413 Y12.1303
G01 X20.2654 Y14.2544
G01 X20.2835 Y14.2716
G01 X20.3199 Y14.3046
G01 X20.3586 Y14.3363
G01 X20.3980 Y14.3656
G01 X20.4396 Y14.3934
G01 X20.4817 Y14.4186
G01 X20.5259 Y14.4422
G01 X20.5703 Y14.4632
G01 X20.6165 Y14.4824
G01 X20.6627 Y14.4989
G01 X20.7106 Y14.5134
G01 X20.7582 Y14.5254
G01 X20.8073 Y14.5351
G01 X20.8559 Y14.5423
G01 X20.9057 Y14.5472
G01 X20.9547 Y14.5496
G01 X20.9797 Y14.5503
G01 X21.9208 Y14.5503
G01 X21.9480 Y14.5749
G01 X21.9867 Y14.6067
G01 X22.0537 Y14.6564
G01 X22.0953 Y14.6842
G01 X22.1669 Y14.7271
G01 X22.2110 Y14.7507
G01 X22.2864 Y14.7863
G01 X22.3327 Y14.8055
G01 X22.3453 Y14.8100
G00 Z2.0000
G00 X24.0797 Y4.4100
G01 F60.00
G01 Z-0.1500
G01 F120.00
G01 X22.0797 Y4.4100
G01 X22.0298 Y4.4125
G01 X21.9803 Y4.4198
G01 X21.9317 Y4.4320
G01 X21.8846 Y4.4488
G01 X21.8393 Y4.4702
G01 X21.7964 Y4.4960
G01 X21.7562 Y4.5258
G01 X21.7191 Y4.5594
G01 X21.6855 Y4.5965
G01 X21.6557 Y4.6367
G01 X21.6300 Y4.6796
G01 X21.6086 Y4.7248
G01 X21.5917 Y4.7720
G01 X21.5795 Y4.8205
G01 X21.5722 Y4.8700
G01 X21.5697 Y4.9200
G01 X21.5697 Y6.9200
G01 X21.5722 Y6.9700
G01 X21.5795 Y7.0195
G01 X21.5917 Y7.0680
G01 X21.6086 Y7.1152
G01 X21.6300 Y7.1604
G01 X21.6557 Y7.2033
G01 X21.6855 Y7.2435
G01 X21.7191 Y7.2806
G01 X21.7562 Y7.3142
G01 X21.7964 Y7.3440
G01 X21.8393 Y7.3698
G01 X21.8846 Y7.3912
G01 X21.9317 Y7.4080
G01 X21.9601 Y7.4151
G01 X21.9480 Y7.4251
G01 X21.8862 Y7.4811
G01 X21.8508 Y7.5165
G01 X21.7948 Y7.5783
G01 X21.7631 Y7.6170
G01 X21.7134 Y7.6840
G01 X21.6856 Y7.7256
G01 X21.6427 Y7.7971
G01 X21.6191 Y7.8413
G01 X21.5834 Y7.9167
G01 X21.5643 Y7.9629
G01 X21.5362 Y8.0414
G01 X21.5216 Y8.0893
G01 X21.5014 Y8.1703
G01 X21.4916 Y8.2193
G01 X21.4794 Y8.3019
G01 X21.4745 Y8.3517
G01 X21.4704 Y8.4350
G01 X21.4704 Y8.4850
G01 X21.4745 Y8.5683
G01 X21.4794 Y8.6181
G01 X21.4916 Y8.7007
G01 X21.5014 Y8.7497
G01 X21.5216 Y8.8307
G01 X21.5362 Y8.8786
G01 X21.5643 Y8.9571
G01 X21.5834 Y9.0033
G01 X21.6191 Y9.0787
G01 X21.6427 Y9.1229
G01 X21.6856 Y9.1944
G01 X21.7134 Y9.2360
G01 X21.7631 Y9.3030
G01 X21.7948 Y9.3417
G01 X21.8508 Y9.4035
G01 X21.8862 Y9.4389
G01 X21.9480 Y9.4949
G01 X21.9867 Y9.5267
G01 X22.0537 Y9.5764
G01 X22.0953 Y9.6042
G01 X22.1669 Y9.6471
G01 X22.2110 Y9.6707
G01 X22.2864 Y9.7063
G01 X22.3327 Y9.7255
G01 X22.3453 Y9.7300
G01 X22.3327 Y9.7345
G01 X22.2864 Y9.7537
G01 X22.2110 Y9.7893
G01 X22.1669 Y9.8129
G01 X22.0953 Y9.8558
G01 X22.0537 Y9.8836
G01 X21.9867 Y9.9333
G01 X21.9480 Y9.9651
G01 X21.8862 Y10.0211
G01 X21.8508 Y10.0565
G01 X21.7948 Y10.1183
G01 X21.7631 Y10.1570
G01 X21.7134 Y10.2240
G01 X21.6856 Y10.2656
G01 X21.6427 Y10.3371
G01 X21.6191 Y10.3813
G01 X21.5834 Y10.4567
G01 X21.5643 Y10.5029
G01 X21.5362 Y10.5814
G01 X21.5216 Y10.6293
G01 X21.5014 Y10.7103
G01 X21.4916 Y10.7593
G01 X21.4794 Y10.8419
G01 X21.4745 Y10.8917
G01 X21.4704 Y10.9750
G01 X21.4704 Y11.0250
G01 X21.4745 Y11.1083
G01 X21.4794 Y11.1581
G01 X21.4916 Y11.2407
G01 X21.5014 Y11.2897
G01 X21.5216 Y11.3707
G01 X21.5362 Y11.4186
G01 X21.5643 Y11.4971
G01 X21.5834 Y11.5433
G01 X21.6191 Y11.6187
G01 X21.6427 Y11.6629
G01 X21.6856 Y11.7344
G01 X21.7134 Y11.7760
G01 X21.7631 Y11.8430
G01 X21.7948 Y11.8817
G01 X21.8508 Y11.9435
G01 X21.8862 Y11.9789
G01 X21.9480 Y12.0349
G01 X21.9867 Y12.0667
G01 X22.0537 Y12.1164
G01 X22.0953 Y12.1442
G01 X22.1669 Y12.1871
G01 X22.2110 Y12.2107
G01 X22.2864 Y12.2463
G01 X22.3327 Y12.2655
G01 X22.3453 Y12.2700
G01 X22.3327 Y12.2745
G01 X22.2864 Y12.2937
G01 X22.2110 Y12.3293
G01 X22.1669 Y12.3529
G01 X22.0953 Y12.3958
G01 X22.0537 Y12.4236
G01 X21.9867 Y12.4733
G01 X21.9480 Y12.5051
G01 X21.9208 Y12.5297
G01 X21.3982 Y12.5297
G01 X19.2741 Y10.4056
G01 X19.2560 Y10.3884
G01 X19.2196 Y10.3554
G01 X19.1809 Y10.3237
G01 X19.1415 Y10.2944
G01 X19.0999 Y10.2666
G01 X19.0578 Y10.2414
G01 X19.0136 Y10.2178
G01 X18.9692 Y10.1968
G01 X18.9230 Y10.1776
G01 X18.8768 Y10.1611
G01 X18.8289 Y10.1466
G01 X18.7813 Y10.1346
G01 X18.7322 Y10.1249
G01 X18.6836 Y10.1177
G01 X18.6338 Y10.1128
G01 X18.5848 Y10.1104
G01 X18.5597 Y10.1097
G01 X15.7587 Y10.1097
G01 X15.7315 Y10.0851
G01 X15.6928 Y10.0533
G01 X15.6258 Y10.0036
G01 X15.5842 Y9.9758
G01 X15.5126 Y9.9329
G01 X15.4685 Y9.9093
G01 X15.3931 Y9.8737
G01 X15.3468 Y9.8545
G01 X15.2683 Y9.8264
G01 X15.2204 Y9.8119
G01 X15.1395 Y9.7916
G01 X15.0904 Y9.7819
G01 X15.0079 Y9.7696
G01 X14.9581 Y9.7647
G01 X14.8748 Y9.7606
G01 X14.8497 Y9.7600
G01 X14.7685 Y9.7600
G01 X14.5641 Y9.5556
G01 X14.5460 Y9.5384
G01 X14.5096 Y9.5054
G01 X14.4709 Y9.4737
G01 X14.4315 Y9.4444
G01 X14.3899 Y9.4166
G01 X14.3478 Y9.3914
G01 X14.3036 Y9.3678
G01 X14.2592 Y9.3468
G01 X14.2130 Y9.3276
G01 X14.1668 Y9.3111
G01 X14.1189 Y9.2966
G01 X14.0713 Y9.2846
G01 X14.0222 Y9.2749
G01 X13.9736 Y9.2677
G01 X13.9238 Y9.2628
G01 X13.8748 Y9.2604
G01 X13.8498 Y9.2598
G01 X12.1864 Y9.2598
G01 X12.1765 Y9.2433
G01 X12.1487 Y9.2017
G01 X12.0756 Y9.1032
G01 X12.0439 Y9.0645
G01 X11.9615 Y8.9736
G01 X11.9261 Y8.9382
G01 X11.8352 Y8.8559
G01 X11.7965 Y8.8241
G01 X11.6980 Y8.7510
G01 X11.6564 Y8.7232
G01 X11.5512 Y8.6602
G01 X11.5070 Y8.6366
G01 X11.3962 Y8.5841
G01 X11.3499 Y8.5650
G01 X11.2344 Y8.5236
G01 X11.1865 Y8.5091
G01 X11.0675 Y8.4793
G01 X11.0184 Y8.4695
G01 X10.8971 Y8.4515
G01 X10.8473 Y8.4466
G01 X10.7248 Y8.4406
G01 X10.6747 Y8.4406
G01 X10.5522 Y8.4466
G01 X10.5024 Y8.4515
G01 X10.3811 Y8.4695
G01 X10.3320 Y8.4793
G01 X10.2130 Y8.5091
G01 X10.1651 Y8.5236
G01 X10.0496 Y8.5650
G01 X10.0033 Y8.5841
G01 X9.8925 Y8.6366
G01 X9.8483 Y8.6602
G01 X9.7431 Y8.7232
G01 X9.7015 Y8.7510
G01 X9.6030 Y8.8241
G01 X9.5643 Y8.8559
G01 X9.4734 Y8.9382
G01 X9.4380 Y8.9736
G01 X9.3556 Y9.0645
G01 X9.3239 Y9.1032
G01 X9.2508 Y9.2017
G01 X9.2230 Y9.2433
G01 X9.2100 Y9.2650
G01 X9.2100 Y6.1185
G01 X11.1182 Y4.2103
G01 X25.2813 Y4.2103
G01 X28.1895 Y7.1185
G01 X28.1895 Y7.7599
G01 X28.1030 Y7.8241
G01 X28.0643 Y7.8559
G01 X27.9734 Y7.9382
G01 X27.9380 Y7.9736
G01 X27.8556 Y8.0645
G01 X27.8239 Y8.1032
G01 X27.7508 Y8.2017
G01 X27.7230 Y8.2433
G01 X27.6599 Y8.3486
G01 X27.6363 Y8.3927
G01 X27.5839 Y8.5036
G01 X27.5647 Y8.5498
G01 X27.5234 Y8.6653
G01 X27.5089 Y8.7132
G01 X27.4791 Y8.8322
G01 X27.4693 Y8.8813
G01 X27.4513 Y9.0026
G01 X27.4464 Y9.0525
G01 X27.4404 Y9.1750
G01 X27.4404 Y9.2250
G01 X27.4464 Y9.3475
G01 X27.4513 Y9.3974
G01 X27.4693 Y9.5187
G01 X27.4791 Y9.5678
G01 X27.5089 Y9.6868
G01 X27.5234 Y9.7347
G01 X27.5647 Y9.8502
G01 X27.5839 Y9.8964
G01 X27.6363 Y10.0073
G01 X27.6599 Y10.0514
G01 X27.7230 Y10.1567
G01 X27.7508 Y10.1983
G01 X27.8239 Y10.2968
G01 X27.8556 Y10.3355
G01 X27.9380 Y10.4264
G01 X27.9734 Y10.4618
G01 X28.0643 Y10.5441
G01 X28.1030 Y10.5759
G01 X28.2015 Y10.6490
G01 X28.2431 Y10.6768
G01 X28.3483 Y10.7398
G01 X28.3925 Y10.7634
G01 X28.5033 Y10.8159
G01 X28.5496 Y10.8350
G01 X28.6651 Y10.8764
G01 X28.7130 Y10.8909
G01 X28.8320 Y10.9207
G01 X28.8811 Y10.9305
G01 X29.0024 Y10.9485
G01 X29.0522 Y10.9534
G01 X29.1747 Y10.9594
G01 X29.2248 Y10.9594
G01 X29.3473 Y10.9534
G01 X29.3971 Y10.9485
G01 X29.5184 Y10.9305
G01 X29.5675 Y10.9207
G01 X29.6865 Y10.8909
G01 X29.7344 Y10.8764
G01 X29.8499 Y10.8350
G01 X29.8962 Y10.8159
G01 X30.0070 Y10.7634
G01 X30.0512 Y10.7398
G01 X30.1564 Y10.6768
G01 X30.1980 Y10.6490
G01 X30.2965 Y10.5759
G01 X30.3352 Y10.5441
G01 X30.4261 Y10.4618
G01 X30.4615 Y10.4264
G01 X30.5439 Y10.3355
G01 X30.5756 Y10.2968
G01 X30.6487 Y10.1983
G01 X30.6765 Y10.1567
G01 X30.7396 Y10.0514
G01 X30.7632 Y10.0073
G01 X30.8156 Y9.8964
G01 X30.8348 Y9.8502
G01 X30.8761 Y9.7347
G01 X30.8906 Y9.6868
G01 X30.9204 Y9.5678
G01 X30.9302 Y9.5187
G01 X30.9482 Y9.3974
G01 X30.9531 Y9.3475
G01 X30.9591 Y9.2250
G01 X30.9591 Y9.1750
G01 X30.9531 Y9.0525
G01 X30.9482 Y9.0026
G01 X30.9324 Y8.8961
G01 X33.1182 Y6.7103
G01 X35.5912 Y6.7103
G01 X35.5986 Y6.7163
G01 X35.6380 Y6.7456
G01 X35.6796 Y6.7734
G01 X35.7217 Y6.7986
G01 X35.7659 Y6.8222
G01 X35.8103 Y6.8432
G01 X35.8565 Y6.8624
G01 X35.9027 Y6.8789
G01 X35.9506 Y6.8934
G01 X35.9982 Y6.9054
G01 X36.0473 Y6.9151
G01 X36.0959 Y6.9223
G01 X36.1457 Y6.9272
G01 X36.1947 Y6.9296
G01 X36.2197 Y6.9303
G01 X37.1608 Y6.9303
G01 X37.1880 Y6.9549
G01 X37.2267 Y6.9867
G01 X37.2937 Y7.0364
G01 X37.3353 Y7.0642
G01 X37.4069 Y7.1071
G01 X37.4510 Y7.1307
G01 X37.5264 Y7.1663
G01 X37.5727 Y7.1855
G01 X37.5853 Y7.1900
G01 X37.5727 Y7.1945
G01 X37.5264 Y7.2137
G01 X37.4510 Y7.2493
G01 X37.4069 Y7.2729
G01 X37.3353 Y7.3158
G01 X37.2937 Y7.3436
G01 X37.2267 Y7.3933
G01 X37.1880 Y7.4251
G01 X37.1608 Y7.4497
G01 X36.2197 Y7.4497
G01 X36.1947 Y7.4504
G01 X36.1457 Y7.4528
G01 X36.0959 Y7.4577
G01 X36.0473 Y7.4649
G01 X35.9982 Y7.4746
G01 X35.9506 Y7.4866
G01 X35.9027 Y7.5011
G01 X35.8565 Y7.5176
G01 X35.8103 Y7.5368
G01 X35.7659 Y7.5578
G01 X35.7217 Y7.5814
G01 X35.6796 Y7.6066
G01 X35.6380 Y7.6344
G01 X35.5986 Y7.6637
G01 X35.5599 Y7.6954
G01 X35.5235 Y7.7284
G01 X35.5054 Y7.7456
G01 X30.7213 Y12.5297
G01 X24.2387 Y12.5297
G01 X24.2115 Y12.5051
G01 X24.1728 Y12.4733
G01 X24.1058 Y12.4236
G01 X24.0642 Y12.3958
G01 X23.9926 Y12.3529
G01 X23.9485 Y12.3293
G01 X23.8731 Y12.2937
G01 X23.8268 Y12.2745
G01 X23.8142 Y12.2700
G01 X23.8268 Y12.2655
G01 X23.8731 Y12.2463
G01 X23.9485 Y12.2107
G01 X23.9926 Y12.1871
G01 X24.0642 Y12.1442
G01 X24.1058 Y12.1164
G01 X24.1728 Y12.0667
G01 X24.2115 Y12.0349
G01 X24.2733 Y11.9789
G01 X24.3087 Y11.9435
G01 X24.3647 Y11.8817
G01 X24.3964 Y11.8430
G01 X24.4461 Y11.7760
G01 X24.4739 Y11.7344
G01 X24.5168 Y11.6629
G01 X24.5404 Y11.6187
G01 X24.5761 Y11.5433
G01 X24.5952 Y11.4971
G01 X24.6233 Y11.4186
G01 X24.6379 Y11.3707
G01 X24.6581 Y11.2897
G01 X24.6679 Y11.2407
G01 X24.6801 Y11.1581
G01 X24.6850 Y11.1083
G01 X24.6891 Y11.0250
G01 X24.6891 Y10.9750
G01 X24.6850 Y10.8917
G01 X24.6801 Y10.8419
G01 X24.6679 Y10.7593
G01 X24.6581 Y10.7103
G01 X24.6379 Y10.6293
G01 X24.6233 Y10.5814
G01 X24.5952 Y10.5029
G01 X24.5761 Y10.4567
G01 X24.5404 Y10.3813
G01 X24.5168 Y10.3371
G01 X24.4739 Y10.2656
G01 X24.4461 Y10.2240
G01 X24.3964 Y10.1570
G01 X24.3647 Y10.1183
G01 X24.3087 Y10.0565
G01 X24.2733 Y10.0211
G01 X24.2115 Y9.9651
G01 X24.1728 Y9.9333
G01 X24.1058 Y9.8836
G01 X24.0642 Y9.8558
G01 X23.9926 Y9.8129
G01 X23.9485 Y9.7893
G01 X23.8731 Y9.7537
G01 X23.8268 Y9.7345
G01 X23.8142 Y9.7300
G01 X23.8268 Y9.7255
G01 X23.8731 Y9.7063
G01 X23.9485 Y9.6707
G01 X23.9926 Y9.6471
G01 X24.0642 Y9.6042
G01 X24.1058 Y9.5764
G01 X24.1728 Y9.5267
G01 X24.2115 Y9.4949
G01 X24.2733 Y9.4389
G01 X24.3087 Y9.4035
G01 X24.3647 Y9.3417
G01 X24.3964 Y9.3030
G01 X24.4461 Y9.2360
G01 X24.4739 Y9.1944
G01 X24.5168 Y9.1229
G01 X24.5404 Y9.0787
G01 X24.5761 Y9.0033
G01 X24.5952 Y8.9571
G01 X24.6233 Y8.8786
G01 X24.6379 Y8.8307
G01 X24.6581 Y8.7497
G01 X24.6679 Y8.7007
G01 X24.6801 Y8.6181
G01 X24.6850 Y8.5683
G01 X24.6891 Y8.4850
G01 X24.6891 Y8.4350
G01 X24.6850 Y8.3517
G01 X24.6801 Y8.3019
G01 X24.6679 Y8.2193
G01 X24.6581 Y8.1703
G01 X24.6379 Y8.0893
G01 X24.6233 Y8.0414
G01 X24.5952 Y7.9629
G01 X24.5761 Y7.9167
G01 X24.5404 Y7.8413
G01 X24.5168 Y7.7971
G01 X24.4739 Y7.7256
G01 X24.4461 Y7.6840
G01 X24.3964 Y7.6170
G01 X24.3647 Y7.5783
G01 X24.3087 Y7.5165
G01 X24.2733 Y7.4811
G01 X24.2115 Y7.4251
G01 X24.1994 Y7.4151
G01 X24.2278 Y7.4080
G01 X24.2749 Y7.3912
G01 X24.3202 Y7.3698
G01 X24.3631 Y7.3440
G01 X24.4033 Y7.3142
G01 X24.4404 Y7.2806
G01 X24.4740 Y7.2435
G01 X24.5038 Y7.2033
G01 X24.5295 Y7.1604
G01 X24.5509 Y7.1152
G01 X24.5678 Y7.0680
G01 X24.5800 Y7.0195
G01 X24.5873 Y6.9700
G01 X24.5897 Y6.9200
G01 X24.5897 Y4.9200
G01 X24.5873 Y4.8700
G01 X24.5800 Y4.8205
G01 X24.5678 Y4.7720
G01 X24.5509 Y4.7248
G01 X24.5295 Y4.6796
G01 X24.5038 Y4.6367
G01 X24.4740 Y4.5965
G01 X24.4404 Y4.5594
G01 X24.4033 Y4.5258
G01 X24.3631 Y4.4960
G01 X24.3202 Y4.4702
G01 X24.2749 Y4.4488
G01 X24.2278 Y4.4320
G01 X24.1792 Y4.4198
G01 X24.1297 Y4.4125
G01 X24.0797 Y4.4100
G00 Z2.0000
G00 X39.0542 Y7.1900
G01 F60.00
G01 Z-0.1500
G01 F120.00
G01 X39.0668 Y7.1855
G01 X39.1131 Y7.1663
G01 X39.1885 Y7.1307
G01 X39.2326 Y7.1071
G01 X39.3042 Y7.0642
G01 X39.3458 Y7.0364
G01 X39.4128 Y6.9867
G01 X39.4515 Y6.9549
G01 X39.4785 Y6.9304
G01 X43.2377 Y6.9334
G01 X43.2721 Y6.9646
G01 X43.3108 Y6.9963
G01 X43.3503 Y7.0256
G01 X43.3919 Y7.0534
G01 X43.4340 Y7.0786
G01 X43.4781 Y7.1022
G01 X43.5225 Y7.1232
G01 X43.5687 Y7.1424
G01 X43.6150 Y7.1589
G01 X43.6628 Y7.1734
G01 X43.7105 Y7.1854
G01 X43.7596 Y7.1951
G01 X43.8081 Y7.2023
G01 X43.8579 Y7.2072
G01 X43.9070 Y7.2096
G01 X43.9320 Y7.2103
G01 X44.2597 Y7.2103
G01 X44.3239 Y7.2968
G01 X44.3556 Y7.3355
G01 X44.4380 Y7.4264
G01 X44.4614 Y7.4497
G01 X39.4787 Y7.4497
G01 X39.4515 Y7.4251
G01 X39.4128 Y7.3933
G01 X39.3458 Y7.3436
G01 X39.3042 Y7.3158
G01 X39.2326 Y7.2729
G01 X39.1885 Y7.2493
G01 X39.1131 Y7.2137
G01 X39.0668 Y7.1945
G01 X39.0542 Y7.1900
G00 Z2.0000
G00 X46.9381 Y7.4497
G01 F60.00
G01 Z-0.1500
G01 F120.00
G01 X46.9615 Y7.4264
G01 X47.0439 Y7.3355
G01 X47.0756 Y7.2968
G01 X47.1487 Y7.1983
G01 X47.1765 Y7.1567
G01 X47.2396 Y7.0514
G01 X47.2632 Y7.0073
G01 X47.3156 Y6.8964
G01 X47.3348 Y6.8502
G01 X47.3761 Y6.7347
G01 X47.3906 Y6.6868
G01 X47.4204 Y6.5678
G01 X47.4302 Y6.5187
G01 X47.4482 Y6.3974
G01 X47.4531 Y6.3475
G01 X47.4591 Y6.2250
G01 X47.4591 Y6.1750
G01 X47.4531 Y6.0525
G01 X47.4482 Y6.0026
G01 X47.4302 Y5.8813
G01 X47.4204 Y5.8322
G01 X47.3906 Y5.7132
G01 X47.3761 Y5.6653
G01 X47.3348 Y5.5498
G01 X47.3156 Y5.5036
G01 X47.2632 Y5.3927
G01 X47.2396 Y5.3486
G01 X47.1765 Y5.2433
G01 X47.1487 Y5.2017
G01 X47.0756 Y5.1032
G01 X47.0439 Y5.0645
G01 X46.9615 Y4.9736
G01 X46.9261 Y4.9382
G01 X46.8352 Y4.8559
G01 X46.7965 Y4.8241
G01 X46.6980 Y4.7510
G01 X46.6564 Y4.7232
G01 X46.5512 Y4.6602
G01 X46.5070 Y4.6366
G01 X46.3962 Y4.5841
G01 X46.3499 Y4.5650
G01 X46.2344 Y4.5236
G01 X46.1865 Y4.5091
G01 X46.0675 Y4.4793
G01 X46.0184 Y4.4695
G01 X45.8971 Y4.4515
G01 X45.8473 Y4.4466
G01 X45.7248 Y4.4406
G01 X45.6747 Y4.4406
G01 X45.5522 Y4.4466
G01 X45.5024 Y4.4515
G01 X45.3811 Y4.4695
G01 X45.3320 Y4.4793
G01 X45.2130 Y4.5091
G01 X45.1651 Y4.5236
G01 X45.0496 Y4.5650
G01 X45.0033 Y4.5841
G01 X44.8925 Y4.6366
G01 X44.8483 Y4.6602
G01 X44.7431 Y4.7232
G01 X44.7015 Y4.7510
G01 X44.6030 Y4.8241
G01 X44.5643 Y4.8559
G01 X44.4734 Y4.9382
G01 X44.4380 Y4.9736
G01 X44.3900 Y5.0265
G01 X44.3736 Y5.0178
G01 X44.3292 Y4.9968
G01 X44.2830 Y4.9776
G01 X44.2368 Y4.9611
G01 X44.1889 Y4.9466
G01 X44.1413 Y4.9346
G01 X44.0922 Y4.9249
G01 X44.0436 Y4.9177
G01 X43.9938 Y4.9128
G01 X43.9448 Y4.9104
G01 X43.9197 Y4.9097
G01 X39.4787 Y4.9097
G01 X39.4515 Y4.8851
G01 X39.4128 Y4.8533
G01 X39.3458 Y4.8036
G01 X39.3042 Y4.7758
G01 X39.2326 Y4.7329
G01 X39.1885 Y4.7093
G01 X39.1131 Y4.6737
G01 X39.0668 Y4.6545
G01 X38.9883 Y4.6264
G01 X38.9404 Y4.6119
G01 X38.8595 Y4.5916
G01 X38.8104 Y4.5819
G01 X38.7279 Y4.5696
G01 X38.6781 Y4.5647
G01 X38.5948 Y4.5606
G01 X38.5697 Y4.5600
G01 X38.0697 Y4.5600
G01 X38.0447 Y4.5606
G01 X37.9614 Y4.5647
G01 X37.9116 Y4.5696
G01 X37.8291 Y4.5819
G01 X37.7800 Y4.5916
G01 X37.6991 Y4.6119
G01 X37.6512 Y4.6264
G01 X37.5727 Y4.6545
G01 X37.5264 Y4.6737
G01 X37.4510 Y4.7093
G01 X37.4069 Y4.7329
G01 X37.3353 Y4.7758
G01 X37.2937 Y4.8036
G01 X37.2267 Y4.8533
G01 X37.1880 Y4.8851
G01 X37.1608 Y4.9097
G01 X36.6283 Y4.9097
G01 X36.6209 Y4.9037
G01 X36.5815 Y4.8744
G01 X36.5399 Y4.8466
G01 X36.4978 Y4.8214
G01 X36.4536 Y4.7978
G01 X36.4092 Y4.7768
G01 X36.3630 Y4.7576
G01 X36.3168 Y4.7411
G01 X36.2689 Y4.7266
G01 X36.2213 Y4.7146
G01 X36.1722 Y4.7049
G01 X36.1236 Y4.6977
G01 X36.0738 Y4.6928
G01 X36.0248 Y4.6904
G01 X35.9997 Y4.6897
G01 X32.6997 Y4.6897
G01 X32.6747 Y4.6904
G01 X32.6257 Y4.6928
G01 X32.5759 Y4.6977
G01 X32.5273 Y4.7049
G01 X32.4782 Y4.7146
G01 X32.4306 Y4.7266
G01 X32.3827 Y4.7411
G01 X32.3365 Y4.7576
G01 X32.2903 Y4.7768
G01 X32.2459 Y4.7978
G01 X32.2017 Y4.8214
G01 X32.1596 Y4.8466
G01 X32.1180 Y4.8744
G01 X32.0786 Y4.9037
G01 X32.0399 Y4.9354
G01 X32.0035 Y4.9684
G01 X31.9854 Y4.9856
G01 X30.2100 Y6.7610
G01 X30.2100 Y6.7000
G01 X30.2094 Y6.6750
G01 X30.2070 Y6.6259
G01 X30.2021 Y6.5761
G01 X30.1949 Y6.5276
G01 X30.1851 Y6.4785
G01 X30.1732 Y6.4309
G01 X30.1586 Y6.3830
G01 X30.1421 Y6.3367
G01 X30.1230 Y6.2905
G01 X30.1020 Y6.2461
G01 X30.0784 Y6.2020
G01 X30.0531 Y6.1599
G01 X30.0253 Y6.1183
G01 X29.9961 Y6.0788
G01 X29.9643 Y6.0401
G01 X29.9314 Y6.0038
G01 X29.9141 Y5.9856
G01 X26.6387 Y2.7103
G01 X49.2813 Y2.7103
G01 X52.1895 Y5.6185
G01 X52.1895 Y6.3500
G01 X52.1901 Y6.3750
G01 X52.1925 Y6.4241
G01 X52.1974 Y6.4739
G01 X52.2046 Y6.5224
G01 X52.2144 Y6.5715
G01 X52.2263 Y6.6191
G01 X52.2409 Y6.6670
G01 X52.2574 Y6.7133
G01 X52.2765 Y6.7595
G01 X52.2975 Y6.8039
G01 X52.3211 Y6.8480
G01 X52.3464 Y6.8901
G01 X52.3742 Y6.9317
G01 X52.4034 Y6.9712
G01 X52.4352 Y7.0099
G01 X52.4681 Y7.0462
G01 X52.4854 Y7.0644
G01 X57.1182 Y11.6971
G01 X57.1003 Y11.6998
G01 X57.0517 Y11.7120
G01 X57.0046 Y11.7288
G01 X56.9593 Y11.7502
G01 X56.9164 Y11.7760
G01 X56.8762 Y11.8058
G01 X56.8391 Y11.8394
G01 X56.8055 Y11.8765
G01 X56.7757 Y11.9167
G01 X56.7500 Y11.9596
G01 X56.7286 Y12.0048
G01 X56.7117 Y12.0520
G01 X56.6995 Y12.1005
G01 X56.6922 Y12.1500
G01 X56.6897 Y12.2000
G01 X56.6897 Y14.2000
G01 X56.6922 Y14.2500
G01 X56.6995 Y14.2995
G01 X56.7117 Y14.3480
G01 X56.7286 Y14.3952
G01 X56.7500 Y14.4404
G01 X56.7757 Y14.4833
G01 X56.8055 Y14.5235
G01 X56.8391 Y14.5606
G01 X56.8762 Y14.5942
G01 X56.9164 Y14.6240
G01 X56.9593 Y14.6498
G01 X57.0046 Y14.6712
G01 X57.0517 Y14.6880
G01 X57.1003 Y14.7002
G01 X57.1498 Y14.7075
G01 X57.1645 Y14.7083
G01 X57.1408 Y14.7297
G01 X55.6582 Y14.7297
G01 X54.7100 Y13.7815
G01 X54.7100 Y13.7000
G01 X54.7094 Y13.6750
G01 X54.7070 Y13.6259
G01 X54.7021 Y13.5761
G01 X54.6949 Y13.5276
G01 X54.6851 Y13.4785
G01 X54.6732 Y13.4309
G01 X54.6586 Y13.3830
G01 X54.6421 Y13.3367
G01 X54.6230 Y13.2905
G01 X54.6020 Y13.2461
G01 X54.5784 Y13.2020
G01 X54.5531 Y13.1599
G01 X54.5253 Y13.1183
G01 X54.4961 Y13.0788
G01 X54.4643 Y13.0401
G01 X54.4314 Y13.0038
G01 X54.4141 Y12.9856
G01 X49.1741 Y7.7456
G01 X49.1560 Y7.7284
G01 X49.1196 Y7.6954
G01 X49.0809 Y7.6637
G01 X49.0415 Y7.6344
G01 X48.9999 Y7.6066
G01 X48.9578 Y7.5814
G01 X48.9136 Y7.5578
G01 X48.8692 Y7.5368
G01 X48.8230 Y7.5176
G01 X48.7768 Y7.5011
G01 X48.7289 Y7.4866
G01 X48.6813 Y7.4746
G01 X48.6322 Y7.4649
G01 X48.5836 Y7.4577
G01 X48.5338 Y7.4528
G01 X48.4848 Y7.4504
G01 X48.4597 Y7.4497
G01 X46.9381 Y7.4497
G00 Z2.0000
G00 X59.2350 Y14.7083
G01 F60.00
G01 Z-0.1500
G01 F120.00
G01 X59.2933 Y14.7611
G01 X59.3287 Y14.7965
G01 X59.3847 Y14.8583
G01 X59.4164 Y14.8970
G01 X59.4661 Y14.9640
G01 X59.4939 Y15.0056
G01 X59.5368 Y15.0771
G01 X59.5604 Y15.1213
G01 X59.5961 Y15.1967
G01 X59.6152 Y15.2429
G01 X59.6433 Y15.3214
G01 X59.6579 Y15.3693
G01 X59.6781 Y15.4503
G01 X59.6879 Y15.4993
G01 X59.7001 Y15.5819
G01 X59.7050 Y15.6317
G01 X59.7091 Y15.7150
G01 X59.7091 Y15.7650
G01 X59.7050 Y15.8483
G01 X59.7001 Y15.8981
G01 X59.6879 Y15.9807
G01 X59.6781 Y16.0297
G01 X59.6579 Y16.1107
G01 X59.6433 Y16.1586
G01 X59.6152 Y16.2371
G01 X59.5961 Y16.2833
G01 X59.5604 Y16.3587
G01 X59.5368 Y16.4029
G01 X59.4939 Y16.4744
G01 X59.4661 Y16.5160
G01 X59.4164 Y16.5830
G01 X59.3847 Y16.6217
G01 X59.3287 Y16.6835
G01 X59.2933 Y16.7189
G01 X59.2315 Y16.7749
G01 X59.2100 Y16.7926
G01 X59.2100 Y19.6474
G01 X59.2315 Y19.6651
G01 X59.2933 Y19.7211
G01 X59.3287 Y19.7565
G01 X59.3847 Y19.8183
G01 X59.4164 Y19.8570
G01 X59.4661 Y19.9240
G01 X59.4939 Y19.9656
G01 X59.5368 Y20.0371
G01 X59.5604 Y20.0813
G01 X59.5961 Y20.1567
G01 X59.6152 Y20.2029
G01 X59.6433 Y20.2814
G01 X59.6579 Y20.3293
G01 X59.6781 Y20.4103
G01 X59.6879 Y20.4593
G01 X59.7001 Y20.5419
G01 X59.7050 Y20.5917
G01 X59.7091 Y20.6750
G01 X59.7091 Y20.7250
G01 X59.7050 Y20.8083
G01 X59.7001 Y20.8581
G01 X59.6879 Y20.9407
G01 X59.6781 Y20.9897
G01 X59.6579 Y21.0707
G01 X59.6433 Y21.1186
G01 X59.6152 Y21.1971
G01 X59.5961 Y21.2433
G01 X59.5604 Y21.3187
G01 X59.5368 Y21.3629
G01 X59.4939 Y21.4344
G01 X59.4661 Y21.4760
G01 X59.4164 Y21.5430
G01 X59.3847 Y21.5817
G01 X59.3287 Y21.6435
G01 X59.2933 Y21.6789
G01 X59.2350 Y21.7317
G01 X59.2497 Y21.7325
G01 X59.2992 Y21.7398
G01 X59.3478 Y21.7520
G01 X59.3949 Y21.7688
G01 X59.4402 Y21.7902
G01 X59.4831 Y21.8160
G01 X59.5233 Y21.8458
G01 X59.5604 Y21.8794
G01 X59.5940 Y21.9165
G01 X59.6238 Y21.9567
G01 X59.6495 Y21.9996
G01 X59.6709 Y22.0448
G01 X59.6878 Y22.0920
G01 X59.7000 Y22.1405
G01 X59.7073 Y22.1900
G01 X59.7097 Y22.2400
G01 X59.7097 Y24.2400
G01 X59.7073 Y24.2900
G01 X59.7000 Y24.3395
G01 X59.6878 Y24.3880
G01 X59.6709 Y24.4352
G01 X59.6495 Y24.4804
G01 X59.6238 Y24.5233
G01 X59.5940 Y24.5635
G01 X59.5604 Y24.6006
G01 X59.5233 Y24.6342
G01 X59.4831 Y24.6640
G01 X59.4402 Y24.6898
G01 X59.3949 Y24.7112
G01 X59.3478 Y24.7280
G01 X59.2992 Y24.7402
G01 X59.2497 Y24.7475
G01 X59.1997 Y24.7500
G01 X57.1997 Y24.7500
G01 X57.1498 Y24.7475
G01 X57.1003 Y24.7402
G01 X57.0517 Y24.7280
G01 X57.0046 Y24.7112
G01 X56.9593 Y24.6898
G01 X56.9164 Y24.6640
G01 X56.8762 Y24.6342
G01 X56.8391 Y24.6006
G01 X56.8055 Y24.5635
G01 X56.7757 Y24.5233
G01 X56.7500 Y24.4804
G01 X56.7286 Y24.4352
G01 X56.7117 Y24.3880
G01 X56.6995 Y24.3395
G01 X56.6922 Y24.2900
G01 X56.6903 Y24.2503
G01 X56.2397 Y24.2503
G01 X56.2147 Y24.2496
G01 X56.1657 Y24.2472
G01 X56.1159 Y24.2423
G01 X56.0673 Y24.2351
G01 X56.0182 Y24.2254
G01 X55.9706 Y24.2134
G01 X55.9227 Y24.1989
G01 X55.8765 Y24.1824
G01 X55.8303 Y24.1632
G01 X55.7859 Y24.1422
G01 X55.7417 Y24.1186
G01 X55.6996 Y24.0934
G01 X55.6580 Y24.0656
G01 X55.6186 Y24.0363
G01 X55.5799 Y24.0046
G01 X55.5435 Y23.9716
G01 X55.5254 Y23.9544
G01 X54.4854 Y22.9144
G01 X54.4681 Y22.8962
G01 X54.4352 Y22.8599
G01 X54.4034 Y22.8212
G01 X54.3742 Y22.7817
G01 X54.3464 Y22.7401
G01 X54.3211 Y22.6980
G01 X54.2975 Y22.6539
G01 X54.2765 Y22.6095
G01 X54.2574 Y22.5633
G01 X54.2409 Y22.5170
G01 X54.2263 Y22.4691
G01 X54.2144 Y22.4215
G01 X54.2046 Y22.3724
G01 X54.1974 Y22.3239
G01 X54.1925 Y22.2741
G01 X54.1901 Y22.2250
G01 X54.1895 Y22.2000
G01 X54.1895 Y20.1401
G01 X54.1030 Y20.0759
G01 X54.0643 Y20.0441
G01 X53.9734 Y19.9618
G01 X53.9380 Y19.9264
G01 X53.8556 Y19.8355
G01 X53.8239 Y19.7968
G01 X53.7508 Y19.6983
G01 X53.7230 Y19.6567
G01 X53.6599 Y19.5514
G01 X53.6363 Y19.5073
G01 X53.5839 Y19.3964
G01 X53.5647 Y19.3502
G01 X53.5234 Y19.2347
G01 X53.5089 Y19.1868
G01 X53.4791 Y19.0678
G01 X53.4693 Y19.0187
G01 X53.4513 Y18.8974
G01 X53.4464 Y18.8475
G01 X53.4404 Y18.7250
G01 X53.4404 Y18.6750
G01 X53.4464 Y18.5525
G01 X53.4513 Y18.5026
G01 X53.4693 Y18.3813
G01 X53.4791 Y18.3322
G01 X53.5089 Y18.2132
G01 X53.5234 Y18.1653
G01 X53.5647 Y18.0498
G01 X53.5839 Y18.0036
G01 X53.6363 Y17.8927
G01 X53.6599 Y17.8486
G01 X53.7230 Y17.7433
G01 X53.7508 Y17.7017
G01 X53.8239 Y17.6032
G01 X53.8556 Y17.5645
G01 X53.9380 Y17.4736
G01 X53.9734 Y17.4382
G01 X54.0643 Y17.3559
G01 X54.1030 Y17.3241
G01 X54.2015 Y17.2510
G01 X54.2431 Y17.2232
G01 X54.3483 Y17.1602
G01 X54.3925 Y17.1366
G01 X54.5033 Y17.0841
G01 X54.5496 Y17.0650
G01 X54.6651 Y17.0236
G01 X54.7130 Y17.0091
G01 X54.8320 Y16.9793
G01 X54.8811 Y16.9695
G01 X55.0024 Y16.9515
G01 X55.0522 Y16.9466
G01 X55.1747 Y16.9406
G01 X55.2248 Y16.9406
G01 X55.3473 Y16.9466
G01 X55.3971 Y16.9515
G01 X55.5184 Y16.9695
G01 X55.5675 Y16.9793
G01 X55.6865 Y17.0091
G01 X55.7344 Y17.0236
G01 X55.8499 Y17.0650
G01 X55.8962 Y17.0841
G01 X56.0070 Y17.1366
G01 X56.0512 Y17.1602
G01 X56.1564 Y17.2232
G01 X56.1980 Y17.2510
G01 X56.2965 Y17.3241
G01 X56.3352 Y17.3559
G01 X56.4261 Y17.4382
G01 X56.4615 Y17.4736
G01 X56.5439 Y17.5645
G01 X56.5756 Y17.6032
G01 X56.6487 Y17.7017
G01 X56.6765 Y17.7433
G01 X56.7396 Y17.8486
G01 X56.7632 Y17.8927
G01 X56.8156 Y18.0036
G01 X56.8348 Y18.0498
G01 X56.8761 Y18.1653
G01 X56.8906 Y18.2132
G01 X56.9204 Y18.3322
G01 X56.9302 Y18.3813
G01 X56.9482 Y18.5026
G01 X56.9531 Y18.5525
G01 X56.9591 Y18.6750
G01 X56.9591 Y18.7250
G01 X56.9531 Y18.8475
G01 X56.9482 Y18.8974
G01 X56.9302 Y19.0187
G01 X56.9204 Y19.0678
G01 X56.8906 Y19.1868
G01 X56.8761 Y19.2347
G01 X56.8348 Y19.3502
G01 X56.8156 Y19.3964
G01 X56.7632 Y19.5073
G01 X56.7396 Y19.5514
G01 X56.6765 Y19.6567
G01 X56.6487 Y19.6983
G01 X56.5756 Y19.7968
G01 X56.5439 Y19.8355
G01 X56.4615 Y19.9264
G01 X56.4261 Y19.9618
G01 X56.3352 Y20.0441
G01 X56.2965 Y20.0759
G01 X56.2100 Y20.1401
G01 X56.2100 Y21.7815
G01 X56.6582 Y22.2297
G01 X56.6903 Y22.2297
G01 X56.6922 Y22.1900
G01 X56.6995 Y22.1405
G01 X56.7117 Y22.0920
G01 X56.7286 Y22.0448
G01 X56.7500 Y21.9996
G01 X56.7757 Y21.9567
G01 X56.8055 Y21.9165
G01 X56.8391 Y21.8794
G01 X56.8762 Y21.8458
G01 X56.9164 Y21.8160
G01 X56.9593 Y21.7902
G01 X57.0046 Y21.7688
G01 X57.0517 Y21.7520
G01 X57.1003 Y21.7398
G01 X57.1498 Y21.7325
G01 X57.1645 Y21.7317
G01 X57.1062 Y21.6789
G01 X57.0708 Y21.6435
G01 X57.0148 Y21.5817
G01 X56.9831 Y21.5430
G01 X56.9334 Y21.4760
G01 X56.9056 Y21.4344
G01 X56.8627 Y21.3629
G01 X56.8391 Y21.3187
G01 X56.8034 Y21.2433
G01 X56.7843 Y21.1971
G01 X56.7562 Y21.1186
G01 X56.7416 Y21.0707
G01 X56.7214 Y20.9897
G01 X56.7116 Y20.9407
G01 X56.6994 Y20.8581
G01 X56.6945 Y20.8083
G01 X56.6904 Y20.7250
G01 X56.6904 Y20.6750
G01 X56.6945 Y20.5917
G01 X56.6994 Y20.5419
G01 X56.7116 Y20.4593
G01 X56.7214 Y20.4103
G01 X56.7416 Y20.3293
G01 X56.7562 Y20.2814
G01 X56.7843 Y20.2029
G01 X56.8034 Y20.1567
G01 X56.8391 Y20.0813
G01 X56.8627 Y20.0371
G01 X56.9056 Y19.9656
G01 X56.9334 Y19.9240
G01 X56.9831 Y19.8570
G01 X57.0148 Y19.8183
G01 X57.0708 Y19.7565
G01 X57.1062 Y19.7211
G01 X57.1680 Y19.6651
G01 X57.1895 Y19.6474
G01 X57.1895 Y16.7926
G01 X57.1680 Y16.7749
G01 X57.1408 Y16.7503
G01 X55.2397 Y16.7503
G01 X55.2147 Y16.7496
G01 X55.1657 Y16.7472
G01 X55.1159 Y16.7423
G01 X55.0673 Y16.7351
G01 X55.0182 Y16.7254
G01 X54.9706 Y16.7134
G01 X54.9227 Y16.6989
G01 X54.8765 Y16.6824
G01 X54.8303 Y16.6632
G01 X54.7859 Y16.6422
G01 X54.7417 Y16.6186
G01 X54.6996 Y16.5934
G01 X54.6580 Y16.5656
G01 X54.6186 Y16.5363
G01 X54.5799 Y16.5046
G01 X54.5435 Y16.4716
G01 X54.5254 Y16.4544
G01 X53.4497 Y15.3787
G01 X53.2100 Y15.6185
G01 X53.2100 Y22.4874
G01 X53.2315 Y22.5051
G01 X53.2933 Y22.5611
G01 X53.3287 Y22.5965
G01 X53.3847 Y22.6583
G01 X53.4164 Y22.6970
G01 X53.4661 Y22.7640
G01 X53.4939 Y22.8056
G01 X53.5368 Y22.8771
G01 X53.5604 Y22.9213
G01 X53.5961 Y22.9967
G01 X53.6152 Y23.0429
G01 X53.6433 Y23.1214
G01 X53.6579 Y23.1693
G01 X53.6781 Y23.2503
G01 X53.6879 Y23.2993
G01 X53.7001 Y23.3819
G01 X53.7050 Y23.4317
G01 X53.7091 Y23.5150
G01 X53.7091 Y23.5650
G01 X53.7050 Y23.6483
G01 X53.7001 Y23.6981
G01 X53.6879 Y23.7807
G01 X53.6781 Y23.8297
G01 X53.6579 Y23.9107
G01 X53.6433 Y23.9586
G01 X53.6152 Y24.0371
G01 X53.5961 Y24.0833
G01 X53.5604 Y24.1587
G01 X53.5368 Y24.2029
G01 X53.4939 Y24.2744
G01 X53.4661 Y24.3160
G01 X53.4164 Y24.3830
G01 X53.3847 Y24.4217
G01 X53.3287 Y24.4835
G01 X53.2933 Y24.5189
G01 X53.2315 Y24.5749
G01 X53.2100 Y24.5926
G01 X53.2100 Y25.0274
G01 X53.2315 Y25.0451
G01 X53.2933 Y25.1011
G01 X53.3287 Y25.1365
G01 X53.3847 Y25.1983
G01 X53.4164 Y25.2370
G01 X53.4661 Y25.3040
G01 X53.4939 Y25.3456
G01 X53.5368 Y25.4171
G01 X53.5604 Y25.4613
G01 X53.5961 Y25.5367
G01 X53.6152 Y25.5829
G01 X53.6433 Y25.6614
G01 X53.6579 Y25.7093
G01 X53.6781 Y25.7903
G01 X53.6879 Y25.8393
G01 X53.7001 Y25.9219
G01 X53.7050 Y25.9717
G01 X53.7091 Y26.0550
G01 X53.7091 Y26.1050
G01 X53.7050 Y26.1883
G01 X53.7001 Y26.2381
G01 X53.6879 Y26.3207
G01 X53.6781 Y26.3697
G01 X53.6579 Y26.4507
G01 X53.6433 Y26.4986
G01 X53.6152 Y26.5771
G01 X53.5961 Y26.6233
G01 X53.5604 Y26.6987
G01 X53.5368 Y26.7429
G01 X53.4939 Y26.8144
G01 X53.4661 Y26.8560
G01 X53.4164 Y26.9230
G01 X53.3847 Y26.9617
G01 X53.3287 Y27.0235
G01 X53.2933 Y27.0589
G01 X53.2315 Y27.1149
G01 X53.2100 Y27.1326
G01 X53.2100 Y27.5674
G01 X53.2315 Y27.5851
G01 X53.2933 Y27.6411
G01 X53.3287 Y27.6765
G01 X53.3847 Y27.7383
G01 X53.4164 Y27.7770
G01 X53.4661 Y27.8440
G01 X53.4939 Y27.8856
G01 X53.5368 Y27.9571
G01 X53.5604 Y28.0013
G01 X53.5961 Y28.0767
G01 X53.6152 Y28.1229
G01 X53.6433 Y28.2014
G01 X53.6579 Y28.2493
G01 X53.6781 Y28.3303
G01 X53.6879 Y28.3793
G01 X53.7001 Y28.4619
G01 X53.7050 Y28.5117
G01 X53.7091 Y28.5950
G01 X53.7091 Y28.6450
G01 X53.7050 Y28.7283
G01 X53.7001 Y28.7781
G01 X53.6879 Y28.8607
G01 X53.6781 Y28.9097
G01 X53.6579 Y28.9907
G01 X53.6433 Y29.0386
G01 X53.6152 Y29.1171
G01 X53.5961 Y29.1633
G01 X53.5604 Y29.2387
G01 X53.5368 Y29.2829
G01 X53.4939 Y29.3544
G01 X53.4661 Y29.3960
G01 X53.4164 Y29.4630
G01 X53.3847 Y29.5017
G01 X53.3287 Y29.5635
G01 X53.2933 Y29.5989
G01 X53.2315 Y29.6549
G01 X53.2100 Y29.6726
G01 X53.2100 Y30.1074
G01 X53.2315 Y30.1251
G01 X53.2933 Y30.1811
G01 X53.3287 Y30.2165
G01 X53.3847 Y30.2783
G01 X53.4164 Y30.3170
G01 X53.4661 Y30.3840
G01 X53.4939 Y30.4256
G01 X53.5368 Y30.4971
G01 X53.5604 Y30.5413
G01 X53.5961 Y30.6167
G01 X53.6152 Y30.6629
G01 X53.6433 Y30.7414
G01 X53.6579 Y30.7893
G01 X53.6781 Y30.8703
G01 X53.6879 Y30.9193
G01 X53.7001 Y31.0019
G01 X53.7050 Y31.0517
G01 X53.7091 Y31.1350
G01 X53.7091 Y31.1850
G01 X53.7050 Y31.2683
G01 X53.7001 Y31.3181
G01 X53.6879 Y31.4007
G01 X53.6781 Y31.4497
G01 X53.6579 Y31.5307
G01 X53.6433 Y31.5786
G01 X53.6152 Y31.6571
G01 X53.5961 Y31.7033
G01 X53.5604 Y31.7787
G01 X53.5368 Y31.8229
G01 X53.4939 Y31.8944
G01 X53.4661 Y31.9360
G01 X53.4164 Y32.0030
G01 X53.3847 Y32.0417
G01 X53.3287 Y32.1035
G01 X53.2933 Y32.1389
G01 X53.2350 Y32.1917
G01 X53.2497 Y32.1925
G01 X53.2992 Y32.1998
G01 X53.3478 Y32.2120
G01 X53.3949 Y32.2288
G01 X53.4402 Y32.2502
G01 X53.4831 Y32.2760
G01 X53.5233 Y32.3058
G01 X53.5604 Y32.3394
G01 X53.5940 Y32.3765
G01 X53.6238 Y32.4167
G01 X53.6495 Y32.4596
G01 X53.6709 Y32.5048
G01 X53.6878 Y32.5520
G01 X53.7000 Y32.6005
G01 X53.7073 Y32.6500
G01 X53.7097 Y32.7000
G01 X53.7097 Y34.7000
G01 X53.7073 Y34.7500
G01 X53.7000 Y34.7995
G01 X53.6878 Y34.8480
G01 X53.6709 Y34.8952
G01 X53.6495 Y34.9404
G01 X53.6238 Y34.9833
G01 X53.5940 Y35.0235
G01 X53.5604 Y35.0606
G01 X53.5233 Y35.0942
G01 X53.4831 Y35.1240
G01 X53.4402 Y35.1498
G01 X53.3949 Y35.1712
G01 X53.3478 Y35.1880
G01 X53.2992 Y35.2002
G01 X53.2497 Y35.2075
G01 X53.2100 Y35.2095
G01 X53.2100 Y37.7815
G01 X54.7282 Y39.2998
G01 X55.3498 Y39.2998
G01 X55.3748 Y39.3004
G01 X55.4238 Y39.3028
G01 X55.4736 Y39.3077
G01 X55.5222 Y39.3149
G01 X55.5713 Y39.3246
G01 X55.6189 Y39.3366
G01 X55.6668 Y39.3511
G01 X55.7130 Y39.3676
G01 X55.7592 Y39.3868
G01 X55.8036 Y39.4078
G01 X55.8478 Y39.4314
G01 X55.8899 Y39.4566
G01 X55.9315 Y39.4844
G01 X55.9709 Y39.5137
G01 X56.0096 Y39.5454
G01 X56.0460 Y39.5784
G01 X56.0641 Y39.5956
G01 X56.2685 Y39.8000
G01 X56.3497 Y39.8000
G01 X56.3748 Y39.8006
G01 X56.4581 Y39.8047
G01 X56.5079 Y39.8096
G01 X56.5904 Y39.8219
G01 X56.6395 Y39.8316
G01 X56.7204 Y39.8519
G01 X56.7683 Y39.8664
G01 X56.8468 Y39.8945
G01 X56.8931 Y39.9137
G01 X56.9685 Y39.9493
G01 X57.0126 Y39.9729
G01 X57.0842 Y40.0158
G01 X57.1258 Y40.0436
G01 X57.1928 Y40.0933
G01 X57.2315 Y40.1251
G01 X57.2587 Y40.1497
G01 X57.6597 Y40.1497
G01 X57.6848 Y40.1504
G01 X57.7338 Y40.1528
G01 X57.7836 Y40.1577
G01 X57.8322 Y40.1649
G01 X57.8813 Y40.1746
G01 X57.9289 Y40.1866
G01 X57.9768 Y40.2011
G01 X58.0230 Y40.2176
G01 X58.0692 Y40.2368
G01 X58.1136 Y40.2578
G01 X58.1578 Y40.2814
G01 X58.1999 Y40.3066
G01 X58.2415 Y40.3344
G01 X58.2809 Y40.3637
G01 X58.3196 Y40.3954
G01 X58.3560 Y40.4284
G01 X58.3741 Y40.4456
G01 X59.9141 Y41.9856
G01 X59.9314 Y42.0038
G01 X59.9643 Y42.0401
G01 X59.9961 Y42.0788
G01 X60.0253 Y42.1183
G01 X60.0531 Y42.1599
G01 X60.0784 Y42.2020
G01 X60.1020 Y42.2461
G01 X60.1230 Y42.2905
G01 X60.1421 Y42.3367
G01 X60.1586 Y42.3830
G01 X60.1732 Y42.4309
G01 X60.1851 Y42.4785
G01 X60.1949 Y42.5276
G01 X60.2021 Y42.5761
G01 X60.2070 Y42.6259
G01 X60.2094 Y42.6750
G01 X60.2100 Y42.7000
G01 X60.2100 Y45.7000
G01 X60.2094 Y45.7250
G01 X60.2070 Y45.7741
G01 X60.2021 Y45.8239
G01 X60.1949 Y45.8724
G01 X60.1851 Y45.9215
G01 X60.1732 Y45.9691
G01 X60.1586 Y46.0170
G01 X60.1421 Y46.0633
G01 X60.1230 Y46.1095
G01 X60.1020 Y46.1539
G01 X60.0784 Y46.1980
G01 X60.0531 Y46.2401
G01 X60.0253 Y46.2817
G01 X59.9961 Y46.3212
G01 X59.9643 Y46.3599
G01 X59.9314 Y46.3962
G01 X59.9141 Y46.4144
G01 X57.7065 Y48.6219
G01 X57.7091 Y48.6750
G01 X57.7091 Y48.7250
G01 X57.7050 Y48.8083
G01 X57.7001 Y48.8581
G01 X57.6879 Y48.9407
G01 X57.6781 Y48.9897
G01 X57.6579 Y49.0707
G01 X57.6433 Y49.1186
G01 X57.6152 Y49.1971
G01 X57.5961 Y49.2433
G01 X57.5604 Y49.3187
G01 X57.5368 Y49.3629
G01 X57.4939 Y49.4344
G01 X57.4661 Y49.4760
G01 X57.4164 Y49.5430
G01 X57.3847 Y49.5817
G01 X57.3287 Y49.6435
G01 X57.2933 Y49.6789
G01 X57.2350 Y49.7317
G01 X57.2497 Y49.7325
G01 X57.2992 Y49.7398
G01 X57.3478 Y49.7520
G01 X57.3949 Y49.7688
G01 X57.4402 Y49.7902
G01 X57.4831 Y49.8160
G01 X57.5233 Y49.8458
G01 X57.5604 Y49.8794
G01 X57.5940 Y49.9165
G01 X57.6238 Y49.9567
G01 X57.6495 Y49.9996
G01 X57.6709 Y50.0448
G01 X57.6878 Y50.0920
G01 X57.7000 Y50.1405
G01 X57.7073 Y50.1900
G01 X57.7097 Y50.2400
G01 X57.7097 Y52.2400
G01 X57.7073 Y52.2900
G01 X57.7000 Y52.3395
G01 X57.6878 Y52.3880
G01 X57.6709 Y52.4352
G01 X57.6495 Y52.4804
G01 X57.6238 Y52.5233
G01 X57.5940 Y52.5635
G01 X57.5604 Y52.6006
G01 X57.5233 Y52.6342
G01 X57.4831 Y52.6640
G01 X57.4402 Y52.6898
G01 X57.3949 Y52.7112
G01 X57.3478 Y52.7280
G01 X57.2992 Y52.7402
G01 X57.2497 Y52.7475
G01 X57.1997 Y52.7500
G01 X55.1997 Y52.7500
G01 X55.1498 Y52.7475
G01 X55.1003 Y52.7402
G01 X55.0517 Y52.7280
G01 X55.0046 Y52.7112
G01 X54.9593 Y52.6898
G01 X54.9164 Y52.6640
G01 X54.8762 Y52.6342
G01 X54.8391 Y52.6006
G01 X54.8055 Y52.5635
G01 X54.7757 Y52.5233
G01 X54.7500 Y52.4804
G01 X54.7286 Y52.4352
G01 X54.7117 Y52.3880
G01 X54.6995 Y52.3395
G01 X54.6922 Y52.2900
G01 X54.6903 Y52.2503
G01 X53.2397 Y52.2503
G01 X53.2147 Y52.2496
G01 X53.1657 Y52.2472
G01 X53.1159 Y52.2423
G01 X53.0673 Y52.2351
G01 X53.0182 Y52.2254
G01 X52.9706 Y52.2134
G01 X52.9227 Y52.1989
G01 X52.8765 Y52.1824
G01 X52.8303 Y52.1632
G01 X52.7859 Y52.1422
G01 X52.7417 Y52.1186
G01 X52.6996 Y52.0934
G01 X52.6580 Y52.0656
G01 X52.6186 Y52.0363
G01 X52.5799 Y52.0046
G01 X52.5435 Y51.9716
G01 X52.5254 Y51.9544
G01 X51.9854 Y51.4144
G01 X51.9681 Y51.3962
G01 X51.9352 Y51.3599
G01 X51.9034 Y51.3212
G01 X51.8742 Y51.2817
G01 X51.8464 Y51.2401
G01 X51.8211 Y51.1980
G01 X51.7975 Y51.1539
G01 X51.7765 Y51.1095
G01 X51.7574 Y51.0633
G01 X51.7409 Y51.0170
G01 X51.7263 Y50.9691
G01 X51.7144 Y50.9215
G01 X51.7046 Y50.8724
G01 X51.6974 Y50.8239
G01 X51.6925 Y50.7741
G01 X51.6901 Y50.7250
G01 X51.6895 Y50.7000
G01 X51.6895 Y49.6401
G01 X51.6030 Y49.5759
G01 X51.5643 Y49.5441
G01 X51.4734 Y49.4618
G01 X51.4380 Y49.4264
G01 X51.3556 Y49.3355
G01 X51.3239 Y49.2968
G01 X51.2508 Y49.1983
G01 X51.2230 Y49.1567
G01 X51.2100 Y49.1350
G01 X51.2100 Y52.7000
G01 X51.2094 Y52.7250
G01 X51.2070 Y52.7741
G01 X51.2021 Y52.8239
G01 X51.1949 Y52.8724
G01 X51.1851 Y52.9215
G01 X51.1732 Y52.9691
G01 X51.1586 Y53.0170
G01 X51.1421 Y53.0633
G01 X51.1230 Y53.1095
G01 X51.1020 Y53.1539
G01 X51.0784 Y53.1980
G01 X51.0531 Y53.2401
G01 X51.0253 Y53.2817
G01 X50.9961 Y53.3212
G01 X50.9643 Y53.3599
G01 X50.9314 Y53.3962
G01 X50.9141 Y53.4144
G01 X48.4141 Y55.9144
G01 X48.3960 Y55.9316
G01 X48.3596 Y55.9646
G01 X48.3209 Y55.9963
G01 X48.2815 Y56.0256
G01 X48.2399 Y56.0534
G01 X48.1978 Y56.0786
G01 X48.1536 Y56.1022
G01 X48.1092 Y56.1232
G01 X48.0630 Y56.1424
G01 X48.0168 Y56.1589
G01 X47.9689 Y56.1734
G01 X47.9213 Y56.1854
G01 X47.8722 Y56.1951
G01 X47.8236 Y56.2023
G01 X47.7738 Y56.2072
G01 X47.7248 Y56.2096
G01 X47.6997 Y56.2103
G01 X44.7923 Y56.2103
G01 X44.7747 Y56.2317
G01 X44.7187 Y56.2935
G01 X44.6833 Y56.3289
G01 X44.6215 Y56.3849
G01 X44.5828 Y56.4167
G01 X44.5158 Y56.4664
G01 X44.4742 Y56.4942
G01 X44.4026 Y56.5371
G01 X44.3585 Y56.5607
G01 X44.2831 Y56.5963
G01 X44.2368 Y56.6155
G01 X44.1583 Y56.6436
G01 X44.1104 Y56.6581
G01 X44.0295 Y56.6784
G01 X43.9804 Y56.6881
G01 X43.8979 Y56.7004
G01 X43.8481 Y56.7053
G01 X43.7648 Y56.7094
G01 X43.7147 Y56.7094
G01 X43.6314 Y56.7053
G01 X43.5816 Y56.7004
G01 X43.4991 Y56.6881
G01 X43.4500 Y56.6784
G01 X43.3691 Y56.6581
G01 X43.3212 Y56.6436
G01 X43.2427 Y56.6155
G01 X43.1964 Y56.5963
G01 X43.1210 Y56.5607
G01 X43.0769 Y56.5371
G01 X43.0053 Y56.4942
G01 X42.9637 Y56.4664
G01 X42.8967 Y56.4167
G01 X42.8580 Y56.3849
G01 X42.7962 Y56.3289
G01 X42.7608 Y56.2935
G01 X42.7048 Y56.2317
G01 X42.6731 Y56.1930
G01 X42.6234 Y56.1260
G01 X42.5956 Y56.0844
G01 X42.5527 Y56.0129
G01 X42.5291 Y55.9687
G01 X42.4934 Y55.8933
G01 X42.4743 Y55.8471
G01 X42.4697 Y55.8345
G01 X42.4652 Y55.8471
G01 X42.4461 Y55.8933
G01 X42.4104 Y55.9687
G01 X42.3868 Y56.0129
G01 X42.3439 Y56.0844
G01 X42.3161 Y56.1260
G01 X42.2664 Y56.1930
G01 X42.2347 Y56.2317
G01 X42.2100 Y56.2590
G01 X42.2100 Y57.2000
G01 X42.2094 Y57.2250
G01 X42.2070 Y57.2741
G01 X42.2021 Y57.3239
G01 X42.1949 Y57.3724
G01 X42.1851 Y57.4215
G01 X42.1732 Y57.4691
G01 X42.1586 Y57.5170
G01 X42.1421 Y57.5633
G01 X42.1230 Y57.6095
G01 X42.1020 Y57.6539
G01 X42.0784 Y57.6980
G01 X42.0531 Y57.7401
G01 X42.0253 Y57.7817
G01 X41.9961 Y57.8212
G01 X41.9643 Y57.8599
G01 X41.9314 Y57.8962
G01 X41.9141 Y57.9144
G01 X39.9141 Y59.9144
G01 X39.8960 Y59.9316
G01 X39.8596 Y59.9646
G01 X39.8209 Y59.9963
G01 X39.7815 Y60.0256
G01 X39.7399 Y60.0534
G01 X39.6978 Y60.0786
G01 X39.6536 Y60.1022
G01 X39.6092 Y60.1232
G01 X39.5630 Y60.1424
G01 X39.5168 Y60.1589
G01 X39.4689 Y60.1734
G01 X39.4213 Y60.1854
G01 X39.3722 Y60.1951
G01 X39.3236 Y60.2023
G01 X39.2738 Y60.2072
G01 X39.2248 Y60.2096
G01 X39.1997 Y60.2103
G01 X30.6997 Y60.2103
G01 X30.6747 Y60.2096
G01 X30.6257 Y60.2072
G01 X30.5759 Y60.2023
G01 X30.5273 Y60.1951
G01 X30.4782 Y60.1854
G01 X30.4306 Y60.1734
G01 X30.3827 Y60.1589
G01 X30.3365 Y60.1424
G01 X30.2903 Y60.1232
G01 X30.2459 Y60.1022
G01 X30.2017 Y60.0786
G01 X30.1596 Y60.0534
G01 X30.1180 Y60.0256
G01 X30.0786 Y59.9963
G01 X30.0399 Y59.9646
G01 X30.0035 Y59.9316
G01 X29.9854 Y59.9144
G01 X27.4854 Y57.4144
G01 X27.4681 Y57.3962
G01 X27.4352 Y57.3599
G01 X27.4034 Y57.3212
G01 X27.3742 Y57.2817
G01 X27.3464 Y57.2401
G01 X27.3211 Y57.1980
G01 X27.2975 Y57.1539
G01 X27.2765 Y57.1095
G01 X27.2574 Y57.0633
G01 X27.2409 Y57.0170
G01 X27.2263 Y56.9691
G01 X27.2144 Y56.9215
G01 X27.2046 Y56.8724
G01 X27.1974 Y56.8239
G01 X27.1925 Y56.7741
G01 X27.1901 Y56.7250
G01 X27.1895 Y56.7000
G01 X27.1895 Y56.6185
G01 X26.2813 Y55.7103
G01 X24.1997 Y55.7103
G01 X24.1747 Y55.7096
G01 X24.1257 Y55.7072
G01 X24.0759 Y55.7023
G01 X24.0273 Y55.6951
G01 X23.9782 Y55.6854
G01 X23.9306 Y55.6734
G01 X23.8827 Y55.6589
G01 X23.8365 Y55.6424
G01 X23.7903 Y55.6232
G01 X23.7459 Y55.6022
G01 X23.7017 Y55.5786
G01 X23.6596 Y55.5534
G01 X23.6180 Y55.5256
G01 X23.5786 Y55.4963
G01 X23.5399 Y55.4646
G01 X23.5035 Y55.4316
G01 X23.4854 Y55.4144
G01 X18.9854 Y50.9144
G01 X18.9681 Y50.8962
G01 X18.9352 Y50.8599
G01 X18.9034 Y50.8212
G01 X18.8742 Y50.7817
G01 X18.8464 Y50.7401
G01 X18.8211 Y50.6980
G01 X18.7975 Y50.6539
G01 X18.7765 Y50.6095
G01 X18.7574 Y50.5633
G01 X18.7409 Y50.5170
G01 X18.7263 Y50.4691
G01 X18.7144 Y50.4215
G01 X18.7046 Y50.3724
G01 X18.6974 Y50.3239
G01 X18.6925 Y50.2741
G01 X18.6901 Y50.2250
G01 X18.6895 Y50.2000
G01 X18.6895 Y46.8994
G01 X18.6851 Y46.9215
G01 X18.6732 Y46.9691
G01 X18.6586 Y47.0170
G01 X18.6421 Y47.0633
G01 X18.6230 Y47.1095
G01 X18.6020 Y47.1539
G01 X18.5784 Y47.1980
G01 X18.5531 Y47.2401
G01 X18.5253 Y47.2817
G01 X18.4961 Y47.3212
G01 X18.4643 Y47.3599
G01 X18.4314 Y47.3962
G01 X18.4141 Y47.4144
G01 X17.3741 Y48.4544
G01 X17.3560 Y48.4716
G01 X17.3196 Y48.5046
G01 X17.2809 Y48.5363
G01 X17.2415 Y48.5656
G01 X17.1999 Y48.5934
G01 X17.1578 Y48.6186
G01 X17.1136 Y48.6422
G01 X17.0692 Y48.6632
G01 X17.0230 Y48.6824
G01 X16.9768 Y48.6989
G01 X16.9289 Y48.7134
G01 X16.8813 Y48.7254
G01 X16.8322 Y48.7351
G01 X16.7836 Y48.7423
G01 X16.7338 Y48.7472
G01 X16.6848 Y48.7496
G01 X16.6597 Y48.7503
G01 X12.2587 Y48.7503
G01 X12.2315 Y48.7749
G01 X12.1928 Y48.8067
G01 X12.1258 Y48.8564
G01 X12.0842 Y48.8842
G01 X12.0126 Y48.9271
G01 X11.9685 Y48.9507
G01 X11.8931 Y48.9863
G01 X11.8468 Y49.0055
G01 X11.7683 Y49.0336
G01 X11.7204 Y49.0481
G01 X11.6395 Y49.0684
G01 X11.5904 Y49.0781
G01 X11.5079 Y49.0904
G01 X11.4581 Y49.0953
G01 X11.3748 Y49.0994
G01 X11.3497 Y49.1000
G01 X11.0497 Y49.1000
G01 X11.0247 Y49.0994
G01 X10.9414 Y49.0953
G01 X10.8916 Y49.0904
G01 X10.8091 Y49.0781
G01 X10.7600 Y49.0684
G01 X10.6791 Y49.0481
G01 X10.6312 Y49.0336
G01 X10.5527 Y49.0055
G01 X10.5064 Y48.9863
G01 X10.4310 Y48.9507
G01 X10.3869 Y48.9271
G01 X10.3153 Y48.8842
G01 X10.2737 Y48.8564
G01 X10.2067 Y48.8067
G01 X10.1680 Y48.7749
G01 X10.1062 Y48.7189
G01 X10.0708 Y48.6835
G01 X10.0148 Y48.6217
G01 X9.9831 Y48.5830
G01 X9.9334 Y48.5160
G01 X9.9056 Y48.4744
G01 X9.8627 Y48.4029
G01 X9.8391 Y48.3587
G01 X9.8034 Y48.2833
G01 X9.7843 Y48.2371
G01 X9.7562 Y48.1586
G01 X9.7416 Y48.1107
G01 X9.7214 Y48.0297
G01 X9.7116 Y47.9807
G01 X9.6994 Y47.8981
G01 X9.6945 Y47.8483
G01 X9.6904 Y47.7650
G01 X9.6904 Y47.7150
G01 X9.6945 Y47.6317
G01 X9.6994 Y47.5819
G01 X9.7116 Y47.4993
G01 X9.7214 Y47.4503
G01 X9.7416 Y47.3693
G01 X9.7562 Y47.3214
G01 X9.7843 Y47.2429
G01 X9.8034 Y47.1967
G01 X9.8391 Y47.1213
G01 X9.8627 Y47.0771
G01 X9.9056 Y47.0056
G01 X9.9334 Y46.9640
G01 X9.9831 Y46.8970
G01 X10.0148 Y46.8583
G01 X10.0708 Y46.7965
G01 X10.1062 Y46.7611
G01 X10.1645 Y46.7083
G01 X10.1498 Y46.7075
G01 X10.1003 Y46.7002
G01 X10.0517 Y46.6880
G01 X10.0046 Y46.6712
G01 X9.9593 Y46.6498
G01 X9.9164 Y46.6240
G01 X9.8762 Y46.5942
G01 X9.8391 Y46.5606
G01 X9.8055 Y46.5235
G01 X9.7757 Y46.4833
G01 X9.7500 Y46.4404
G01 X9.7286 Y46.3952
G01 X9.7117 Y46.3480
G01 X9.6995 Y46.2995
G01 X9.6922 Y46.2500
G01 X9.6897 Y46.2000
G01 X9.6897 Y44.2000
G01 X9.6922 Y44.1500
G01 X9.6995 Y44.1005
G01 X9.7117 Y44.0520
G01 X9.7286 Y44.0048
G01 X9.7500 Y43.9596
G01 X9.7757 Y43.9167
G01 X9.8055 Y43.8765
G01 X9.8391 Y43.8394
G01 X9.8762 Y43.8058
G01 X9.9164 Y43.7760
G01 X9.9593 Y43.7502
G01 X10.0046 Y43.7288
G01 X10.0517 Y43.7120
G01 X10.1003 Y43.6998
G01 X10.1498 Y43.6925
G01 X10.1997 Y43.6900
G01 X12.1997 Y43.6900
G01 X12.2497 Y43.6925
G01 X12.2992 Y43.6998
G01 X12.3478 Y43.7120
G01 X12.3949 Y43.7288
G01 X12.4402 Y43.7502
G01 X12.4831 Y43.7760
G01 X12.5233 Y43.8058
G01 X12.5604 Y43.8394
G01 X12.5940 Y43.8765
G01 X12.6238 Y43.9167
G01 X12.6495 Y43.9596
G01 X12.6709 Y44.0048
G01 X12.6878 Y44.0520
G01 X12.7000 Y44.1005
G01 X12.7073 Y44.1500
G01 X12.7092 Y44.1897
G01 X14.6895 Y44.1897
G01 X14.6895 Y41.3994
G01 X14.6851 Y41.4215
G01 X14.6732 Y41.4691
G01 X14.6586 Y41.5170
G01 X14.6421 Y41.5633
G01 X14.6230 Y41.6095
G01 X14.6020 Y41.6539
G01 X14.5784 Y41.6980
G01 X14.5531 Y41.7401
G01 X14.5253 Y41.7817
G01 X14.4961 Y41.8212
G01 X14.4643 Y41.8599
G01 X14.4314 Y41.8962
G01 X14.3960 Y41.9316
G01 X14.3596 Y41.9646
G01 X14.3209 Y41.9963
G01 X14.2815 Y42.0256
G01 X14.2399 Y42.0534
G01 X14.1978 Y42.0786
G01 X14.1536 Y42.1022
G01 X14.1092 Y42.1232
G01 X14.0630 Y42.1424
G01 X14.0168 Y42.1589
G01 X13.9689 Y42.1734
G01 X13.9213 Y42.1854
G01 X13.8722 Y42.1951
G01 X13.8236 Y42.2023
G01 X13.7738 Y42.2072
G01 X13.7248 Y42.2096
G01 X13.6997 Y42.2103
G01 X8.6182 Y42.2103
G01 X7.4141 Y43.4144
G01 X7.3960 Y43.4316
G01 X7.3596 Y43.4646
G01 X7.3209 Y43.4963
G01 X7.2815 Y43.5256
G01 X7.2399 Y43.5534
G01 X7.1978 Y43.5786
G01 X7.1536 Y43.6022
G01 X7.1092 Y43.6232
G01 X7.0630 Y43.6424
G01 X7.0168 Y43.6589
G01 X6.9689 Y43.6734
G01 X6.9213 Y43.6854
G01 X6.8979 Y43.6900
G01 X8.6997 Y43.6900
G01 X8.7497 Y43.6925
G01 X8.7992 Y43.6998
G01 X8.8478 Y43.7120
G01 X8.8949 Y43.7288
G01 X8.9402 Y43.7502
G01 X8.9831 Y43.7760
G01 X9.0233 Y43.8058
G01 X9.0604 Y43.8394
G01 X9.0940 Y43.8765
G01 X9.1238 Y43.9167
G01 X9.1495 Y43.9596
G01 X9.1709 Y44.0048
G01 X9.1878 Y44.0520
G01 X9.2000 Y44.1005
G01 X9.2073 Y44.1500
G01 X9.2097 Y44.2000
G01 X9.2097 Y46.2000
G01 X9.2073 Y46.2500
G01 X9.2000 Y46.2995
G01 X9.1878 Y46.3480
