(G-CODE GENERATED BY FLATCAM v8.991 - www.flatcam.org - Version Date: 2019/12/27)

(Name: delikler)
(Type: G-code from Excellon)
(Units: MM)

(Created on Wednesday, 08 April 2020 at 14:38)

(Feedrate: 300.0 mm/min)
(Feedrate rapids 1500.0 mm/min)

(Z_Cut: -1.7 mm)
(Z_Move: 2.0 mm)
(Z Toolchange: 15.0 mm)
(X,Y Toolchange: 0.0000, 0.0000 mm)
(Z Start: None mm)
(Z End: 0.5 mm)
(Steps per circle: 64)
(Preprocessor Excellon: default)

(X range:    1.2997 ...   58.5997  mm)
(Y range:    5.5200 ...   55.6000  mm)

(Spindle Speed: None RPM)
G21
G90
G94




G01 F300.00
G00 Z2.0000

M03
G00 X35.1997 Y48.7000
G01 Z-1.7000
G01 Z0
G00 Z2.0000
M03
G00 X55.1997 Y18.7000
G01 Z-1.7000
G01 Z0
G00 Z2.0000
G00 X48.6997 Y18.2000
G01 Z-1.7000
G01 Z0
G00 Z2.0000
G00 X45.6997 Y12.2000
G01 Z-1.7000
G01 Z0
G00 Z2.0000
G00 X45.6997 Y6.2000
G01 Z-1.7000
G01 Z0
G00 Z2.0000
G00 X38.3197 Y5.9200
G01 Z-1.7000
G01 Z0
G00 Z2.0000
G00 X38.3197 Y8.4600
G01 Z-1.7000
G01 Z0
G00 Z2.0000
G00 X38.3197 Y11.0000
G01 Z-1.7000
G01 Z0
G00 Z2.0000
G00 X38.3197 Y13.5400
G01 Z-1.7000
G01 Z0
G00 Z2.0000
G00 X38.3197 Y16.0800
G01 Z-1.7000
G01 Z0
G00 Z2.0000
G00 X38.3197 Y18.6200
G01 Z-1.7000
G01 Z0
G00 Z2.0000
G00 X38.3197 Y21.1600
G01 Z-1.7000
G01 Z0
G00 Z2.0000
G00 X38.3197 Y23.7000
G01 Z-1.7000
G01 Z0
G00 Z2.0000
G00 X38.3197 Y26.2400
G01 Z-1.7000
G01 Z0
G00 Z2.0000
G00 X45.1997 Y23.5400
G01 Z-1.7000
G01 Z0
G00 Z2.0000
G00 X45.1997 Y26.0800
G01 Z-1.7000
G01 Z0
G00 Z2.0000
G00 X45.1997 Y28.6200
G01 Z-1.7000
G01 Z0
G00 Z2.0000
G00 X45.1997 Y31.1600
G01 Z-1.7000
G01 Z0
G00 Z2.0000
G00 X45.1997 Y33.7000
G01 Z-1.7000
G01 Z0
G00 Z2.0000
G00 X38.3197 Y28.7800
G01 Z-1.7000
G01 Z0
G00 Z2.0000
G00 X38.3197 Y31.3200
G01 Z-1.7000
G01 Z0
G00 Z2.0000
G00 X38.3197 Y33.8600
G01 Z-1.7000
G01 Z0
G00 Z2.0000
G00 X38.3197 Y36.4000
G01 Z-1.7000
G01 Z0
G00 Z2.0000
G00 X38.3197 Y38.9400
G01 Z-1.7000
G01 Z0
G00 Z2.0000
G00 X38.3197 Y41.4800
G01 Z-1.7000
G01 Z0
G00 Z2.0000
G00 X34.6997 Y41.2000
G01 Z-1.7000
G01 Z0
G00 Z2.0000
G00 X27.1997 Y45.2000
G01 Z-1.7000
G01 Z0
G00 Z2.0000
G00 X23.0797 Y41.4800
G01 Z-1.7000
G01 Z0
G00 Z2.0000
G00 X23.0797 Y38.9400
G01 Z-1.7000
G01 Z0
G00 Z2.0000
G00 X23.0797 Y36.4000
G01 Z-1.7000
G01 Z0
G00 Z2.0000
G00 X23.0797 Y33.8600
G01 Z-1.7000
G01 Z0
G00 Z2.0000
G00 X23.0797 Y31.3200
G01 Z-1.7000
G01 Z0
G00 Z2.0000
G00 X23.0797 Y28.7800
G01 Z-1.7000
G01 Z0
G00 Z2.0000
G00 X23.0797 Y26.2400
G01 Z-1.7000
G01 Z0
G00 Z2.0000
G00 X23.0797 Y23.7000
G01 Z-1.7000
G01 Z0
G00 Z2.0000
G00 X23.0797 Y21.1600
G01 Z-1.7000
G01 Z0
G00 Z2.0000
G00 X23.0797 Y18.6200
G01 Z-1.7000
G01 Z0
G00 Z2.0000
G00 X23.0797 Y16.0800
G01 Z-1.7000
G01 Z0
G00 Z2.0000
G00 X23.0797 Y13.5400
G01 Z-1.7000
G01 Z0
G00 Z2.0000
G00 X23.0797 Y11.0000
G01 Z-1.7000
G01 Z0
G00 Z2.0000
G00 X29.1997 Y9.2000
G01 Z-1.7000
G01 Z0
G00 Z2.0000
G00 X23.0797 Y5.9200
G01 Z-1.7000
G01 Z0
G00 Z2.0000
G00 X23.0797 Y8.4600
G01 Z-1.7000
G01 Z0
G00 Z2.0000
G00 X14.6997 Y11.1200
G01 Z-1.7000
G01 Z0
G00 Z2.0000
G00 X10.6997 Y10.2000
G01 Z-1.7000
G01 Z0
G00 Z2.0000
G00 X4.1597 Y19.7000
G01 Z-1.7000
G01 Z0
G00 Z2.0000
G00 X6.6997 Y19.7000
G01 Z-1.7000
G01 Z0
G00 Z2.0000
G00 X10.1997 Y16.2000
G01 Z-1.7000
G01 Z0
G00 Z2.0000
G00 X14.6997 Y13.6600
G01 Z-1.7000
G01 Z0
G00 Z2.0000
G00 X14.6997 Y16.2000
G01 Z-1.7000
G01 Z0
G00 Z2.0000
G00 X14.6997 Y21.2000
G01 Z-1.7000
G01 Z0
G00 Z2.0000
G00 X14.6997 Y23.7400
G01 Z-1.7000
G01 Z0
G00 Z2.0000
G00 X12.6997 Y31.2000
G01 Z-1.7000
G01 Z0
G00 Z2.0000
G00 X11.6997 Y38.7000
G01 Z-1.7000
G01 Z0
G00 Z2.0000
G00 X11.6997 Y34.2000
G01 Z-1.7000
G01 Z0
G00 Z2.0000
G00 X9.1997 Y26.7000
G01 Z-1.7000
G01 Z0
G00 Z2.0000
G00 X6.7797 Y28.7000
G01 Z-1.7000
G01 Z0
G00 Z2.0000
G00 X4.2397 Y28.7000
G01 Z-1.7000
G01 Z0
G00 Z2.0000
G00 X1.6997 Y28.7000
G01 Z-1.7000
G01 Z0
G00 Z2.0000
G00 X4.0797 Y34.2000
G01 Z-1.7000
G01 Z0
G00 Z2.0000
G00 X4.0797 Y38.7000
G01 Z-1.7000
G01 Z0
G00 Z2.0000
G00 X4.1997 Y45.2000
G01 Z-1.7000
G01 Z0
G00 Z2.0000
G00 X4.1997 Y47.7400
G01 Z-1.7000
G01 Z0
G00 Z2.0000
G00 X7.6997 Y47.7400
G01 Z-1.7000
G01 Z0
G00 Z2.0000
G00 X7.6997 Y45.2000
G01 Z-1.7000
G01 Z0
G00 Z2.0000
G00 X11.1997 Y45.2000
G01 Z-1.7000
G01 Z0
G00 Z2.0000
G00 X11.1997 Y47.7400
G01 Z-1.7000
G01 Z0
G00 Z2.0000
G00 X17.1997 Y52.7000
G01 Z-1.7000
G01 Z0
G00 Z2.0000
G00 X26.1997 Y49.2000
G01 Z-1.7000
G01 Z0
G00 Z2.0000
G00 X31.1997 Y49.2000
G01 Z-1.7000
G01 Z0
G00 Z2.0000
G00 X35.1997 Y48.7000
G01 Z-1.7000
G01 Z0
G00 Z2.0000
G00 X36.1197 Y52.6600
G01 Z-1.7000
G01 Z0
G00 Z2.0000
G00 X31.6997 Y55.2000
G01 Z-1.7000
G01 Z0
G00 Z2.0000
G00 X36.1197 Y55.2000
G01 Z-1.7000
G01 Z0
G00 Z2.0000
G00 X38.6597 Y55.2000
G01 Z-1.7000
G01 Z0
G00 Z2.0000
G00 X41.1997 Y55.2000
G01 Z-1.7000
G01 Z0
G00 Z2.0000
G00 X43.7397 Y55.2000
G01 Z-1.7000
G01 Z0
G00 Z2.0000
G00 X43.7397 Y52.6600
G01 Z-1.7000
G01 Z0
G00 Z2.0000
G00 X41.1997 Y52.6600
G01 Z-1.7000
G01 Z0
G00 Z2.0000
G00 X38.6597 Y52.6600
G01 Z-1.7000
G01 Z0
G00 Z2.0000
G00 X44.6997 Y47.7000
G01 Z-1.7000
G01 Z0
G00 Z2.0000
G00 X52.6997 Y48.2000
G01 Z-1.7000
G01 Z0
G00 Z2.0000
G00 X56.1997 Y51.2400
G01 Z-1.7000
G01 Z0
G00 Z2.0000
G00 X56.1997 Y48.7000
G01 Z-1.7000
G01 Z0
G00 Z2.0000
G00 X56.1997 Y43.7000
G01 Z-1.7000
G01 Z0
G00 Z2.0000
G00 X56.1997 Y41.1600
G01 Z-1.7000
G01 Z0
G00 Z2.0000
G00 X52.1997 Y33.7000
G01 Z-1.7000
G01 Z0
G00 Z2.0000
G00 X48.6997 Y33.7000
G01 Z-1.7000
G01 Z0
G00 Z2.0000
G00 X48.6997 Y31.1600
G01 Z-1.7000
G01 Z0
G00 Z2.0000
G00 X52.1997 Y31.1600
G01 Z-1.7000
G01 Z0
G00 Z2.0000
G00 X52.1997 Y28.6200
G01 Z-1.7000
G01 Z0
G00 Z2.0000
G00 X48.6997 Y28.6200
G01 Z-1.7000
G01 Z0
G00 Z2.0000
G00 X48.6997 Y26.0800
G01 Z-1.7000
G01 Z0
G00 Z2.0000
G00 X48.6997 Y23.5400
G01 Z-1.7000
G01 Z0
G00 Z2.0000
G00 X52.1997 Y23.5400
G01 Z-1.7000
G01 Z0
G00 Z2.0000
G00 X52.1997 Y26.0800
G01 Z-1.7000
G01 Z0
G00 Z2.0000
G00 X58.1997 Y23.2400
G01 Z-1.7000
G01 Z0
G00 Z2.0000
G00 X58.1997 Y20.7000
G01 Z-1.7000
G01 Z0
G00 Z2.0000
G00 X58.1997 Y15.7400
G01 Z-1.7000
G01 Z0
G00 Z2.0000
G00 X58.1997 Y13.2000
G01 Z-1.7000
G01 Z0
G00 Z2.0000
M05
G00 Z0.50
G00 X0.0 Y0.0

